ecomm/src/main/assets/lut/BlueHour - converted with Color.cube
TITLE "BlueHour - converted with Color.io - Created with Color.io"
LUT_3D_SIZE 5
DOMAIN_MIN 0.000000 0.000000 0.000000
DOMAIN_MAX 0.903226 0.903226 0.903226
0.000000 0.000000 0.000000
0.313685 0.000000 0.000000
0.635342 0.000000 0.000000
0.981022 0.000000 0.000000
1.000000 0.000000 0.000000
0.000000 0.448990 0.000000
0.257297 0.315640 0.000000
0.617505 0.188357 0.000000
0.985565 0.101041 0.000000
1.000000 0.109212 0.000000
0.000000 0.910643 0.000000
0.143081 0.758077 0.000000
0.588424 0.625047 0.000000
0.993745 0.533383 0.000000
1.000000 0.486498 0.000000
0.000000 1.000000 0.000000
0.018237 1.000000 0.000000
0.536799 1.000000 0.000000
0.995839 0.993376 0.000000
1.000000 0.890577 0.000000
0.000000 1.000000 0.000000
0.006071 1.000000 0.000000
0.475698 1.000000 0.000000
0.962554 1.000000 0.000000
1.000000 1.000000 0.000000
0.000000 0.000000 0.540121
0.251166 0.000000 0.340595
0.610869 0.000000 0.190453
0.964606 0.000000 0.108497
1.000000 0.000000 0.123645
0.000000 0.327320 0.362096
0.117270 0.173550 0.197489
0.537475 0.095690 0.111213
0.919503 0.067960 0.093405
1.000000 0.088724 0.133875
0.000000 0.820901 0.158662
0.010113 0.647653 0.048614
0.497751 0.542100 0.012294
0.919057 0.484459 0.031787
1.000000 0.451365 0.118019
0.000000 1.000000 0.006487
0.000000 1.000000 0.000000
0.454104 0.994654 0.000000
0.918464 0.916769 0.000093
1.000000 0.800437 0.082124
0.000000 1.000000 0.000000
0.000000 1.000000 0.000000
0.393187 1.000000 0.000000
0.854007 1.000000 0.000000
1.000000 1.000000 0.042570
0.000000 0.000000 1.000000
0.106728 0.000000 0.833389
0.564353 0.000000 0.631213
0.957778 0.000000 0.516534
1.000000 0.000000 0.479216
0.000000 0.118137 0.906891
0.000337 0.003581 0.680570
0.462791 0.001919 0.548205
0.876137 0.009457 0.487129
1.000000 0.049203 0.476161
0.000000 0.675889 0.701568
0.000000 0.512971 0.542694
0.391950 0.444472 0.465647
0.823041 0.425108 0.450121
1.000000 0.423625 0.477159
0.000000 1.000000 0.511173
0.000000 0.995690 0.415484
0.347727 0.895317 0.376999
0.796754 0.807573 0.394990
1.000000 0.739423 0.465243
0.000000 1.000000 0.385470
0.000000 1.000000 0.334175
0.317236 1.000000 0.323179
0.753736 1.000000 0.350262
1.000000 0.999933 0.421584
0.000000 0.000000 1.000000
0.000000 0.000000 1.000000
0.471941 0.000000 1.000000
0.917339 0.000000 0.963997
1.000000 0.000000 0.844368
0.000000 0.000000 1.000000
0.000000 0.000000 1.000000
0.359898 0.000000 0.998511
0.828322 0.000000 0.884808
1.000000 0.013680 0.800060
0.000000 0.472920 1.000000
0.000000 0.340655 0.999758
0.263394 0.299459 0.921448
0.748755 0.349070 0.805663
1.000000 0.400368 0.767021
0.000000 0.993698 0.997546
0.000000 0.852806 0.870090
0.236632 0.761287 0.779391
0.699366 0.721863 0.735954
0.998592 0.707910 0.743517
0.000000 1.000000 0.830905
0.000000 1.000000 0.748915
0.250851 1.000000 0.696363
0.670107 0.999404 0.679069
0.987701 0.974889 0.700198
0.000000 0.000000 1.000000
0.000000 0.000000 1.000000
0.363045 0.000000 1.000000
0.820360 0.000000 1.000000
1.000000 0.000000 1.000000
0.000000 0.000000 1.000000
0.000000 0.000000 1.000000
0.253876 0.000000 1.000000
0.745795 0.000000 1.000000
1.000000 0.004786 1.000000
0.000000 0.302348 1.000000
0.000000 0.204162 1.000000
0.187475 0.207617 1.000000
0.671390 0.279817 1.000000
0.995920 0.359480 0.999664
0.000000 0.804067 1.000000
0.000000 0.708344 1.000000
0.178083 0.653694 1.000000
0.620723 0.637362 0.993473
0.944876 0.665060 0.966191
0.000000 1.000000 1.000000
0.000000 1.000000 1.000000
0.195037 0.997775 0.998648
0.596036 0.939245 0.943093
0.913233 0.923998 0.926719
