ecomm/src/main/assets/lut/BlueHour - converted with Color.cube
TITLE "BlueHour - converted with Color.io - Created with Color.io"
LUT_3D_SIZE 32
DOMAIN_MIN 0.0 0.0 0.0
DOMAIN_MAX 1.0 1.0 1.0
0.000000 0.000000 0.000000
0.044868 0.000000 0.000000
0.089723 0.000000 0.000000
0.134543 0.000000 0.000000
0.179325 0.000000 0.000000
0.224085 0.000000 0.000000
0.268855 0.000000 0.000000
0.313685 0.000000 0.000000
0.358637 0.000000 0.000000
0.403787 0.000000 0.000000
0.449215 0.000000 0.000000
0.495006 0.000000 0.000000
0.541242 0.000000 0.000000
0.587999 0.000000 0.000000
0.635342 0.000000 0.000000
0.683312 0.000000 0.000000
0.731919 0.000000 0.000000
0.781126 0.000000 0.000000
0.830843 0.000000 0.000000
0.880932 0.000000 0.000000
0.931133 0.000000 0.000000
0.981022 0.000000 0.000000
0.999002 0.000000 0.000000
1.000000 0.000000 0.000000
1.000000 0.000000 0.000000
1.000000 0.000000 0.000000
1.000000 0.000000 0.000000
1.000000 0.000000 0.000000
1.000000 0.000000 0.000000
1.000000 0.000000 0.000000
1.000000 0.000000 0.000000
1.000000 0.000000 0.000000
0.000000 0.064346 0.000000
0.024123 0.049365 0.000000
0.072329 0.034347 0.000000
0.120236 0.019237 0.000000
0.167750 0.005188 0.000000
0.214831 0.001242 0.000000
0.261495 0.000720 0.000000
0.307802 0.000195 0.000000
0.353858 0.000009 0.000000
0.399796 0.000000 0.000000
0.445767 0.000000 0.000000
0.491924 0.000000 0.000000
0.538415 0.000000 0.000000
0.585376 0.000000 0.000000
0.632918 0.000000 0.000000
0.681122 0.000000 0.000000
0.730031 0.000000 0.000000
0.779627 0.000000 0.000000
0.829833 0.000000 0.000000
0.880518 0.000000 0.000000
0.931411 0.000000 0.000000
0.982049 0.000000 0.000000
0.999358 0.000000 0.000000
1.000000 0.000000 0.000000
1.000000 0.000000 0.000000
1.000000 0.000000 0.000000
1.000000 0.000000 0.000000
1.000000 0.000000 0.000000
1.000000 0.000000 0.000000
1.000000 0.000000 0.000000
1.000000 0.000000 0.000000
1.000000 0.000000 0.000000
0.000000 0.128638 0.000000
0.003942 0.112981 0.000000
0.054648 0.097286 0.000000
0.105608 0.081520 0.000000
0.155835 0.065629 0.000000
0.205234 0.049582 0.000000
0.253802 0.033363 0.000000
0.301612 0.016987 0.000000
0.348809 0.003706 0.000000
0.395581 0.001928 0.000000
0.442141 0.000844 0.000000
0.488712 0.000135 0.000000
0.535504 0.000000 0.000000
0.582709 0.000000 0.000000
0.630484 0.000000 0.000000
0.678950 0.000000 0.000000
0.728178 0.000000 0.000000
0.778173 0.000000 0.000000
0.828872 0.000000 0.000000
0.880151 0.000000 0.000000
0.931728 0.000000 0.000000
0.983087 0.000000 0.000000
0.999720 0.000000 0.000000
1.000000 0.000000 0.000000
1.000000 0.000000 0.000000
1.000000 0.000000 0.000000
1.000000 0.000000 0.000000
1.000000 0.000000 0.000000
1.000000 0.000000 0.000000
1.000000 0.000000 0.000000
1.000000 0.000000 0.000000
1.000000 0.000000 0.000000
0.000000 0.192826 0.000000
0.000780 0.176493 0.000000
0.036384 0.160132 0.000000
0.090370 0.143704 0.000000
0.143271 0.127174 0.000000
0.194979 0.110493 0.000000
0.245471 0.093644 0.000000
0.294832 0.076644 0.000000
0.343239 0.059541 0.000000
0.390928 0.042417 0.000000
0.438170 0.025368 0.000000
0.485247 0.010554 0.000000
0.532428 0.003442 0.000000
0.579954 0.001877 0.000000
0.628028 0.000369 0.000000
0.676807 0.000017 0.000000
0.726393 0.000000 0.000000
0.776813 0.000000 0.000000
0.828017 0.000000 0.000000
0.879889 0.000000 0.000000
0.932143 0.000000 0.000000
0.983890 0.000000 0.000000
1.000000 0.000000 0.000000
1.000000 0.000000 0.000000
1.000000 0.000000 0.000000
1.000000 0.000000 0.000000
1.000000 0.000000 0.000000
1.000000 0.000000 0.000000
1.000000 0.000000 0.000000
1.000000 0.000000 0.000000
1.000000 0.000000 0.000000
1.000000 0.000147 0.000000
0.000000 0.256901 0.000000
0.000210 0.239893 0.000000
0.017646 0.222867 0.000000
0.074242 0.205791 0.000000
0.129788 0.188621 0.000000
0.183787 0.171322 0.000000
0.236229 0.153867 0.000000
0.287205 0.136271 0.000000
0.336916 0.118592 0.000000
0.385639 0.100917 0.000000
0.433691 0.083354 0.000000
0.481406 0.066016 0.000000
0.529100 0.049014 0.000000
0.577061 0.032455 0.000000
0.625534 0.016441 0.000000
0.674708 0.006155 0.000000
0.724713 0.003797 0.000000
0.775601 0.002078 0.000000
0.827336 0.000502 0.000000
0.879812 0.000033 0.000000
0.932741 0.000000 0.000000
0.984145 0.000000 0.000000
1.000000 0.000000 0.000000
1.000000 0.000000 0.000000
1.000000 0.000000 0.000000
1.000000 0.000000 0.000000
1.000000 0.000000 0.000000
1.000000 0.000000 0.000000
1.000000 0.000000 0.000000
1.000000 0.001783 0.000000
1.000000 0.003799 0.000000
1.000000 0.007245 0.000000
0.000000 0.320897 0.000000
0.000000 0.303213 0.000000
0.002803 0.285523 0.000000
0.057059 0.267801 0.000000
0.115143 0.250008 0.000000
0.171431 0.232102 0.000000
0.225847 0.214067 0.000000
0.278511 0.195914 0.000000
0.329638 0.177702 0.000000
0.379534 0.159527 0.000000
0.428553 0.141503 0.000000
0.477067 0.123748 0.000000
0.525432 0.106380 0.000000
0.573975 0.089508 0.000000
0.622975 0.073233 0.000000
0.672653 0.057658 0.000000
0.723167 0.042892 0.000000
0.774590 0.029056 0.000000
0.826903 0.016299 0.000000
0.880011 0.008637 0.000000
0.933626 0.006229 0.000000
0.984486 0.005057 0.000000
1.000000 0.004203 0.000000
1.000000 0.003720 0.000000
1.000000 0.003659 0.000000
1.000000 0.004049 0.000000
1.000000 0.004902 0.000000
1.000000 0.006201 0.000000
1.000000 0.007900 0.000000
1.000000 0.020721 0.000000
1.000000 0.036419 0.000000
1.000000 0.053016 0.000000
0.000000 0.384890 0.000000
0.000000 0.366528 0.000000
0.001575 0.348173 0.000000
0.038689 0.329810 0.000000
0.099211 0.311405 0.000000
0.157725 0.292919 0.000000
0.214156 0.274329 0.000000
0.268579 0.255660 0.000000
0.321240 0.236964 0.000000
0.372463 0.218342 0.000000
0.422622 0.199911 0.000000
0.472118 0.181796 0.000000
0.521335 0.164116 0.000000
0.570631 0.146983 0.000000
0.620314 0.130498 0.000000
0.670635 0.114760 0.000000
0.721773 0.099872 0.000000
0.773822 0.085941 0.000000
0.826782 0.073103 0.000000
0.880571 0.061575 0.000000
0.934902 0.051670 0.000000
0.984945 0.043730 0.000000
1.000000 0.037827 0.000000
1.000000 0.034196 0.000000
1.000000 0.033185 0.000000
1.000000 0.035022 0.000000
1.000000 0.039806 0.000000
1.000000 0.047463 0.000000
1.000000 0.057723 0.000000
1.000000 0.070130 0.000000
1.000000 0.084067 0.000000
1.000000 0.098806 0.000000
0.000000 0.448990 0.000000
0.000000 0.429950 0.000000
0.000377 0.410933 0.000000
0.019474 0.391936 0.000000
0.081911 0.372934 0.000000
0.142597 0.353891 0.000000
0.201030 0.334788 0.000000
0.257297 0.315640 0.000000
0.311608 0.296512 0.000000
0.364309 0.277497 0.000000
0.415788 0.258714 0.000000
0.466456 0.240292 0.000000
0.516722 0.222351 0.000000
0.566961 0.205006 0.000000
0.617505 0.188357 0.000000
0.668627 0.172502 0.000000
0.720531 0.157536 0.000000
0.773329 0.143559 0.000000
0.827037 0.130689 0.000000
0.881584 0.119122 0.000000
0.936688 0.109138 0.000000
0.985565 0.101041 0.000000
1.000000 0.094875 0.000000
1.000000 0.090845 0.000000
1.000000 0.089259 0.000000
1.000000 0.090314 0.000000
1.000000 0.094079 0.000000
1.000000 0.100466 0.000000
1.000000 0.109212 0.000000
1.000000 0.119886 0.000000
1.000000 0.131924 0.000000
1.000000 0.144677 0.000000
0.000000 0.513332 0.000000
0.000000 0.493622 0.000000
0.000000 0.473950 0.000000
0.004555 0.454333 0.000000
0.063235 0.434754 0.000000
0.126023 0.415184 0.000000
0.186452 0.395605 0.000000
0.244597 0.376031 0.000000
0.300677 0.356518 0.000000
0.354999 0.337165 0.000000
0.407968 0.318085 0.000000
0.460000 0.299406 0.000000
0.511511 0.281251 0.000000
0.562890 0.263735 0.000000
0.614483 0.246961 0.000000
0.666580 0.231022 0.000000
0.719404 0.216013 0.000000
0.773085 0.202023 0.000000
0.827654 0.189156 0.000000
0.883051 0.177586 0.000000
0.938998 0.167555 0.000000
0.986359 0.159316 0.000000
1.000000 0.152885 0.000000
1.000000 0.148431 0.000000
1.000000 0.146223 0.000000
1.000000 0.146425 0.000000
1.000000 0.149080 0.000000
1.000000 0.154092 0.000000
1.000000 0.161206 0.000000
1.000000 0.170026 0.000000
1.000000 0.180048 0.000000
1.000000 0.190696 0.000000
0.000000 0.578056 0.000000
0.000000 0.557693 0.000000
0.000000 0.537389 0.000000
0.002562 0.517176 0.000000
0.043238 0.497050 0.000000
0.108050 0.476990 0.000000
0.170451 0.456979 0.000000
0.230505 0.437028 0.000000
0.288419 0.417189 0.000000
0.344501 0.397550 0.000000
0.399116 0.378225 0.000000
0.452690 0.359339 0.000000
0.505638 0.341015 0.000000
0.558352 0.323366 0.000000
0.611187 0.306497 0.000000
0.664445 0.290502 0.000000
0.718360 0.275469 0.000000
0.773072 0.261472 0.000000
0.828618 0.248588 0.000000
0.884960 0.236999 0.000000
0.941822 0.226904 0.000000
0.987312 0.218515 0.000000
1.000000 0.211815 0.000000
1.000000 0.206927 0.000000
1.000000 0.204070 0.000000
1.000000 0.203365 0.000000
1.000000 0.204834 0.000000
1.000000 0.208374 0.000000
1.000000 0.213750 0.000000
1.000000 0.220607 0.000000
1.000000 0.228502 0.000000
1.000000 0.236936 0.000000
0.000000 0.643288 0.000000
0.000000 0.622312 0.000000
0.000000 0.601414 0.000000
0.000533 0.580644 0.000000
0.022264 0.560013 0.000000
0.088783 0.539510 0.000000
0.153115 0.519119 0.000000
0.215088 0.498847 0.000000
0.274890 0.478738 0.000000
0.332815 0.458872 0.000000
0.389222 0.439354 0.000000
0.444494 0.420307 0.000000
0.499050 0.401851 0.000000
0.553278 0.384100 0.000000
0.607533 0.367157 0.000000
0.662122 0.351115 0.000000
0.717286 0.336058 0.000000
0.773185 0.322064 0.000000
0.829870 0.309198 0.000000
0.887292 0.297610 0.000000
0.945169 0.287460 0.000000
0.988459 0.278889 0.000000
1.000000 0.271866 0.000000
1.000000 0.266480 0.000000
1.000000 0.262901 0.000000
1.000000 0.261208 0.000000
1.000000 0.261400 0.000000
1.000000 0.263369 0.000000
1.000000 0.266903 0.000000
1.000000 0.271688 0.000000
1.000000 0.277349 0.000000
1.000000 0.283462 0.000000
0.000000 0.709133 0.000000
0.000000 0.687602 0.000000
0.000000 0.666170 0.000000
0.000000 0.644902 0.000000
0.006429 0.623827 0.000000
0.068379 0.602939 0.000000
0.134584 0.582229 0.000000
0.198460 0.561698 0.000000
0.260179 0.541379 0.000000
0.320013 0.521345 0.000000
0.378299 0.501690 0.000000
0.435412 0.482529 0.000000
0.491722 0.463979 0.000000
0.547621 0.446150 0.000000
0.603450 0.429139 0.000000
0.659509 0.413033 0.000000
0.716038 0.397905 0.000000
0.773215 0.383840 0.000000
0.831141 0.370955 0.000000
0.889773 0.359383 0.000000
0.948775 0.349178 0.000000
0.989697 0.340422 0.000000
1.000000 0.333057 0.000000
1.000000 0.327132 0.000000
1.000000 0.322769 0.000000
1.000000 0.320011 0.000000
1.000000 0.318835 0.000000
1.000000 0.319134 0.000000
1.000000 0.320720 0.000000
1.000000 0.323328 0.000000
1.000000 0.326645 0.000000
1.000000 0.330330 0.000000
0.000000 0.775649 0.000000
0.000000 0.753649 0.000000
0.000000 0.731765 0.000000
0.000000 0.710081 0.000000
0.003630 0.688638 0.000000
0.047036 0.667443 0.000000
0.115040 0.646487 0.000000
0.180781 0.625766 0.000000
0.244416 0.605306 0.000000
0.306194 0.585166 0.000000
0.366426 0.565431 0.000000
0.425463 0.546207 0.000000
0.483666 0.527608 0.000000
0.541377 0.509739 0.000000
0.598940 0.492697 0.000000
0.656647 0.476566 0.000000
0.714729 0.461414 0.000000
0.773362 0.447320 0.000000
0.832640 0.434387 0.000000
0.892517 0.422725 0.000000
0.952658 0.412359 0.000000
0.991041 0.403322 0.000000
1.000000 0.395528 0.000000
1.000000 0.388978 0.000000
1.000000 0.383744 0.000000
1.000000 0.379830 0.000000
1.000000 0.377190 0.000000
1.000000 0.375717 0.000000
1.000000 0.375248 0.000000
1.000000 0.375569 0.000000
1.000000 0.376432 0.000000
1.000000 0.377575 0.000000
0.000000 0.842840 0.000000
0.000000 0.820483 0.000000
0.000000 0.798257 0.000000
0.000000 0.776262 0.000000
0.000758 0.754551 0.000000
0.024990 0.733142 0.000000
0.094701 0.712025 0.000000
0.162246 0.691197 0.000000
0.227767 0.670672 0.000000
0.291491 0.650495 0.000000
0.353703 0.630741 0.000000
0.414723 0.611508 0.000000
0.474888 0.592900 0.000000
0.534528 0.575020 0.000000
0.593938 0.557962 0.000000
0.653406 0.541807 0.000000
0.713155 0.526618 0.000000
0.773345 0.512466 0.000000
0.834061 0.499441 0.000000
0.895244 0.487631 0.000000
0.956563 0.477031 0.000000
0.992413 0.467634 0.000000
1.000000 0.459322 0.000000
1.000000 0.452057 0.000000
1.000000 0.445858 0.000000
1.000000 0.440692 0.000000
1.000000 0.436488 0.000000
1.000000 0.433140 0.000000
1.000000 0.430510 0.000000
1.000000 0.428433 0.000000
1.000000 0.426728 0.000000
1.000000 0.425213 0.000000
0.000000 0.910643 0.000000
0.000000 0.888068 0.000000
0.000000 0.865637 0.000000
0.000000 0.843460 0.000000
0.000030 0.821602 0.000000
0.009254 0.800090 0.000000
0.073815 0.778919 0.000000
0.143081 0.758077 0.000000
0.210430 0.737572 0.000000
0.276070 0.717436 0.000000
0.340259 0.697732 0.000000
0.403287 0.678544 0.000000
0.465460 0.659971 0.000000
0.527078 0.642109 0.000000
0.588424 0.625047 0.000000
0.649735 0.608863 0.000000
0.711227 0.593616 0.000000
0.773043 0.579366 0.000000
0.835249 0.566192 0.000000
0.897772 0.554160 0.000000
0.960278 0.543238 0.000000
0.993745 0.533383 0.000000
1.000000 0.524452 0.000000
1.000000 0.516368 0.000000
1.000000 0.509102 0.000000
1.000000 0.502583 0.000000
1.000000 0.496716 0.000000
1.000000 0.491393 0.000000
1.000000 0.486498 0.000000
1.000000 0.481913 0.000000
1.000000 0.477526 0.000000
1.000000 0.473236 0.000000
0.000000 0.972554 0.000000
0.000000 0.956290 0.000000
0.000000 0.933815 0.000000
0.000000 0.911611 0.000000
0.000000 0.889752 0.000000
0.005197 0.868271 0.000000
0.052663 0.847165 0.000000
0.123540 0.826421 0.000000
0.192632 0.806035 0.000000
0.260125 0.786027 0.000000
0.326253 0.766445 0.000000
0.391274 0.747364 0.000000
0.455461 0.728869 0.000000
0.519080 0.711052 0.000000
0.582382 0.693994 0.000000
0.645589 0.677768 0.000000
0.708863 0.662428 0.000000
0.772336 0.648028 0.000000
0.836049 0.634632 0.000000
0.899908 0.622287 0.000000
0.963578 0.610941 0.000000
0.994965 0.600517 0.000000
1.000000 0.590854 0.000000
1.000000 0.581841 0.000000
1.000000 0.573403 0.000000
1.000000 0.565433 0.000000
1.000000 0.557811 0.000000
1.000000 0.550421 0.000000
1.000000 0.543165 0.000000
1.000000 0.535970 0.000000
1.000000 0.528793 0.000000
1.000000 0.521618 0.000000
0.000000 1.000000 0.000000
0.000000 0.995672 0.000000
0.000000 0.985039 0.000000
0.000000 0.974035 0.000000
0.000000 0.958870 0.000000
0.001806 0.937574 0.000000
0.031548 0.916674 0.000000
0.103903 0.896154 0.000000
0.174622 0.875999 0.000000
0.243874 0.856216 0.000000
0.311866 0.836840 0.000000
0.378827 0.817929 0.000000
0.444992 0.799558 0.000000
0.510592 0.781807 0.000000
0.575844 0.764754 0.000000
0.640931 0.748462 0.000000
0.705996 0.732982 0.000000
0.771113 0.718364 0.000000
0.836306 0.704659 0.000000
0.901458 0.691899 0.000000
0.966232 0.680015 0.000000
0.995997 0.668904 0.000000
1.000000 0.658391 0.000000
1.000000 0.648338 0.000000
1.000000 0.638628 0.000000
1.000000 0.629116 0.000000
1.000000 0.619655 0.000000
1.000000 0.610119 0.000000
1.000000 0.600424 0.000000
1.000000 0.590536 0.000000
1.000000 0.580477 0.000000
1.000000 0.570321 0.000000
0.000000 1.000000 0.000000
0.000000 1.000000 0.000000
0.000000 1.000000 0.000000
0.000000 0.999926 0.000000
0.000000 0.996979 0.000000
0.000182 0.987582 0.000000
0.015485 0.978352 0.000000
0.084475 0.966155 0.000000
0.156676 0.947303 0.000000
0.227556 0.927855 0.000000
0.297300 0.908775 0.000000
0.366105 0.890106 0.000000
0.434170 0.871908 0.000000
0.501687 0.854251 0.000000
0.568832 0.837202 0.000000
0.635749 0.820820 0.000000
0.702543 0.805152 0.000000
0.769260 0.790237 0.000000
0.835865 0.776125 0.000000
0.902226 0.762833 0.000000
0.968012 0.750283 0.000000
0.996763 0.738354 0.000000
1.000000 0.726867 0.000000
1.000000 0.715661 0.000000
1.000000 0.704581 0.000000
1.000000 0.693447 0.000000
1.000000 0.682083 0.000000
1.000000 0.670345 0.000000
1.000000 0.658155 0.000000
1.000000 0.645514 0.000000
1.000000 0.632510 0.000000
1.000000 0.619301 0.000000
0.000000 1.000000 0.000000
0.000000 1.000000 0.000000
0.000000 1.000000 0.000000
0.000000 1.000000 0.000000
0.000000 1.000000 0.000000
0.000000 1.000000 0.000000
0.008544 1.000000 0.000000
0.065579 0.999481 0.000000
0.139084 0.992395 0.000000
0.211429 0.984415 0.000000
0.282773 0.976539 0.000000
0.353283 0.963650 0.000000
0.423122 0.945683 0.000000
0.492441 0.928153 0.000000
0.561371 0.911116 0.000000
0.630014 0.894625 0.000000
0.698432 0.878719 0.000000
0.766632 0.863434 0.000000
0.834552 0.848805 0.000000
0.902011 0.834851 0.000000
0.968695 0.821492 0.000000
0.997191 0.808605 0.000000
1.000000 0.796015 0.000000
1.000000 0.783545 0.000000
1.000000 0.771009 0.000000
1.000000 0.758192 0.000000
1.000000 0.744882 0.000000
1.000000 0.730914 0.000000
1.000000 0.716207 0.000000
1.000000 0.700791 0.000000
1.000000 0.684815 0.000000
1.000000 0.668525 0.000000
0.000000 1.000000 0.000000
0.000000 1.000000 0.000000
0.000000 1.000000 0.000000
0.000000 1.000000 0.000000
0.000000 1.000000 0.000000
0.000000 1.000000 0.000000
0.005121 1.000000 0.000000
0.047551 1.000000 0.000000
0.122154 1.000000 0.000000
0.195763 1.000000 0.000000
0.268516 0.999995 0.000000
0.340550 0.999048 0.000000
0.411991 0.992198 0.000000
0.482946 0.985486 0.000000
0.553501 0.978930 0.000000
0.623713 0.968347 0.000000
0.693600 0.953316 0.000000
0.763131 0.937584 0.000000
0.832207 0.922339 0.000000
0.900632 0.907589 0.000000
0.968081 0.893282 0.000000
0.997211 0.879304 0.000000
1.000000 0.865494 0.000000
1.000000 0.851667 0.000000
1.000000 0.837610 0.000000
1.000000 0.823073 0.000000
1.000000 0.807806 0.000000
1.000000 0.791617 0.000000
1.000000 0.774412 0.000000
1.000000 0.756245 0.000000
1.000000 0.737319 0.000000
1.000000 0.717970 0.000000
0.000000 1.000000 0.000000
0.000000 1.000000 0.000000
0.000000 1.000000 0.000000
0.000000 1.000000 0.000000
0.000000 1.000000 0.000000
0.000000 1.000000 0.000000
0.001956 1.000000 0.000000
0.030738 1.000000 0.000000
0.106200 1.000000 0.000000
0.180837 1.000000 0.000000
0.254769 1.000000 0.000000
0.328103 1.000000 0.000000
0.400929 1.000000 0.000000
0.473311 1.000000 0.000000
0.545288 1.000000 0.000000
0.616872 0.999228 0.000000
0.688039 0.995007 0.000000
0.758717 0.989378 0.000000
0.828773 0.983890 0.000000
0.897985 0.978452 0.000000
0.966045 0.965196 0.000000
0.996771 0.950025 0.000000
1.000000 0.934908 0.000000
1.000000 0.919661 0.000000
1.000000 0.904048 0.000000
1.000000 0.887787 0.000000
1.000000 0.870590 0.000000
1.000000 0.852229 0.000000
1.000000 0.832594 0.000000
1.000000 0.811752 0.000000
1.000000 0.789956 0.000000
1.000000 0.767631 0.000000
0.000000 1.000000 0.000000
0.000000 1.000000 0.000000
0.000000 1.000000 0.000000
0.000000 1.000000 0.000000
0.000000 1.000000 0.000000
0.000000 1.000000 0.000000
0.000143 1.000000 0.000000
0.018237 1.000000 0.000000
0.091535 1.000000 0.000000
0.166932 1.000000 0.000000
0.241775 1.000000 0.000000
0.316144 1.000000 0.000000
0.390093 1.000000 0.000000
0.463647 1.000000 0.000000
0.536799 1.000000 0.000000
0.609516 1.000000 0.000000
0.681734 1.000000 0.000000
0.753342 1.000000 0.000000
0.824174 1.000000 0.000000
0.893989 0.999983 0.000000
0.962489 0.998387 0.000000
0.995839 0.993376 0.000000
1.000000 0.988240 0.000000
1.000000 0.983056 0.000000
1.000000 0.969696 0.000000
1.000000 0.952024 0.000000
1.000000 0.932963 0.000000
1.000000 0.912524 0.000000
1.000000 0.890577 0.000000
1.000000 0.867194 0.000000
1.000000 0.842674 0.000000
1.000000 0.817517 0.000000
0.000000 1.000000 0.000000
0.000000 1.000000 0.000000
0.000000 1.000000 0.000000
0.000000 1.000000 0.000000
0.000000 1.000000 0.000000
0.000000 1.000000 0.000000
0.000000 1.000000 0.000000
0.012839 1.000000 0.000000
0.078461 1.000000 0.000000
0.154317 1.000000 0.000000
0.229768 1.000000 0.000000
0.304869 1.000000 0.000000
0.379642 1.000000 0.000000
0.454071 1.000000 0.000000
0.528110 1.000000 0.000000
0.601685 1.000000 0.000000
0.674691 1.000000 0.000000
0.746980 1.000000 0.000000
0.818357 1.000000 0.000000
0.888585 1.000000 0.000000
0.957366 1.000000 0.000000
0.994341 1.000000 0.000000
1.000000 1.000000 0.000000
1.000000 1.000000 0.000000
1.000000 0.998133 0.000000
1.000000 0.993256 0.000000
1.000000 0.987437 0.000000
1.000000 0.971949 0.000000
1.000000 0.948198 0.000000
1.000000 0.922463 0.000000
1.000000 0.895421 0.000000
1.000000 0.867647 0.000000
0.000000 1.000000 0.000000
0.000000 1.000000 0.000000
0.000000 1.000000 0.000000
0.000000 1.000000 0.000000
0.000000 1.000000 0.000000
0.000000 1.000000 0.000000
0.000000 1.000000 0.000000
0.010434 1.000000 0.000000
0.067223 1.000000 0.000000
0.143223 1.000000 0.000000
0.218957 1.000000 0.000000
0.294458 1.000000 0.000000
0.369719 1.000000 0.000000
0.444694 1.000000 0.000000
0.519300 1.000000 0.000000
0.593425 1.000000 0.000000
0.666934 1.000000 0.000000
0.739651 1.000000 0.000000
0.811358 1.000000 0.000000
0.881790 1.000000 0.000000
0.950680 1.000000 0.000000
0.992291 1.000000 0.000000
1.000000 1.000000 0.000000
1.000000 1.000000 0.000000
1.000000 1.000000 0.000000
1.000000 1.000000 0.000000
1.000000 1.000000 0.000000
1.000000 0.997640 0.000000
1.000000 0.991815 0.000000
1.000000 0.977130 0.000000
1.000000 0.948164 0.000000
1.000000 0.918037 0.000000
0.000000 1.000000 0.000000
0.000000 1.000000 0.000000
0.000000 1.000000 0.000000
0.000000 1.000000 0.000000
0.000000 1.000000 0.000000
0.000000 1.000000 0.000000
0.000000 1.000000 0.000000
0.008523 1.000000 0.000000
0.058100 1.000000 0.000000
0.133885 1.000000 0.000000
0.209538 1.000000 0.000000
0.285073 1.000000 0.000000
0.360458 1.000000 0.000000
0.435620 1.000000 0.000000
0.510447 1.000000 0.000000
0.584798 1.000000 0.000000
0.658508 1.000000 0.000000
0.731382 1.000000 0.000000
0.803184 1.000000 0.000000
0.873637 1.000000 0.000000
0.942486 1.000000 0.000000
0.989702 1.000000 0.000000
1.000000 1.000000 0.000000
1.000000 1.000000 0.000000
1.000000 1.000000 0.000000
1.000000 1.000000 0.000000
1.000000 1.000000 0.000000
1.000000 1.000000 0.000000
1.000000 1.000000 0.000000
1.000000 0.998076 0.000000
1.000000 0.991705 0.000000
1.000000 0.968695 0.000000
0.000000 1.000000 0.000000
0.000000 1.000000 0.000000
0.000000 1.000000 0.000000
0.000000 1.000000 0.000000
0.000000 1.000000 0.000000
0.000000 1.000000 0.000000
0.000000 1.000000 0.000000
0.007153 1.000000 0.000000
0.051327 1.000000 0.000000
0.126493 1.000000 0.000000
0.201664 1.000000 0.000000
0.276836 1.000000 0.000000
0.351958 1.000000 0.000000
0.426931 1.000000 0.000000
0.501620 1.000000 0.000000
0.575861 1.000000 0.000000
0.649470 1.000000 0.000000
0.722233 1.000000 0.000000
0.793903 1.000000 0.000000
0.864200 1.000000 0.000000
0.932876 1.000000 0.000000
0.986602 1.000000 0.000000
1.000000 1.000000 0.000000
1.000000 1.000000 0.000000
1.000000 1.000000 0.000000
1.000000 1.000000 0.000000
1.000000 1.000000 0.000000
1.000000 1.000000 0.000000
1.000000 1.000000 0.000000
1.000000 1.000000 0.000000
1.000000 1.000000 0.000000
1.000000 0.996089 0.000000
0.000000 1.000000 0.000000
0.000000 1.000000 0.000000
0.000000 1.000000 0.000000
0.000000 1.000000 0.000000
0.000000 1.000000 0.000000
0.000000 1.000000 0.000000
0.000000 1.000000 0.000000
0.006304 1.000000 0.000000
0.046881 1.000000 0.000000
0.121047 1.000000 0.000000
0.195353 1.000000 0.000000
0.269780 1.000000 0.000000
0.344258 1.000000 0.000000
0.418672 1.000000 0.000000
0.492869 1.000000 0.000000
0.566669 1.000000 0.000000
0.639876 1.000000 0.000000
0.712266 1.000000 0.000000
0.783589 1.000000 0.000000
0.853563 1.000000 0.000000
0.921950 1.000000 0.000000
0.983025 1.000000 0.000000
1.000000 1.000000 0.000000
1.000000 1.000000 0.000000
1.000000 1.000000 0.000000
1.000000 1.000000 0.000000
1.000000 1.000000 0.000000
1.000000 1.000000 0.000000
1.000000 1.000000 0.000000
1.000000 1.000000 0.000000
1.000000 1.000000 0.000000
1.000000 1.000000 0.000000
0.000000 1.000000 0.000000
0.000000 1.000000 0.000000
0.000000 1.000000 0.000000
0.000000 1.000000 0.000000
0.000000 1.000000 0.000000
0.000000 1.000000 0.000000
0.000000 1.000000 0.000000
0.005952 1.000000 0.000000
0.044655 1.000000 0.000000
0.117452 1.000000 0.000000
0.190526 1.000000 0.000000
0.263845 1.000000 0.000000
0.337326 1.000000 0.000000
0.410837 1.000000 0.000000
0.484213 1.000000 0.000000
0.557264 1.000000 0.000000
0.629787 1.000000 0.000000
0.701558 1.000000 0.000000
0.772327 1.000000 0.000000
0.841820 1.000000 0.000000
