ecomm/src/main/assets/lut/BlueHour - converted with Color.cube
TITLE "BlueHour - converted with Color.io - Created with Color.io"
LUT_3D_SIZE 8
DOMAIN_MIN 0.000000 0.000000 0.000000
DOMAIN_MAX 0.903226 0.903226 0.903226
0.000000 0.000000 0.000000
0.179325 0.000000 0.000000
0.358637 0.000000 0.000000
0.541242 0.000000 0.000000
0.731919 0.000000 0.000000
0.931133 0.000000 0.000000
1.000000 0.000000 0.000000
1.000000 0.000000 0.000000
0.000000 0.256901 0.000000
0.129788 0.188621 0.000000
0.336916 0.118592 0.000000
0.529100 0.049014 0.000000
0.724713 0.003797 0.000000
0.932741 0.000000 0.000000
1.000000 0.000000 0.000000
1.000000 0.000000 0.000000
0.000000 0.513332 0.000000
0.063235 0.434754 0.000000
0.300677 0.356518 0.000000
0.511511 0.281251 0.000000
0.719404 0.216013 0.000000
0.938998 0.167555 0.000000
1.000000 0.146223 0.000000
1.000000 0.161206 0.000000
0.000000 0.775649 0.000000
0.003630 0.688638 0.000000
0.244416 0.605306 0.000000
0.483666 0.527608 0.000000
0.714729 0.461414 0.000000
0.952658 0.412359 0.000000
1.000000 0.383744 0.000000
1.000000 0.375248 0.000000
0.000000 1.000000 0.000000
0.000000 0.958870 0.000000
0.174622 0.875999 0.000000
0.444992 0.799558 0.000000
0.705996 0.732982 0.000000
0.966232 0.680015 0.000000
1.000000 0.638628 0.000000
1.000000 0.600424 0.000000
0.000000 1.000000 0.000000
0.000000 1.000000 0.000000
0.106200 1.000000 0.000000
0.400929 1.000000 0.000000
0.688039 0.995007 0.000000
0.966045 0.965196 0.000000
1.000000 0.904048 0.000000
1.000000 0.832594 0.000000
0.000000 1.000000 0.000000
0.000000 1.000000 0.000000
0.058100 1.000000 0.000000
0.360458 1.000000 0.000000
0.658508 1.000000 0.000000
0.942486 1.000000 0.000000
1.000000 1.000000 0.000000
1.000000 1.000000 0.000000
0.000000 1.000000 0.000000
0.000000 1.000000 0.000000
0.044553 1.000000 0.000000
0.331173 1.000000 0.000000
0.619304 1.000000 0.000000
0.896704 1.000000 0.000000
1.000000 1.000000 0.000000
1.000000 1.000000 0.000000
0.000000 0.000000 0.309481
0.119796 0.000000 0.213265
0.335648 0.000000 0.127713
0.527642 0.000000 0.053035
0.718615 0.000000 0.004425
0.918935 0.000000 0.000020
1.000000 0.000000 0.000000
1.000000 0.000000 0.002568
0.000000 0.170215 0.206632
0.050398 0.103849 0.127999
0.278267 0.044404 0.059477
0.486303 0.003349 0.006046
0.691833 0.000000 0.000230
0.902031 0.000000 0.000000
1.000000 0.000000 0.000000
1.000000 0.000000 0.002946
0.000000 0.456752 0.102020
0.001968 0.360011 0.036476
0.224230 0.280900 0.002476
0.453019 0.219520 0.000000
0.675546 0.173319 0.000000
0.895902 0.145605 0.000000
1.000000 0.140331 0.000000
1.000000 0.152654 0.002182
0.000000 0.727878 0.005387
0.000000 0.623242 0.000022
0.167023 0.537841 0.000000
0.422835 0.470768 0.000000
0.667751 0.419928 0.000000
0.902910 0.386577 0.000000
1.000000 0.369350 0.000000
1.000000 0.361411 0.000110
0.000000 0.982957 0.000000
0.000000 0.897947 0.000000
0.104803 0.814430 0.000000
0.388909 0.745606 0.000000
0.659644 0.689336 0.000000
0.914060 0.644249 0.000000
1.000000 0.605986 0.000000
1.000000 0.571320 0.000000
0.000000 1.000000 0.000000
0.000000 1.000000 0.000000
0.047700 1.000000 0.000000
0.352188 0.997517 0.000000
0.642269 0.971322 0.000000
0.912759 0.914071 0.000000
1.000000 0.851138 0.000000
1.000000 0.784103 0.000000
0.000000 1.000000 0.000000
0.000000 1.000000 0.000000
0.015857 1.000000 0.000000
0.317008 1.000000 0.000000
0.611106 1.000000 0.000000
0.886679 1.000000 0.000000
1.000000 1.000000 0.000000
1.000000 0.990107 0.000000
0.000000 1.000000 0.000000
0.000000 1.000000 0.000000
0.010609 1.000000 0.000000
0.284999 1.000000 0.000000
0.569036 1.000000 0.000000
0.838144 1.000000 0.000000
1.000000 1.000000 0.000000
1.000000 1.000000 0.000000
0.000000 0.000000 0.616759
0.039542 0.000000 0.492733
0.295184 0.000000 0.380376
0.506727 0.000000 0.287123
0.706247 0.000000 0.216141
0.911412 0.000000 0.170022
1.000000 0.000000 0.155049
1.000000 0.000000 0.172697
0.000000 0.065922 0.518280
0.000708 0.004722 0.396143
0.212980 0.000405 0.300689
0.446233 0.000000 0.230275
0.664609 0.000000 0.182546
0.878130 0.000000 0.159695
1.000000 0.000000 0.162579
1.000000 0.000000 0.181714
0.000000 0.379784 0.413034
0.000000 0.273689 0.304057
0.143965 0.200736 0.224810
0.399403 0.157394 0.174890
0.636120 0.130644 0.147307
0.855812 0.120810 0.143996
1.000000 0.126906 0.161849
1.000000 0.138448 0.185184
0.000000 0.666693 0.296474
0.000000 0.555304 0.206133
0.083484 0.472359 0.146418
0.363733 0.417137 0.113626
0.620676 0.380807 0.100047
0.850029 0.361045 0.111176
0.999999 0.352502 0.144761
1.000000 0.346654 0.180369
0.000000 0.943882 0.176136
0.000000 0.839281 0.108686
0.027862 0.756181 0.067484
0.331120 0.692726 0.046013
0.609122 0.644275 0.039479
0.853464 0.606224 0.060605
1.000000 0.573002 0.112160
1.000000 0.545576 0.167913
0.000000 1.000000 0.072892
0.000000 1.000000 0.028918
0.007899 0.999183 0.012554
0.299154 0.967069 0.009016
0.590495 0.909628 0.008481
0.848296 0.855295 0.015982
1.000000 0.795914 0.074575
1.000000 0.740889 0.149725
0.000000 1.000000 0.013976
0.000000 1.000000 0.006518
0.001112 1.000000 0.002419
0.268048 1.000000 0.000352
0.559161 1.000000 0.000887
0.822313 1.000000 0.008275
0.999796 0.996306 0.044417
1.000000 0.933871 0.127863
0.000000 1.000000 0.006160
0.000000 1.000000 0.000089
0.000000 1.000000 0.000000
0.237970 1.000000 0.000000
0.519784 1.000000 0.000000
0.778813 1.000000 0.005494
0.993202 1.000000 0.026293
1.000000 1.000000 0.103590
0.000000 0.000000 0.925189
0.000282 0.000000 0.786109
0.226375 0.000000 0.653846
0.470505 0.000000 0.541999
0.690864 0.000000 0.458314
0.907049 0.000000 0.403097
1.000000 0.000000 0.377037
1.000000 0.000000 0.374821
0.000000 0.000613 0.830860
0.000000 0.000000 0.683180
0.128444 0.000000 0.570132
0.399757 0.000000 0.483569
0.640439 0.000000 0.422018
0.863022 0.000000 0.387639
1.000000 0.000000 0.377151
1.000000 0.000000 0.378714
0.000000 0.270030 0.724021
0.000000 0.159686 0.591929
0.046966 0.098189 0.494933
0.341566 0.077979 0.430163
0.600258 0.074459 0.389362
0.825859 0.081503 0.373074
0.997740 0.098813 0.375255
1.000000 0.118298 0.381889
0.000000 0.577917 0.605582
0.000000 0.466880 0.497750
0.006461 0.391954 0.421355
0.296267 0.353348 0.375802
0.571840 0.334837 0.351691
0.801976 0.328218 0.350443
0.991003 0.328976 0.366183
1.000000 0.331497 0.383544
0.000000 0.872979 0.485331
0.000000 0.769426 0.401747
0.000137 0.689849 0.346740
0.261181 0.633657 0.316779
0.551059 0.594024 0.303868
0.791014 0.564593 0.314799
0.984057 0.541332 0.347540
1.000000 0.525741 0.381544
0.000000 1.000000 0.379072
0.000000 0.999933 0.320325
0.000000 0.970469 0.283182
0.233617 0.900625 0.263973
0.529809 0.842737 0.257874
0.779485 0.793860 0.276173
0.976180 0.746759 0.322262
1.000000 0.708294 0.372047
0.000000 1.000000 0.299081
0.000000 1.000000 0.260217
0.000000 1.000000 0.236217
0.210067 1.000000 0.225375
0.502865 1.000000 0.225421
0.756544 0.994974 0.246322
0.962708 0.945176 0.295001
1.000000 0.886137 0.352629
0.000000 1.000000 0.247390
0.000000 1.000000 0.218329
0.000000 1.000000 0.202369
0.192110 1.000000 0.198913
0.473928 1.000000 0.206296
0.723129 1.000000 0.228089
0.938969 1.000000 0.269662
1.000000 1.000000 0.324632
0.000000 0.000000 1.000000
0.000000 0.000000 1.000000
0.129148 0.000000 0.951872
0.413860 0.000000 0.826850
0.664925 0.000000 0.727189
0.896766 0.000000 0.655969
1.000000 0.000000 0.611264
1.000000 0.000000 0.584871
0.000000 0.000000 1.000000
0.000000 0.000000 0.974620
0.028431 0.000000 0.864026
0.338815 0.000000 0.763665
0.610169 0.000000 0.682806
0.847944 0.000000 0.627084
1.000000 0.000000 0.594661
1.000000 0.000000 0.575467
0.000000 0.129037 0.998828
0.000000 0.031101 0.894152
0.000647 0.006011 0.787218
0.272392 0.005372 0.706187
0.561596 0.010898 0.642589
0.802224 0.025991 0.601101
0.993044 0.060610 0.579492
1.000000 0.097019 0.568680
0.000000 0.459980 0.919318
0.000000 0.357363 0.802326
0.000000 0.291859 0.712223
0.216740 0.266960 0.649090
0.520021 0.269758 0.601757
0.764137 0.282807 0.573638
0.959365 0.299642 0.564697
1.000000 0.317252 0.565971
0.000000 0.777737 0.801320
0.000000 0.678622 0.704982
0.000000 0.604029 0.631505
0.180404 0.556937 0.583227
0.488039 0.532878 0.552937
0.737535 0.520235 0.540911
0.933816 0.512806 0.548402
1.000000 0.511537 0.564501
0.000000 1.000000 0.691107
0.000000 0.973910 0.614328
0.000000 0.891250 0.557096
0.161451 0.825628 0.521501
0.464829 0.776590 0.504179
0.717815 0.739619 0.506051
0.917095 0.709025 0.528010
1.000000 0.686745 0.557101
0.000000 1.000000 0.597405
0.000000 1.000000 0.539698
0.000000 1.000000 0.498194
0.149870 1.000000 0.474287
0.446324 0.986005 0.465135
0.697893 0.937101 0.473889
0.902260 0.893035 0.502554
1.000000 0.852597 0.538724
0.000000 1.000000 0.521484
0.000000 1.000000 0.481856
0.000000 1.000000 0.454514
0.150678 1.000000 0.440438
0.432804 1.000000 0.438288
0.673901 1.000000 0.449040
0.881537 1.000000 0.474761
1.000000 0.998982 0.509979
0.000000 0.000000 1.000000
0.000000 0.000000 1.000000
0.026151 0.000000 1.000000
0.342584 0.000000 1.000000
0.624079 0.000000 0.992088
0.870547 0.000000 0.920796
1.000000 0.000000 0.847767
1.000000 0.000000 0.793821
0.000000 0.000000 1.000000
0.000000 0.000000 1.000000
0.000142 0.000000 1.000000
0.268609 0.000000 0.999868
0.567234 0.000000 0.957483
0.819307 0.000000 0.875577
0.999427 0.000000 0.815432
1.000000 0.000000 0.770840
0.000000 0.011231 1.000000
0.000000 0.000000 1.000000
0.000000 0.000000 1.000000
0.195246 0.000000 0.986540
0.513374 0.000000 0.904652
0.769992 0.003783 0.832456
0.974297 0.022597 0.783332
1.000000 0.077393 0.749670
0.000000 0.333194 1.000000
0.000000 0.246976 1.000000
0.000000 0.186590 0.991222
0.131952 0.166659 0.937768
0.461728 0.190874 0.852032
0.724258 0.229992 0.789162
0.925798 0.268165 0.753089
1.000000 0.302704 0.733943
0.000000 0.666758 1.000000
0.000000 0.577395 0.986791
0.000000 0.508701 0.911333
0.101976 0.467990 0.847476
0.422695 0.461011 0.786286
0.687296 0.471669 0.744266
0.890768 0.484996 0.727126
1.000000 0.498919 0.723653
0.000000 0.973039 0.984599
0.000000 0.876078 0.894233
0.000000 0.794301 0.813853
0.099277 0.739437 0.761034
0.400199 0.706683 0.723606
0.661215 0.688324 0.703136
0.867519 0.677606 0.703179
0.999791 0.671427 0.712293
0.000000 1.000000 0.877316
0.000000 1.000000 0.799243
0.000000 0.999454 0.738066
0.101564 0.974128 0.700385
0.391118 0.917440 0.675390
0.643351 0.878680 0.667063
0.850145 0.852155 0.677003
0.998613 0.829555 0.693491
0.000000 1.000000 0.773857
0.000000 1.000000 0.724460
0.000000 1.000000 0.686282
0.116559 1.000000 0.658191
0.393514 1.000000 0.639565
0.628251 0.999991 0.636028
0.830523 0.998496 0.646740
0.996905 0.982205 0.664948
0.000000 0.000000 1.000000
0.000000 0.000000 1.000000
0.000157 0.000000 1.000000
0.269278 0.000000 1.000000
0.569652 0.000000 1.000000
0.824981 0.000000 1.000000
0.999601 0.000000 1.000000
1.000000 0.000000 0.987517
0.000000 0.000000 1.000000
0.000000 0.000000 1.000000
0.000000 0.000000 1.000000
0.193720 0.000000 1.000000
0.511690 0.000000 1.000000
0.774211 0.000000 1.000000
0.986810 0.000000 0.998751
1.000000 0.000000 0.958794
0.000000 0.000000 1.000000
0.000000 0.000000 1.000000
0.000000 0.000000 1.000000
0.117321 0.000000 1.000000
0.454856 0.000000 1.000000
0.725227 0.000000 0.999988
0.936583 0.009173 0.979850
1.000000 0.057445 0.924727
0.000000 0.222957 1.000000
0.000000 0.148125 1.000000
0.000000 0.093889 1.000000
0.057596 0.085022 1.000000
0.403439 0.122457 1.000000
0.678067 0.178944 0.987397
0.887274 0.234884 0.930650
1.000000 0.283596 0.892307
0.000000 0.556967 1.000000
0.000000 0.480724 1.000000
0.000000 0.422220 1.000000
0.035156 0.393271 1.000000
0.366371 0.396842 0.990043
0.638381 0.421380 0.924711
0.848222 0.452704 0.887806
0.998674 0.481236 0.867433
0.000000 0.857388 1.000000
0.000000 0.771215 1.000000
0.000000 0.703986 0.999899
0.045134 0.663279 0.985447
0.346908 0.639963 0.918756
0.609515 0.634285 0.870723
0.820158 0.643135 0.854029
0.985351 0.653586 0.847518
0.000000 1.000000 1.000000
0.000000 0.996217 0.998243
0.000000 0.940759 0.953480
0.063193 0.893718 0.907565
0.342562 0.850286 0.861035
0.592134 0.822310 0.830321
0.799904 0.813302 0.825001
0.967214 0.808343 0.826788
0.000000 1.000000 0.983642
0.000000 1.000000 0.931353
0.000000 1.000000 0.891166
0.085634 1.000000 0.855906
0.353512 0.999702 0.819331
0.584207 0.986781 0.797977
0.782556 0.967746 0.795411
0.953633 0.954037 0.800417
0.000000 0.000000 1.000000
0.000000 0.000000 1.000000
0.000000 0.000000 1.000000
0.205783 0.000000 1.000000
0.509388 0.000000 1.000000
0.765259 0.000000 1.000000
0.969881 0.000000 1.000000
1.000000 0.000000 1.000000
0.000000 0.000000 1.000000
0.000000 0.000000 1.000000
0.000000 0.000000 1.000000
0.129245 0.000000 1.000000
0.453171 0.000000 1.000000
0.720927 0.000000 1.000000
0.935228 0.000000 1.000000
1.000000 0.000000 1.000000
0.000000 0.000000 1.000000
0.000000 0.000000 1.000000
0.000000 0.000000 1.000000
0.063516 0.000000 1.000000
0.402204 0.000000 1.000000
0.676325 0.000000 1.000000
0.891726 0.001982 1.000000
1.000000 0.034725 1.000000
0.000000 0.137051 1.000000
0.000000 0.067581 1.000000
0.000000 0.031904 1.000000
0.028313 0.040122 1.000000
0.362155 0.083984 1.000000
0.632731 0.143469 1.000000
0.845765 0.203726 1.000000
0.999163 0.257711 1.000000
0.000000 0.459922 1.000000
0.000000 0.397611 1.000000
0.000000 0.356318 1.000000
0.023331 0.343977 1.000000
0.336626 0.355740 1.000000
0.598003 0.383211 1.000000
0.807246 0.418702 0.999934
0.980790 0.454313 0.998042
0.000000 0.741918 1.000000
0.000000 0.681044 1.000000
0.000000 0.637024 1.000000
0.026357 0.607771 1.000000
0.322892 0.589603 1.000000
0.571700 0.588582 0.999457
0.777397 0.604091 0.987354
0.950976 0.625439 0.972688
0.000000 0.968647 1.000000
0.000000 0.910051 1.000000
0.000000 0.868609 1.000000
0.039496 0.833296 1.000000
0.317319 0.794782 0.999676
0.553614 0.772122 0.975293
0.754871 0.770537 0.955358
0.929233 0.778770 0.948495
0.000000 1.000000 1.000000
0.000000 1.000000 1.000000
0.000000 1.000000 1.000000
0.060516 0.999774 0.999957
0.321896 0.982202 0.988012
0.545439 0.944901 0.949078
0.739137 0.929049 0.932250
0.913233 0.923998 0.926719
