ecomm/src/main/assets/lut/CrispAutumn - converted with Color.cube
TITLE "CrispAutumn - converted with Color.io - Created with Color.io"
LUT_3D_SIZE 5
DOMAIN_MIN 0.000000 0.000000 0.000000
DOMAIN_MAX 0.903226 0.903226 0.903226
0.000001 0.000001 0.000001
0.004531 0.000000 0.000000
0.345848 0.000000 0.000000
0.642336 0.000000 0.000000
0.944143 0.000000 0.015787
0.000000 0.000868 0.000105
0.001061 0.001212 0.000000
0.513908 0.111777 0.000000
1.000000 0.152597 0.000000
1.000000 0.259529 0.000000
0.000000 0.358989 0.000000
0.246733 0.273620 0.000000
0.897234 0.392098 0.000000
1.000000 0.437987 0.000000
1.000000 0.540479 0.000000
0.000000 0.713075 0.000000
0.439078 0.728085 0.000000
1.000000 0.740389 0.000000
1.000000 0.762183 0.000000
1.000000 0.793556 0.000000
0.000000 0.996344 0.074764
0.459257 1.000000 0.000000
1.000000 1.000000 0.000000
1.000000 1.000000 0.000000
1.000000 0.999018 0.000000
0.000000 0.000000 0.001110
0.032160 0.000000 0.105277
0.319880 0.000000 0.204488
0.659943 0.000000 0.250846
0.987911 0.009913 0.355459
0.000000 0.005578 0.006830
0.132222 0.136075 0.173522
0.548999 0.138526 0.080332
0.956661 0.210747 0.091265
1.000000 0.313373 0.199157
0.000000 0.433396 0.234998
0.226650 0.456756 0.107857
0.746550 0.491180 0.033135
1.000000 0.544112 0.015408
1.000000 0.591134 0.065088
0.000000 0.759658 0.282104
0.314847 0.819327 0.161121
0.885164 0.847884 0.029901
1.000000 0.840412 0.016781
1.000000 0.823041 0.061162
0.000000 1.000000 0.375185
0.369823 1.000000 0.276507
0.886186 1.000000 0.110344
1.000000 1.000000 0.049100
1.000000 0.987951 0.311582
0.000000 0.000000 0.395304
0.066727 0.000000 0.523874
0.359185 0.000000 0.546587
0.723332 0.000000 0.611351
1.000000 0.046492 0.695050
0.000000 0.172936 0.501482
0.094485 0.174251 0.541376
0.491460 0.216387 0.549545
0.880763 0.278185 0.591739
1.000000 0.342541 0.633133
0.000000 0.483306 0.552628
0.182238 0.528870 0.563670
0.631724 0.589169 0.567355
0.994586 0.611934 0.537599
1.000000 0.620915 0.541039
0.000000 0.832556 0.619072
0.256311 0.896674 0.624067
0.708678 0.921659 0.562287
1.000000 0.889470 0.504796
1.000000 0.880986 0.660552
0.000000 1.000000 0.698565
0.308875 1.000000 0.662834
0.699678 1.000000 0.581461
0.999512 1.000000 0.474529
1.000000 0.999381 0.578928
0.000000 0.000000 0.791601
0.099505 0.000000 0.802678
0.424970 0.000000 0.869395
0.818649 0.000000 0.972863
1.000000 0.101625 0.996158
0.000000 0.202038 0.828251
0.126042 0.231826 0.896421
0.505215 0.284650 0.945818
0.857807 0.327316 0.982832
1.000000 0.362066 0.967173
0.000000 0.543093 0.892478
0.203653 0.598155 0.946933
0.569122 0.631694 0.967089
0.869392 0.620939 0.934471
1.000000 0.637991 0.893000
0.000000 0.922675 0.983497
0.257927 0.930319 0.986798
0.587248 0.917281 0.954696
0.900700 0.891753 0.901430
1.000000 0.910607 0.916957
0.008357 1.000000 1.000000
0.296686 1.000000 0.982490
0.641774 1.000000 0.918865
0.922331 1.000000 0.896220
1.000000 0.996406 0.745797
0.000000 0.000000 1.000000
0.183340 0.013473 1.000000
0.512196 0.057778 1.000000
0.849681 0.112395 1.000000
1.000000 0.186244 1.000000
0.000000 0.300164 1.000000
0.237254 0.335580 1.000000
0.545147 0.355540 1.000000
0.840923 0.368842 1.000000
1.000000 0.399921 1.000000
0.000000 0.621487 1.000000
0.270529 0.637520 1.000000
0.554828 0.628130 1.000000
0.857482 0.699013 1.000000
1.000000 0.593365 1.000000
0.018243 0.955058 1.000000
0.293377 0.923548 1.000000
0.606164 0.889453 1.000000
0.887875 0.912013 1.000000
0.979325 0.767780 0.999995
0.097033 1.000000 1.000000
0.324083 1.000000 1.000000
0.542497 1.000000 1.000000
0.750041 0.999572 1.000000
0.946280 0.952233 0.963175
