ecomm/src/main/assets/lut/CrispAutumn - converted with Color.cube
TITLE "CrispAutumn - converted with Color.io - Created with Color.io"
LUT_3D_SIZE 8
DOMAIN_MIN 0.000000 0.000000 0.000000
DOMAIN_MAX 0.903226 0.903226 0.903226
0.000001 0.000001 0.000001
0.000019 0.000000 0.000009
0.014073 0.000000 0.000000
0.194462 0.000000 0.000000
0.448389 0.000000 0.000000
0.602139 0.000000 0.000000
0.766349 0.000000 0.000000
0.944143 0.000000 0.015787
0.000001 0.000011 0.000021
0.006129 0.015440 0.000000
0.015150 0.000006 0.000000
0.132722 0.008380 0.000000
0.617524 0.018975 0.000000
0.860182 0.023682 0.000000
0.999459 0.066966 0.000000
1.000000 0.137067 0.000000
0.000000 0.004143 0.000234
0.013119 0.070442 0.000000
0.009366 0.005021 0.000000
0.290965 0.095931 0.000000
0.818755 0.163785 0.000000
1.000000 0.183225 0.000000
1.000000 0.231171 0.000000
1.000000 0.300416 0.000000
0.000000 0.166660 0.000923
0.053013 0.210352 0.000000
0.156031 0.119429 0.000000
0.643103 0.292133 0.000000
0.966225 0.314455 0.000000
1.000000 0.342943 0.000000
1.000000 0.396126 0.000000
1.000000 0.462026 0.000000
0.000000 0.511866 0.000000
0.151472 0.502586 0.000000
0.462809 0.477394 0.000000
0.803489 0.483691 0.000000
1.000000 0.484702 0.000000
1.000000 0.513893 0.000000
1.000000 0.563157 0.000000
1.000000 0.616431 0.000000
0.000000 0.674798 0.000000
0.170525 0.675091 0.000000
0.523106 0.684435 0.000000
0.880904 0.683877 0.000000
1.000000 0.688395 0.000000
1.000000 0.706156 0.000000
1.000000 0.733173 0.000000
1.000000 0.759563 0.000000
0.000000 0.831118 0.015290
0.189989 0.841657 0.000000
0.541597 0.874125 0.000000
0.917881 0.903311 0.000000
1.000000 0.918906 0.000000
1.000000 0.918067 0.000000
1.000000 0.905418 0.000000
1.000000 0.891551 0.000000
0.000000 0.996344 0.074764
0.208923 0.999427 0.000000
0.546913 1.000000 0.000000
0.919098 1.000000 0.000000
1.000000 1.000000 0.000000
1.000000 1.000000 0.000000
1.000000 1.000000 0.000000
1.000000 0.999018 0.000000
0.000001 0.000009 0.000022
0.002101 0.000000 0.046619
0.001349 0.000000 0.002407
0.090305 0.000000 0.029485
0.429318 0.000000 0.084994
0.604509 0.000000 0.094713
0.782290 0.000000 0.138029
0.965431 0.000000 0.209186
0.000001 0.000011 0.000023
0.048221 0.078087 0.126484
0.203192 0.039755 0.064463
0.389928 0.006084 0.003340
0.600631 0.007872 0.000038
0.806337 0.034235 0.000248
0.991526 0.084062 0.005027
1.000000 0.161913 0.079976
0.000000 0.001572 0.000891
0.043020 0.203018 0.071178
0.258306 0.172857 0.000875
0.510335 0.174093 0.000000
0.760532 0.188778 0.000000
0.984143 0.221947 0.000000
1.000000 0.272064 0.000000
1.000000 0.334263 0.002018
0.000000 0.152939 0.056920
0.046170 0.354809 0.016437
0.340051 0.348869 0.000000
0.620933 0.351888 0.000000
0.890813 0.367745 0.000000
1.000000 0.402309 0.000000
1.000000 0.449225 0.000000
1.000000 0.497112 0.000000
0.000000 0.526115 0.129028
0.073656 0.528443 0.006775
0.408818 0.532829 0.000000
0.718582 0.538835 0.000000
0.983311 0.551400 0.000000
1.000000 0.579591 0.000000
1.000000 0.615304 0.000000
1.000000 0.647002 0.000000
0.000000 0.696653 0.144826
0.102378 0.708544 0.031584
0.454525 0.724678 0.000000
0.791144 0.739755 0.000000
1.000000 0.749715 0.000000
1.000000 0.762043 0.000000
1.000000 0.773826 0.000000
1.000000 0.781860 0.000000
0.000000 0.864632 0.184946
0.130660 0.905688 0.085638
0.475493 0.933768 0.003558
0.824226 0.958811 0.000000
1.000000 0.965414 0.000000
1.000000 0.952232 0.000000
1.000000 0.929608 0.000000
1.000000 0.902296 0.000000
0.000000 0.999954 0.245475
0.179241 1.000000 0.166896
0.483447 1.000000 0.068230
0.814287 1.000000 0.000574
1.000000 1.000000 0.000000
1.000000 1.000000 0.000000
1.000000 1.000000 0.000000
1.000000 0.992020 0.103766
0.000000 0.000000 0.005070
0.004961 0.000000 0.272555
0.065447 0.000000 0.163906
0.209597 0.000000 0.212250
0.435345 0.000000 0.271251
0.618179 0.000000 0.291960
0.810297 0.000000 0.339106
0.995414 0.014232 0.404098
0.000000 0.001100 0.003185
0.002667 0.055002 0.279350
0.157020 0.021795 0.237900
0.355882 0.024918 0.213552
0.559825 0.036543 0.201001
0.767795 0.069558 0.216687
0.974126 0.114771 0.258727
1.000000 0.188564 0.330220
0.000000 0.033215 0.040010
0.005316 0.202768 0.248958
0.177747 0.169926 0.197771
0.434106 0.179280 0.147838
0.691048 0.212539 0.131264
0.924682 0.259900 0.145043
1.000000 0.312770 0.185991
1.000000 0.361487 0.244828
0.000000 0.299152 0.225663
0.023885 0.374384 0.238336
0.244753 0.363030 0.156877
0.541895 0.391308 0.127964
0.808118 0.421294 0.105763
0.999818 0.458187 0.099487
1.000000 0.493897 0.121153
1.000000 0.520579 0.163272
0.000000 0.547235 0.294078
0.052740 0.552418 0.243291
0.321977 0.576306 0.166302
0.632181 0.594364 0.128267
0.903578 0.613655 0.095417
1.000000 0.637103 0.083028
1.000000 0.656014 0.092704
1.000000 0.665427 0.113228
0.000000 0.722752 0.317587
0.086566 0.740887 0.271716
0.373394 0.788186 0.201712
0.694887 0.802091 0.140009
0.973541 0.810506 0.091694
1.000000 0.808613 0.086069
1.000000 0.804681 0.095053
1.000000 0.795522 0.118217
0.000000 0.903456 0.361674
0.114051 0.948055 0.316521
0.411016 0.981199 0.258189
0.721506 0.991436 0.174793
0.988839 0.995401 0.110692
1.000000 0.983506 0.097006
1.000000 0.947825 0.108670
1.000000 0.906409 0.213773
0.000000 1.000000 0.419279
0.164535 1.000000 0.381400
0.426624 1.000000 0.316640
0.710545 1.000000 0.224999
0.980813 1.000000 0.145443
1.000000 1.000000 0.113084
1.000000 1.000000 0.117323
1.000000 0.988201 0.373604
0.000000 0.000000 0.182054
0.000044 0.000000 0.443012
0.110879 0.000000 0.443299
0.265941 0.000000 0.447599
0.446282 0.000000 0.462810
0.648998 0.000000 0.497012
0.854549 0.000000 0.544823
1.000000 0.034575 0.598837
0.000000 0.040606 0.206808
0.000000 0.037023 0.446633
0.121201 0.016140 0.431852
0.329668 0.031846 0.428997
0.541244 0.057249 0.439497
0.753410 0.099924 0.469331
0.961668 0.147575 0.515422
1.000000 0.209709 0.562432
0.000000 0.183965 0.358070
0.000018 0.203146 0.437894
0.168355 0.216892 0.437925
0.401708 0.234792 0.422629
0.631696 0.277871 0.431331
0.869898 0.303813 0.441357
1.000000 0.345558 0.473579
1.000000 0.376960 0.502252
0.000000 0.384352 0.450480
0.004113 0.393356 0.442922
0.229447 0.413393 0.437330
0.476924 0.434194 0.415745
0.734591 0.473214 0.412941
0.963738 0.503358 0.412692
1.000000 0.523542 0.415858
1.000000 0.530433 0.428993
0.000000 0.565826 0.471438
0.022612 0.589676 0.461922
0.295245 0.614291 0.456839
0.549036 0.635660 0.441987
0.815714 0.669966 0.407278
0.999482 0.679708 0.391285
1.000000 0.680879 0.374022
1.000000 0.680648 0.392324
0.000000 0.758871 0.506139
0.067776 0.787669 0.498274
0.331181 0.834364 0.479349
0.610902 0.849258 0.443665
0.869678 0.864980 0.407490
1.000000 0.845033 0.383182
1.000000 0.822969 0.357022
1.000000 0.819474 0.449612
0.000000 0.953160 0.552559
0.105116 0.987831 0.545656
0.362199 0.997233 0.517572
0.633815 1.000000 0.456300
0.881454 0.999909 0.401836
1.000000 0.995952 0.369202
1.000000 0.957885 0.351680
1.000000 0.920055 0.540978
0.000000 1.000000 0.602569
0.156151 1.000000 0.587785
0.378501 1.000000 0.546754
0.613514 1.000000 0.480777
0.855760 1.000000 0.420457
1.000000 1.000000 0.364155
1.000000 1.000000 0.332093
1.000000 0.998383 0.537057
0.000000 0.000000 0.574405
0.000000 0.000000 0.597062
0.104976 0.000000 0.607001
0.275359 0.000000 0.626067
0.474330 0.000000 0.657105
0.692835 0.000000 0.700992
0.907002 0.000000 0.746948
1.000000 0.060322 0.789457
0.000000 0.053956 0.596276
0.000000 0.035710 0.618260
0.119685 0.033839 0.624927
0.332004 0.059837 0.641203
0.547375 0.090579 0.669922
0.761673 0.131320 0.705414
0.968576 0.174811 0.743299
1.000000 0.228083 0.768906
0.000000 0.220328 0.615534
0.000000 0.219074 0.631775
0.159089 0.244297 0.654051
0.380636 0.262510 0.679406
0.607714 0.313537 0.683862
0.845854 0.330160 0.717816
0.998475 0.365937 0.723880
1.000000 0.386388 0.724913
0.000000 0.399646 0.634005
0.004575 0.422692 0.652985
0.208679 0.451203 0.676732
0.453628 0.485848 0.686262
0.690925 0.512745 0.707775
0.907433 0.531996 0.694736
1.000000 0.538438 0.676008
1.000000 0.548077 0.674781
0.000000 0.597099 0.666547
0.027853 0.627980 0.682740
0.268555 0.656459 0.698626
0.505405 0.694844 0.710098
0.750754 0.717922 0.705428
0.950695 0.706767 0.664936
1.000000 0.691438 0.630688
1.000000 0.756833 0.713978
0.000000 0.807121 0.712475
0.070849 0.831452 0.722444
0.298746 0.875590 0.738291
0.548714 0.895446 0.717434
0.768389 0.879941 0.678151
0.972987 0.869491 0.646239
1.000000 0.830758 0.602948
1.000000 0.904047 0.806869
0.000000 0.993324 0.759227
0.106661 0.998969 0.763883
0.329334 1.000000 0.753652
0.558799 1.000000 0.709969
0.775951 1.000000 0.658601
0.953467 0.996112 0.613128
1.000000 0.959379 0.574504
1.000000 0.948341 0.761845
0.000000 1.000000 0.796352
0.155767 1.000000 0.783938
0.347506 1.000000 0.750390
0.557770 1.000000 0.708332
0.809872 1.000000 0.725087
0.948981 1.000000 0.642209
1.000000 1.000000 0.536356
1.000000 0.999523 0.614796
0.000000 0.000000 0.752813
0.000000 0.000000 0.751623
0.132150 0.000000 0.767759
0.312129 0.000000 0.800897
0.519426 0.000000 0.847033
0.747035 0.000000 0.905105
0.965827 0.008817 0.953610
1.000000 0.092748 0.972755
0.000000 0.062178 0.769764
0.000000 0.059335 0.793902
0.143860 0.066676 0.822200
0.356602 0.096093 0.851449
0.574289 0.127916 0.888622
0.791003 0.160634 0.926871
0.990199 0.195661 0.958243
1.000000 0.248090 0.952464
0.000000 0.238764 0.791001
0.003136 0.252699 0.823370
0.178094 0.280432 0.865154
0.401467 0.312979 0.890602
0.618982 0.341592 0.913368
0.812493 0.364915 0.926267
0.997297 0.377670 0.950670
1.000000 0.395758 0.912910
0.000000 0.430037 0.822629
0.015527 0.460900 0.854446
0.227415 0.493532 0.892422
0.446984 0.522889 0.913136
0.654763 0.539097 0.917232
0.826677 0.542751 0.906058
1.000000 0.543636 0.906084
1.000000 0.554098 0.867446
0.000000 0.638908 0.869016
0.053033 0.668669 0.893129
0.271261 0.695352 0.915973
0.483116 0.712712 0.921830
0.682094 0.714709 0.908317
0.867721 0.710232 0.899061
1.000000 0.690739 0.855945
1.000000 0.764031 0.876735
0.000000 0.857794 0.923809
0.088461 0.872677 0.933544
0.300237 0.881417 0.938774
0.498813 0.882824 0.927069
0.695613 0.882982 0.905110
0.886806 0.873362 0.879372
0.999796 0.824664 0.811707
1.000000 0.917134 0.922621
0.000000 1.000000 0.967761
0.122114 1.000000 0.967054
0.316308 1.000000 0.960534
0.510059 1.000000 0.923973
0.696808 1.000000 0.876901
0.860056 0.989889 0.820268
0.998403 0.949850 0.772532
1.000000 0.944412 0.844706
0.001130 1.000000 0.985421
0.167498 1.000000 0.967384
0.338093 1.000000 0.930644
0.533215 1.000000 0.890068
0.798028 1.000000 0.910612
0.925883 1.000000 0.895032
0.975489 1.000000 0.740313
1.000000 0.998814 0.714108
0.000000 0.000000 0.909218
0.004116 0.000000 0.924883
0.173010 0.000000 0.950679
0.361042 0.000000 0.988946
0.569703 0.000000 1.000000
0.792101 0.009204 1.000000
0.991974 0.056747 1.000000
1.000000 0.131588 1.000000
0.000000 0.103271 0.935791
0.005413 0.106228 0.979662
0.193455 0.125547 0.993629
0.396208 0.151821 1.000000
0.602381 0.176577 1.000000
0.809138 0.201512 1.000000
0.991970 0.233814 1.000000
1.000000 0.269096 1.000000
0.000000 0.282780 0.967301
0.030374 0.303495 0.994446
0.225438 0.329624 1.000000
0.428714 0.355277 1.000000
0.624794 0.372206 1.000000
0.812911 0.384395 1.000000
0.975154 0.395407 1.000000
1.000000 0.400682 1.000000
0.000000 0.475117 0.993583
0.065543 0.504250 1.000000
0.263169 0.529560 1.000000
0.458238 0.545162 1.000000
0.643220 0.550008 1.000000
0.816721 0.547088 1.000000
0.960830 0.536788 1.000000
1.000000 0.529080 0.999595
0.000000 0.682124 1.000000
0.094810 0.703336 1.000000
0.289254 0.716931 1.000000
0.475485 0.720010 1.000000
0.650110 0.712304 1.000000
0.811423 0.694971 1.000000
0.940989 0.664574 0.998530
1.000000 0.662131 0.972900
0.000000 0.895258 1.000000
0.123530 0.897734 1.000000
0.308731 0.892794 1.000000
0.483466 0.880785 1.000000
0.647222 0.859325 1.000000
0.799383 0.828914 0.998603
0.927035 0.788583 0.965066
1.000000 0.797159 0.939928
0.000000 1.000000 1.000000
0.157308 1.000000 1.000000
0.321891 1.000000 1.000000
0.478643 0.999751 1.000000
0.628119 0.985741 0.999982
0.773296 0.949801 0.974475
0.915625 0.916640 0.932423
1.000000 0.897155 0.902618
0.041981 1.000000 1.000000
0.189135 1.000000 1.000000
0.341077 1.000000 1.000000
0.494613 1.000000 1.000000
0.659390 1.000000 0.989964
0.816285 1.000000 0.961340
0.909058 0.999755 0.898673
0.999223 0.982742 0.847237
0.000000 0.000000 1.000000
0.047696 0.000915 1.000000
0.229361 0.018731 1.000000
0.416469 0.043742 1.000000
0.609105 0.072415 1.000000
0.802475 0.103900 1.000000
0.985278 0.139656 1.000000
1.000000 0.186244 1.000000
0.000000 0.169093 1.000000
0.074961 0.182955 1.000000
0.259688 0.204075 1.000000
0.442431 0.223567 1.000000
0.623771 0.239701 1.000000
0.802290 0.255566 1.000000
0.970214 0.276415 1.000000
1.000000 0.308220 1.000000
0.000000 0.344539 1.000000
0.106626 0.365717 1.000000
0.288707 0.383859 1.000000
0.462444 0.393192 1.000000
0.631832 0.396466 1.000000
0.798157 0.403004 1.000000
0.953612 0.421440 1.000000
1.000000 0.429486 1.000000
0.000000 0.527042 1.000000
0.131462 0.544680 1.000000
0.306286 0.554083 1.000000
0.470189 0.552264 1.000000
0.633634 0.550651 1.000000
0.801650 0.579448 1.000000
0.937954 0.587636 1.000000
1.000000 0.541459 1.000000
0.000000 0.717524 1.000000
0.150920 0.722835 1.000000
0.316369 0.719387 1.000000
0.476953 0.708102 1.000000
0.670611 0.727890 1.000000
0.858501 0.799762 1.000000
0.933062 0.740434 1.000000
0.999911 0.642932 1.000000
0.010101 0.908807 1.000000
0.170284 0.897230 1.000000
0.328454 0.879089 1.000000
0.500312 0.858978 1.000000
0.718055 0.873136 1.000000
0.885119 0.910776 1.000000
0.920312 0.835937 1.000000
0.986778 0.742096 1.000000
0.047541 1.000000 1.000000
0.195132 1.000000 1.000000
0.347922 0.999907 1.000000
0.503793 0.990175 1.000000
0.658511 0.960183 1.000000
0.789863 0.938059 1.000000
0.880056 0.900074 1.000000
0.958818 0.845626 0.986636
0.097033 1.000000 1.000000
0.224891 1.000000 1.000000
0.357081 1.000000 1.000000
0.482368 1.000000 1.000000
0.601779 1.000000 1.000000
0.720230 0.999911 1.000000
0.837361 0.980589 0.996443
0.946280 0.952233 0.963175
