ecomm/src/main/assets/lut/CrispAutumn - converted with Color.cube
TITLE "CrispAutumn - converted with Color.io - Created with Color.io"
LUT_3D_SIZE 32
DOMAIN_MIN 0.0 0.0 0.0
DOMAIN_MAX 1.0 1.0 1.0
0.000001 0.000001 0.000001
0.000001 0.000003 0.000006
0.000001 0.000005 0.000010
0.000002 0.000005 0.000013
0.000019 0.000000 0.000009
0.000193 0.000000 0.000000
0.001104 0.000000 0.000000
0.004531 0.000000 0.000000
0.014073 0.000000 0.000000
0.034581 0.000000 0.000000
0.070412 0.000000 0.000000
0.124137 0.000000 0.000000
0.194462 0.000000 0.000000
0.273028 0.000000 0.000000
0.345848 0.000000 0.000000
0.403629 0.000000 0.000000
0.448389 0.000000 0.000000
0.487091 0.000000 0.000000
0.524622 0.000000 0.000000
0.562853 0.000000 0.000000
0.602139 0.000000 0.000000
0.642336 0.000000 0.000000
0.683192 0.000000 0.000000
0.724524 0.000000 0.000000
0.766349 0.000000 0.000000
0.808933 0.000000 0.000000
0.852672 0.000000 0.000000
0.897803 0.000000 0.000000
0.944143 0.000000 0.015787
0.991182 0.000417 0.037657
0.999810 0.023439 0.061674
1.000000 0.049204 0.087057
0.000001 0.000003 0.000006
0.004519 0.008405 0.000000
0.009287 0.009513 0.000000
0.014655 0.005648 0.000000
0.020653 0.001661 0.000000
0.027644 0.000001 0.000000
0.036773 0.000000 0.000000
0.049559 0.000000 0.000000
0.067554 0.000000 0.000000
0.092757 0.000000 0.000000
0.127968 0.000000 0.000000
0.176348 0.000000 0.000000
0.239109 0.000000 0.000000
0.311848 0.000000 0.000000
0.384401 0.000000 0.000000
0.447744 0.000000 0.000000
0.500097 0.000000 0.000000
0.544970 0.000000 0.000000
0.586615 0.000000 0.000000
0.627590 0.000000 0.000000
0.668787 0.000000 0.000000
0.710277 0.000000 0.000000
0.751926 0.000000 0.000000
0.793684 0.000000 0.000000
0.835687 0.000000 0.000000
0.878236 0.000027 0.000000
0.921612 0.000562 0.000000
0.964724 0.001150 0.000000
0.997033 0.016517 0.000000
1.000000 0.039042 0.000000
1.000000 0.064003 0.019204
1.000000 0.090323 0.047843
0.000001 0.000005 0.000010
0.006042 0.018987 0.000000
0.011381 0.021978 0.000000
0.016002 0.013462 0.000000
0.021007 0.004714 0.000000
0.027752 0.000112 0.000000
0.037589 0.000000 0.000000
0.051567 0.000000 0.000000
0.069968 0.000000 0.000000
0.093374 0.000000 0.000000
0.124457 0.000000 0.000000
0.168356 0.000000 0.000000
0.229904 0.000000 0.000000
0.308366 0.000000 0.000000
0.394715 0.000000 0.000000
0.476243 0.000000 0.000000
0.544657 0.000000 0.000000
0.599887 0.000000 0.000000
0.647166 0.000000 0.000000
0.691314 0.000000 0.000000
0.734551 0.000000 0.000000
0.777410 0.000000 0.000000
0.819929 0.000000 0.000000
0.862182 0.000694 0.000000
0.904410 0.001589 0.000000
0.945912 0.003217 0.000000
0.986260 0.017545 0.000000
0.999033 0.036046 0.000000
1.000000 0.056259 0.000000
1.000000 0.079232 0.000000
1.000000 0.104478 0.000000
1.000000 0.131110 0.010518
0.000001 0.000007 0.000015
0.005824 0.032242 0.000000
0.009990 0.038361 0.000000
0.011270 0.024188 0.000000
0.012014 0.009483 0.000000
0.014613 0.001993 0.000000
0.020072 0.000023 0.000000
0.028691 0.000000 0.000000
0.040315 0.000000 0.000000
0.055533 0.000000 0.000000
0.077953 0.000008 0.000000
0.115566 0.000293 0.000000
0.178076 0.000870 0.000000
0.269166 0.001481 0.000000
0.379504 0.001756 0.000000
0.489441 0.001596 0.000000
0.581360 0.001273 0.000000
0.650897 0.001078 0.000000
0.705351 0.001122 0.000000
0.753149 0.001415 0.000000
0.798602 0.001953 0.000000
0.842968 0.002727 0.000000
0.886497 0.003718 0.000000
0.929381 0.012215 0.000000
0.968307 0.025853 0.000000
0.995242 0.041298 0.000000
1.000000 0.058139 0.000000
1.000000 0.076416 0.000000
1.000000 0.096537 0.000000
1.000000 0.119513 0.000000
1.000000 0.144759 0.000000
1.000000 0.171353 0.000000
0.000001 0.000011 0.000021
0.005043 0.046822 0.000000
0.008650 0.057018 0.000000
0.008230 0.037189 0.000000
0.006129 0.015440 0.000000
0.005457 0.004227 0.000000
0.006927 0.000574 0.000000
0.010237 0.000009 0.000000
0.015150 0.000006 0.000000
0.022620 0.000104 0.000000
0.037114 0.000511 0.000000
0.069039 0.002534 0.000000
0.132722 0.008380 0.000000
0.236043 0.015904 0.000000
0.368810 0.021204 0.000000
0.504545 0.021686 0.000000
0.617524 0.018975 0.000000
0.699958 0.016514 0.000000
0.761068 0.016269 0.000000
0.812434 0.018667 0.000000
0.860182 0.023682 0.000000
0.906199 0.031241 0.000000
0.948981 0.041172 0.000000
0.987313 0.053189 0.000000
0.999459 0.066966 0.000000
1.000000 0.082238 0.000000
1.000000 0.098900 0.000000
1.000000 0.117047 0.000000
1.000000 0.137067 0.000000
1.000000 0.159868 0.000000
1.000000 0.184807 0.000000
1.000000 0.210981 0.000000
0.000000 0.000024 0.000026
0.004117 0.062162 0.000000
0.008176 0.077735 0.000000
0.008083 0.053100 0.000000
0.004969 0.023530 0.000000
0.002529 0.007153 0.000000
0.001915 0.001499 0.000000
0.002598 0.000189 0.000000
0.004313 0.000113 0.000000
0.008491 0.000672 0.000000
0.020675 0.003075 0.000000
0.053352 0.009460 0.000000
0.123408 0.021373 0.000000
0.239289 0.036611 0.000000
0.387751 0.049235 0.000000
0.537785 0.055032 0.000000
0.660933 0.055427 0.000000
0.749580 0.054598 0.000000
0.814555 0.055293 0.000000
0.868702 0.058366 0.000000
0.918659 0.063920 0.000000
0.962265 0.071891 0.000000
0.992202 0.082088 0.000000
1.000000 0.094229 0.000000
1.000000 0.108014 0.000000
1.000000 0.123231 0.000000
1.000000 0.139824 0.000000
1.000000 0.157903 0.000000
1.000000 0.177793 0.000000
1.000000 0.200250 0.000000
1.000000 0.224620 0.000000
1.000000 0.250071 0.000000
0.000000 0.000139 0.000043
0.003395 0.078974 0.000000
0.008819 0.102152 0.000000
0.010263 0.074131 0.000000
0.006677 0.035446 0.000000
0.002796 0.011738 0.000000
0.000975 0.002758 0.000000
0.000776 0.000559 0.000000
0.002064 0.000615 0.000000
0.007255 0.002305 0.000000
0.023983 0.007443 0.000000
0.066792 0.018925 0.000000
0.151860 0.037879 0.000000
0.282589 0.060302 0.000000
0.439863 0.078597 0.000000
0.591359 0.088283 0.000000
0.712435 0.091235 0.000000
0.799815 0.092050 0.000000
0.865537 0.093830 0.000000
0.921554 0.097695 0.000000
0.967986 0.103873 0.000000
0.994238 0.112319 0.000000
1.000000 0.122842 0.000000
1.000000 0.135172 0.000000
1.000000 0.149045 0.000000
1.000000 0.164291 0.000000
1.000000 0.180885 0.000000
1.000000 0.198919 0.000000
1.000000 0.218634 0.000000
1.000000 0.240605 0.000000
1.000000 0.264192 0.000000
1.000000 0.288693 0.000000
0.000000 0.000868 0.000105
0.002825 0.097733 0.000000
0.010227 0.130736 0.000000
0.013803 0.100722 0.000000
0.009761 0.051580 0.000000
0.004222 0.018272 0.000000
0.001335 0.004627 0.000000
0.001061 0.001212 0.000000
0.003805 0.001841 0.000000
0.013959 0.005885 0.000000
0.042192 0.016031 0.000000
0.103984 0.035124 0.000000
0.210442 0.062176 0.000000
0.355461 0.090467 0.000000
0.513908 0.111777 0.000000
0.656394 0.123029 0.000000
0.766956 0.127271 0.000000
0.848554 0.129279 0.000000
0.913318 0.132066 0.000000
0.965425 0.136759 0.000000
0.993772 0.143619 0.000000
1.000000 0.152597 0.000000
1.000000 0.163498 0.000000
1.000000 0.176071 0.000000
1.000000 0.190092 0.000000
1.000000 0.205424 0.000000
1.000000 0.222054 0.000000
1.000000 0.240043 0.000000
1.000000 0.259529 0.000000
1.000000 0.280903 0.000000
1.000000 0.303592 0.000000
1.000000 0.326988 0.000000
0.000000 0.004143 0.000234
0.001751 0.118487 0.000000
0.011293 0.161764 0.000000
0.017307 0.130487 0.000000
0.013119 0.070442 0.000000
0.006049 0.026339 0.000000
0.002287 0.007231 0.000000
0.002764 0.002678 0.000000
0.009366 0.005021 0.000000
0.029343 0.013798 0.000000
0.076058 0.032090 0.000000
0.162730 0.061057 0.000000
0.290965 0.095931 0.000000
0.444159 0.127512 0.000000
0.595033 0.148792 0.000000
0.721782 0.159418 0.000000
0.818755 0.163785 0.000000
0.893795 0.166504 0.000000
0.954820 0.170151 0.000000
0.989936 0.175658 0.000000
1.000000 0.183225 0.000000
1.000000 0.192774 0.000000
1.000000 0.204097 0.000000
1.000000 0.216960 0.000000
1.000000 0.231171 0.000000
1.000000 0.246622 0.000000
1.000000 0.263294 0.000000
1.000000 0.281210 0.000000
1.000000 0.300416 0.000000
1.000000 0.321103 0.000000
1.000000 0.342799 0.000000
1.000000 0.365034 0.000000
0.000000 0.015214 0.000669
0.000323 0.142713 0.000000
0.011251 0.194024 0.000000
0.020289 0.161595 0.000000
0.016841 0.091516 0.000000
0.008730 0.036502 0.000000
0.004558 0.011520 0.000000
0.007405 0.006440 0.000000
0.021671 0.012682 0.000000
0.057712 0.029694 0.000000
0.128530 0.059094 0.000000
0.240658 0.098316 0.000000
0.384154 0.138426 0.000000
0.535489 0.169692 0.000000
0.671189 0.188251 0.000000
0.779963 0.196837 0.000000
0.864687 0.200689 0.000000
0.934844 0.203842 0.000000
0.981873 0.208239 0.000000
1.000000 0.214522 0.000000
1.000000 0.222789 0.000000
1.000000 0.232917 0.000000
1.000000 0.244684 0.000000
1.000000 0.257866 0.000000
1.000000 0.272294 0.000000
1.000000 0.287869 0.000000
1.000000 0.304551 0.000000
1.000000 0.322312 0.000000
1.000000 0.341128 0.000000
1.000000 0.361097 0.000000
1.000000 0.381784 0.000000
1.000000 0.402835 0.000000
0.000000 0.042286 0.001400
0.000266 0.174231 0.000000
0.010183 0.228952 0.000000
0.023839 0.195682 0.000000
0.022799 0.117863 0.000000
0.014457 0.052274 0.000000
0.010776 0.020825 0.000000
0.018834 0.016256 0.000000
0.046211 0.029576 0.000000
0.104089 0.058282 0.000000
0.200974 0.099990 0.000000
0.332598 0.146769 0.000000
0.479988 0.187427 0.000000
0.619398 0.214611 0.000000
0.736055 0.228679 0.000000
0.828698 0.234730 0.000000
0.904717 0.237956 0.000000
0.965906 0.241465 0.000000
0.996168 0.246540 0.000000
1.000000 0.253543 0.000000
1.000000 0.262468 0.000000
1.000000 0.273146 0.000000
1.000000 0.285343 0.000000
1.000000 0.298840 0.000000
1.000000 0.313479 0.000000
1.000000 0.329158 0.000000
1.000000 0.345810 0.000000
1.000000 0.363372 0.000000
1.000000 0.381746 0.000000
1.000000 0.400887 0.000000
1.000000 0.420504 0.000000
1.000000 0.440350 0.000000
0.000000 0.092332 0.001766
0.000186 0.217037 0.000000
0.008509 0.269528 0.000000
0.029659 0.236898 0.000000
0.033992 0.155613 0.000000
0.027530 0.080920 0.000000
0.026543 0.042661 0.000000
0.043841 0.039721 0.000000
0.089542 0.062721 0.000000
0.171679 0.104259 0.000000
0.289695 0.155377 0.000000
0.429400 0.203894 0.000000
0.568704 0.239725 0.000000
0.690029 0.260109 0.000000
0.788529 0.269184 0.000000
0.869395 0.272969 0.000000
0.940448 0.275765 0.000000
0.984462 0.279641 0.000000
1.000000 0.285321 0.000000
1.000000 0.292955 0.000000
1.000000 0.302453 0.000000
1.000000 0.313609 0.000000
1.000000 0.326178 0.000000
1.000000 0.339945 0.000000
1.000000 0.354748 0.000000
1.000000 0.370468 0.000000
1.000000 0.387007 0.000000
1.000000 0.404256 0.000000
1.000000 0.422085 0.000000
1.000000 0.440341 0.000000
1.000000 0.458860 0.000000
1.000000 0.477501 0.000000
0.000000 0.166660 0.000923
0.000075 0.272285 0.000000
0.006230 0.317231 0.000000
0.038535 0.287992 0.000000
0.053013 0.210352 0.000000
0.053583 0.131856 0.000000
0.059991 0.088692 0.000000
0.090576 0.087808 0.000000
0.156031 0.119429 0.000000
0.257782 0.169431 0.000000
0.385592 0.222473 0.000000
0.520211 0.265383 0.000000
0.643103 0.292133 0.000000
0.745855 0.304859 0.000000
0.830693 0.309604 0.000000
0.904680 0.311812 0.000000
0.966225 0.314455 0.000000
0.997411 0.318694 0.000000
1.000000 0.324870 0.000000
1.000000 0.333001 0.000000
1.000000 0.342943 0.000000
1.000000 0.354462 0.000000
1.000000 0.367305 0.000000
1.000000 0.381250 0.000000
1.000000 0.396126 0.000000
1.000000 0.411784 0.000000
1.000000 0.428087 0.000000
1.000000 0.444887 0.000000
1.000000 0.462026 0.000000
1.000000 0.479353 0.000000
1.000000 0.496757 0.000000
1.000000 0.514181 0.000000
0.000000 0.259933 0.000000
0.000010 0.337287 0.000000
0.004114 0.370434 0.000000
0.049597 0.347384 0.000000
0.079877 0.282453 0.000000
0.095431 0.210492 0.000000
0.115923 0.167958 0.000000
0.161847 0.168116 0.000000
0.242333 0.201753 0.000000
0.352376 0.250135 0.000000
0.476296 0.295257 0.000000
0.596204 0.326508 0.000000
0.700883 0.342659 0.000000
0.789075 0.348624 0.000000
0.865906 0.350354 0.000000
0.936948 0.351711 0.000000
0.982928 0.354394 0.000000
1.000000 0.358936 0.000000
1.000000 0.365460 0.000000
1.000000 0.373919 0.000000
1.000000 0.384138 0.000000
1.000000 0.395867 0.000000
1.000000 0.408841 0.000000
1.000000 0.422828 0.000000
1.000000 0.437635 0.000000
1.000000 0.453083 0.000000
1.000000 0.468998 0.000000
1.000000 0.485201 0.000000
1.000000 0.501524 0.000000
1.000000 0.517838 0.000000
1.000000 0.534085 0.000000
1.000000 0.550275 0.000000
0.000000 0.358989 0.000000
0.000000 0.405126 0.000000
0.003741 0.424652 0.000000
0.060422 0.408939 0.000000
0.109787 0.363453 0.000000
0.146696 0.308894 0.000000
0.186479 0.274133 0.000000
0.246733 0.273620 0.000000
0.333857 0.300341 0.000000
0.440224 0.336458 0.000000
0.550993 0.366440 0.000000
0.653800 0.383933 0.000000
0.744032 0.390773 0.000000
0.823734 0.392058 0.000000
0.897234 0.392098 0.000000
0.961442 0.393126 0.000000
0.995839 0.395911 0.000000
1.000000 0.400640 0.000000
1.000000 0.407339 0.000000
1.000000 0.415934 0.000000
1.000000 0.426238 0.000000
1.000000 0.437987 0.000000
1.000000 0.450907 0.000000
1.000000 0.464751 0.000000
1.000000 0.479297 0.000000
1.000000 0.494339 0.000000
1.000000 0.509672 0.000000
1.000000 0.525106 0.000000
1.000000 0.540479 0.000000
1.000000 0.555691 0.000000
1.000000 0.570731 0.000000
1.000000 0.585662 0.000000
0.000000 0.446229 0.000000
0.000000 0.466820 0.000000
0.004094 0.474883 0.000000
0.068490 0.465580 0.000000
0.135146 0.439761 0.000000
0.193410 0.406842 0.000000
0.252476 0.384070 0.000000
0.323816 0.382146 0.000000
0.411101 0.397051 0.000000
0.508064 0.416491 0.000000
0.604764 0.430579 0.000000
0.694718 0.436684 0.000000
0.776884 0.437320 0.000000
0.853366 0.436095 0.000000
0.926548 0.435450 0.000000
0.978270 0.436423 0.000000
1.000000 0.439277 0.000000
1.000000 0.444051 0.000000
1.000000 0.450741 0.000000
1.000000 0.459265 0.000000
1.000000 0.469433 0.000000
1.000000 0.480980 0.000000
1.000000 0.493620 0.000000
1.000000 0.507087 0.000000
1.000000 0.521134 0.000000
1.000000 0.535528 0.000000
1.000000 0.550055 0.000000
1.000000 0.564527 0.000000
1.000000 0.578803 0.000000
1.000000 0.592816 0.000000
1.000000 0.606591 0.000000
1.000000 0.620229 0.000000
0.000000 0.511866 0.000000
0.000000 0.517612 0.000000
0.004271 0.519064 0.000000
0.073054 0.514222 0.000000
0.151472 0.502586 0.000000
0.225179 0.487132 0.000000
0.298504 0.475315 0.000000
0.377147 0.472632 0.000000
0.462809 0.477394 0.000000
0.552024 0.483530 0.000000
0.639891 0.486566 0.000000
0.723736 0.486007 0.000000
0.803489 0.483691 0.000000
0.880152 0.481581 0.000000
0.952256 0.480831 0.000000
0.992340 0.481852 0.000000
1.000000 0.484702 0.000000
1.000000 0.489376 0.000000
1.000000 0.495866 0.000000
1.000000 0.504099 0.000000
1.000000 0.513893 0.000000
1.000000 0.524983 0.000000
1.000000 0.537078 0.000000
1.000000 0.549890 0.000000
1.000000 0.563157 0.000000
1.000000 0.576632 0.000000
1.000000 0.590106 0.000000
1.000000 0.603409 0.000000
1.000000 0.616431 0.000000
1.000000 0.629137 0.000000
1.000000 0.641578 0.000000
1.000000 0.653873 0.000000
0.000000 0.559918 0.000000
0.000000 0.559719 0.000000
0.004357 0.558747 0.000000
0.075219 0.556494 0.000000
0.159826 0.552453 0.000000
0.241891 0.546989 0.000000
0.323242 0.542176 0.000000
0.406208 0.539862 0.000000
0.491474 0.539497 0.000000
0.577624 0.539002 0.000000
0.662732 0.537105 0.000000
0.745734 0.534115 0.000000
0.826444 0.531103 0.000000
0.904965 0.529035 0.000000
0.968911 0.528460 0.000000
1.000000 0.529554 0.000000
1.000000 0.532322 0.000000
1.000000 0.536757 0.000000
1.000000 0.542864 0.000000
1.000000 0.550583 0.000000
1.000000 0.559749 0.000000
1.000000 0.570103 0.000000
1.000000 0.581355 0.000000
1.000000 0.593201 0.000000
1.000000 0.605375 0.000000
1.000000 0.617638 0.000000
1.000000 0.629798 0.000000
1.000000 0.641719 0.000000
1.000000 0.653324 0.000000
1.000000 0.664604 0.000000
1.000000 0.675626 0.000000
1.000000 0.686509 0.000000
0.000000 0.599619 0.000000
0.000000 0.597899 0.000000
0.004440 0.596574 0.000000
0.076666 0.595729 0.000000
0.164016 0.595061 0.000000
0.249737 0.594171 0.000000
0.334837 0.593074 0.000000
0.420357 0.591947 0.000000
0.506629 0.590573 0.000000
0.593147 0.588525 0.000000
0.679101 0.585772 0.000000
0.763834 0.582788 0.000000
0.846885 0.580228 0.000000
0.927890 0.578648 0.000000
0.982525 0.578387 0.000000
1.000000 0.579565 0.000000
1.000000 0.582191 0.000000
1.000000 0.586270 0.000000
1.000000 0.591818 0.000000
1.000000 0.598805 0.000000
1.000000 0.607077 0.000000
1.000000 0.616400 0.000000
1.000000 0.626486 0.000000
1.000000 0.637036 0.000000
1.000000 0.647791 0.000000
1.000000 0.658541 0.000000
1.000000 0.669136 0.000000
1.000000 0.679478 0.000000
1.000000 0.689482 0.000000
1.000000 0.699196 0.000000
1.000000 0.708693 0.000000
1.000000 0.718073 0.000000
0.000000 0.637139 0.000000
0.000000 0.635291 0.000000
0.004574 0.634225 0.000000
0.078598 0.634259 0.000000
0.167106 0.635221 0.000000
0.254303 0.636546 0.000000
0.341088 0.637649 0.000000
0.428223 0.638126 0.000000
0.515991 0.637761 0.000000
0.604154 0.636554 0.000000
0.692162 0.634759 0.000000
0.779352 0.632820 0.000000
0.865066 0.631217 0.000000
0.947729 0.630360 0.000000
0.994397 0.630520 0.000000
1.000000 0.631813 0.000000
1.000000 0.634265 0.000000
1.000000 0.637897 0.000000
1.000000 0.642741 0.000000
1.000000 0.648775 0.000000
1.000000 0.655895 0.000000
1.000000 0.663889 0.000000
1.000000 0.672475 0.000000
1.000000 0.681388 0.000000
1.000000 0.690395 0.000000
1.000000 0.699332 0.000000
1.000000 0.708101 0.000000
1.000000 0.716644 0.000000
1.000000 0.724891 0.000000
1.000000 0.732905 0.000000
1.000000 0.740757 0.000000
1.000000 0.748521 0.000000
0.000000 0.674798 0.000000
0.000000 0.673063 0.000000
0.004782 0.672316 0.000000
0.081575 0.673020 0.000000
0.170525 0.675091 0.000000
0.258291 0.677935 0.000000
0.345854 0.680797 0.000000
0.434016 0.683066 0.000000
0.523106 0.684435 0.000000
0.612961 0.684909 0.000000
0.703048 0.684727 0.000000
0.792631 0.684255 0.000000
0.880904 0.683877 0.000000
0.959347 0.683928 0.000000
1.000000 0.684636 0.000000
1.000000 0.686111 0.000000
1.000000 0.688395 0.000000
1.000000 0.691524 0.000000
1.000000 0.695535 0.000000
1.000000 0.700441 0.000000
1.000000 0.706156 0.000000
1.000000 0.712517 0.000000
1.000000 0.719284 0.000000
1.000000 0.726227 0.000000
1.000000 0.733173 0.000000
1.000000 0.740016 0.000000
1.000000 0.746708 0.000000
1.000000 0.753234 0.000000
1.000000 0.759563 0.000000
1.000000 0.765741 0.000000
1.000000 0.771814 0.000000
1.000000 0.777828 0.000000
0.000000 0.713075 0.000000
0.000000 0.711468 0.000000
0.005066 0.711012 0.000000
0.085737 0.712286 0.000000
0.174686 0.715297 0.000000
0.262538 0.719462 0.000000
0.350370 0.723964 0.000000
0.439078 0.728085 0.000000
0.529072 0.731410 0.000000
0.620235 0.733849 0.000000
0.712033 0.735551 0.000000
0.803673 0.736783 0.000000
0.894232 0.737841 0.000000
0.968230 0.738984 0.000000
1.000000 0.740389 0.000000
1.000000 0.742151 0.000000
1.000000 0.744318 0.000000
1.000000 0.746919 0.000000
1.000000 0.750017 0.000000
1.000000 0.753636 0.000000
1.000000 0.757735 0.000000
1.000000 0.762183 0.000000
1.000000 0.766827 0.000000
1.000000 0.771501 0.000000
1.000000 0.776103 0.000000
1.000000 0.780598 0.000000
1.000000 0.784995 0.000000
1.000000 0.789313 0.000000
1.000000 0.793556 0.000000
1.000000 0.797733 0.000000
1.000000 0.801855 0.000000
1.000000 0.805938 0.000000
0.000000 0.751931 0.000000
0.000000 0.750571 0.000000
0.005415 0.750466 0.000000
0.090964 0.752279 0.000000
0.179537 0.756115 0.000000
0.267124 0.761446 0.000000
0.354855 0.767452 0.000000
0.443697 0.773358 0.000000
0.534139 0.778655 0.000000
0.626128 0.783148 0.000000
0.719158 0.786872 0.000000
0.812413 0.789982 0.000000
0.904882 0.792664 0.000000
0.975437 0.795084 0.000000
1.000000 0.797353 0.000000
1.000000 0.799553 0.000000
1.000000 0.801671 0.000000
1.000000 0.803764 0.000000
1.000000 0.805900 0.000000
1.000000 0.808122 0.000000
1.000000 0.810424 0.000000
1.000000 0.812743 0.000000
1.000000 0.814991 0.000000
1.000000 0.817136 0.000000
1.000000 0.819152 0.000000
1.000000 0.821085 0.000000
1.000000 0.822993 0.000000
1.000000 0.824926 0.000000
1.000000 0.826902 0.000000
1.000000 0.828871 0.000000
1.000000 0.830767 0.000000
1.000000 0.832578 0.000000
0.000000 0.791270 0.004671
0.000116 0.790517 0.000000
0.008357 0.791012 0.000000
0.096930 0.793440 0.000000
0.184778 0.798006 0.000000
0.271830 0.804291 0.000000
0.359190 0.811549 0.000000
0.447839 0.819016 0.000000
0.538329 0.826135 0.000000
0.630677 0.832619 0.000000
0.724442 0.838387 0.000000
0.818824 0.843466 0.000000
0.912759 0.847911 0.000000
0.980870 0.851768 0.000000
1.000000 0.855065 0.000000
1.000000 0.857808 0.000000
1.000000 0.860002 0.000000
1.000000 0.861652 0.000000
1.000000 0.862833 0.000000
1.000000 0.863590 0.000000
1.000000 0.863966 0.000000
1.000000 0.863976 0.000000
1.000000 0.863647 0.000000
1.000000 0.863036 0.000000
1.000000 0.862277 0.000000
1.000000 0.861471 0.000000
1.000000 0.860728 0.000000
1.000000 0.860106 0.000000
1.000000 0.859599 0.000000
1.000000 0.859013 0.000000
1.000000 0.858111 0.000000
1.000000 0.856862 0.000000
0.000000 0.831118 0.015290
0.000364 0.831575 0.000000
0.015262 0.833116 0.000000
0.103200 0.836376 0.000000
0.189989 0.841657 0.000000
0.276303 0.848681 0.000000
0.363123 0.856849 0.000000
0.451365 0.865507 0.000000
0.541597 0.874125 0.000000
0.633909 0.882364 0.000000
0.727944 0.890043 0.000000
0.822961 0.897057 0.000000
0.917881 0.903311 0.000000
0.984506 0.908701 0.000000
1.000000 0.913127 0.000000
1.000000 0.916544 0.000000
1.000000 0.918906 0.000000
1.000000 0.920197 0.000000
1.000000 0.920442 0.000000
1.000000 0.919703 0.000000
1.000000 0.918067 0.000000
1.000000 0.915650 0.000000
1.000000 0.912603 0.000000
1.000000 0.909119 0.000000
1.000000 0.905418 0.000000
1.000000 0.901742 0.000000
1.000000 0.898210 0.000000
1.000000 0.894861 0.000000
1.000000 0.891551 0.000000
1.000000 0.887779 0.000000
1.000000 0.882954 0.000000
1.000000 0.877086 0.000000
0.000000 0.871704 0.028397
0.000628 0.874172 0.000075
0.023439 0.877412 0.000000
0.109378 0.881875 0.000000
0.194806 0.887924 0.000000
0.280231 0.895472 0.000000
0.366420 0.904168 0.000000
0.454141 0.913567 0.000000
0.543919 0.923244 0.000000
0.635898 0.932866 0.000000
0.729818 0.942178 0.000000
0.825016 0.950951 0.000000
0.920447 0.958938 0.000000
0.986441 0.965872 0.000000
1.000000 0.971485 0.000000
1.000000 0.975621 0.000000
1.000000 0.978197 0.000000
1.000000 0.979141 0.000000
1.000000 0.978445 0.000000
1.000000 0.976169 0.000000
1.000000 0.972456 0.000000
1.000000 0.967529 0.000000
1.000000 0.961679 0.000000
1.000000 0.955237 0.000000
1.000000 0.948538 0.000000
1.000000 0.941868 0.000000
1.000000 0.935428 0.000000
1.000000 0.929130 0.000000
1.000000 0.922491 0.000000
1.000000 0.914545 0.000000
1.000000 0.904256 0.000000
1.000000 0.891845 0.000000
0.000000 0.913445 0.042780
0.000899 0.918585 0.011549
0.031865 0.924092 0.000000
0.115393 0.930146 0.000000
0.199196 0.937107 0.000000
0.283586 0.945103 0.000000
0.369059 0.954086 0.000000
0.456180 0.963879 0.000000
0.545386 0.974230 0.000000
0.636842 0.984735 0.000000
0.730370 0.991893 0.000000
0.825378 0.993359 0.000000
0.920922 0.994715 0.000000
0.986970 0.995917 0.000000
1.000000 0.996917 0.000000
1.000000 0.997677 0.000000
1.000000 0.998184 0.000000
1.000000 0.998420 0.000000
1.000000 0.998380 0.000000
1.000000 0.998068 0.000000
1.000000 0.997501 0.000000
1.000000 0.996711 0.000000
1.000000 0.995744 0.000000
1.000000 0.994654 0.000000
1.000000 0.990775 0.000000
1.000000 0.981836 0.000000
1.000000 0.972317 0.000000
1.000000 0.962712 0.000000
1.000000 0.951896 0.000000
1.000000 0.938559 0.000000
1.000000 0.921631 0.000000
1.000000 0.901827 0.042948
0.000000 0.956777 0.058251
0.001185 0.964746 0.026641
0.040746 0.972706 0.000000
0.121645 0.980543 0.000000
0.203607 0.988299 0.000000
0.286763 0.993777 0.000000
0.371354 0.994897 0.000000
0.457742 0.996124 0.000000
0.546262 0.997432 0.000000
0.637064 0.998787 0.000000
0.730046 1.000000 0.000000
0.824771 1.000000 0.000000
0.920208 1.000000 0.000000
0.986601 1.000000 0.000000
1.000000 1.000000 0.000000
1.000000 1.000000 0.000000
1.000000 1.000000 0.000000
1.000000 1.000000 0.000000
1.000000 1.000000 0.000000
1.000000 1.000000 0.000000
