ecomm/src/main/assets/lut/Landscape - converted with Color.cube
TITLE "Landscape - converted with Color.io - Created with Color.io"
LUT_3D_SIZE 8
DOMAIN_MIN 0.000000 0.000000 0.000000
DOMAIN_MAX 0.903226 0.903226 0.903226
0.000035 0.000035 0.032774
0.148305 0.000016 0.000016
0.228527 0.000049 0.000049
0.316585 0.000326 0.000326
0.558422 0.000269 0.000269
0.871857 0.059520 0.014635
0.981805 0.139644 0.036588
0.989376 0.167907 0.071201
0.000160 0.064049 0.000160
0.102375 0.052627 0.003489
0.225039 0.052006 0.002054
0.311858 0.052061 0.001645
0.541253 0.051621 0.001364
0.850568 0.069001 0.009142
0.986987 0.140888 0.018950
0.994826 0.171470 0.059969
0.000965 0.109693 0.000965
0.052262 0.104295 0.001088
0.188357 0.111919 0.007583
0.316474 0.112925 0.006718
0.510410 0.112651 0.006024
0.814559 0.124477 0.014648
0.982832 0.160031 0.010362
0.995780 0.187003 0.052636
0.001212 0.242772 0.001212
0.053009 0.250929 0.002093
0.203307 0.259029 0.002247
0.383910 0.268827 0.005380
0.599025 0.271079 0.008726
0.809024 0.244187 0.025689
0.966790 0.201302 0.015149
0.990009 0.216978 0.052422
0.034903 0.520531 0.021683
0.135220 0.519630 0.021837
0.327217 0.527242 0.037538
0.515854 0.533630 0.071868
0.692038 0.530534 0.117121
0.936083 0.526439 0.059763
0.971459 0.473920 0.107051
0.982764 0.319207 0.085831
0.214538 0.827873 0.138560
0.257113 0.810533 0.133244
0.423791 0.789579 0.156326
0.574409 0.740801 0.184494
0.785990 0.774380 0.131117
0.937243 0.773895 0.119844
0.961373 0.718174 0.170036
0.981255 0.633027 0.191594
0.350932 0.916210 0.271815
0.355884 0.928505 0.254488
0.470184 0.918376 0.245677
0.606947 0.916214 0.222479
0.767161 0.914547 0.181423
0.929935 0.950913 0.134831
0.971197 0.891873 0.162970
0.982638 0.822295 0.211006
0.355601 0.938567 0.275591
0.350489 0.953567 0.259953
0.454551 0.949787 0.250271
0.583390 0.950119 0.231361
0.725779 0.957007 0.205455
0.859140 0.969098 0.177400
0.942933 0.982824 0.153594
0.989609 0.955302 0.178106
0.000196 0.000196 0.193909
0.107543 0.000330 0.125723
0.220832 0.002035 0.052019
0.296135 0.001744 0.052252
0.500200 0.001257 0.051478
0.831629 0.006809 0.040621
0.982770 0.122050 0.043707
0.989924 0.156873 0.081583
0.004172 0.053040 0.126657
0.047626 0.046493 0.060940
0.203540 0.046496 0.046496
0.284758 0.046781 0.046781
0.488873 0.046568 0.046568
0.820557 0.056367 0.049194
0.947174 0.176508 0.081937
0.962747 0.194479 0.105402
0.001221 0.111597 0.052306
0.046828 0.100199 0.046827
0.156345 0.101422 0.050353
0.290045 0.101062 0.049009
0.474565 0.100596 0.048538
0.791137 0.103171 0.049304
0.950526 0.183939 0.071679
0.964871 0.206488 0.102279
0.002033 0.258755 0.052790
0.047091 0.247432 0.047091
0.173077 0.259451 0.047313
0.364752 0.274898 0.048896
0.583285 0.280079 0.049880
0.807639 0.256638 0.059844
0.947378 0.216005 0.068033
0.959607 0.233897 0.105714
0.016923 0.528754 0.046853
0.072741 0.524321 0.056800
0.301130 0.530720 0.063791
0.500265 0.539381 0.095567
0.678245 0.536745 0.141053
0.916691 0.536324 0.100938
0.942113 0.495357 0.162857
0.955517 0.354687 0.140412
0.184923 0.833856 0.131460
0.239464 0.805531 0.168702
0.403751 0.790393 0.183021
0.565860 0.757483 0.202526
0.772950 0.783072 0.160462
0.920369 0.770717 0.170716
0.938185 0.714759 0.217908
0.959898 0.640011 0.226734
0.335807 0.925566 0.265313
0.360911 0.908937 0.282592
0.457577 0.904219 0.274484
0.596592 0.902169 0.259891
0.750125 0.900751 0.235374
0.910925 0.929942 0.198899
0.943106 0.869811 0.222899
0.960059 0.812111 0.248025
0.340525 0.948556 0.268927
0.356564 0.936714 0.279195
0.437982 0.938340 0.270572
0.570601 0.937931 0.258632
0.712678 0.942824 0.240740
0.848121 0.950421 0.223176
0.921296 0.959337 0.202541
0.963210 0.931661 0.219796
0.000214 0.000214 0.317026
0.052023 0.002544 0.293126
0.179264 0.000914 0.177155
0.275690 0.006302 0.113231
0.455471 0.006090 0.112832
0.761094 0.007091 0.113299
0.979452 0.102748 0.065114
0.985614 0.149221 0.105029
0.002317 0.051955 0.268720
0.046540 0.046541 0.238676
0.140910 0.046996 0.155309
0.262960 0.048997 0.101321
0.446412 0.048746 0.100852
0.759312 0.048609 0.101334
0.946084 0.159010 0.094225
0.960055 0.190853 0.124752
0.006568 0.125579 0.216670
0.050136 0.108508 0.177444
0.094586 0.096783 0.110811
0.256566 0.093844 0.093115
0.446511 0.093328 0.093329
0.743102 0.093024 0.093020
0.917968 0.200758 0.117824
0.962773 0.208647 0.127866
0.002061 0.286682 0.237341
0.047896 0.275284 0.205924
0.108559 0.268388 0.148164
0.337636 0.286537 0.102013
0.561373 0.297358 0.093234
0.802068 0.285886 0.094972
0.917600 0.254986 0.124965
0.956136 0.244442 0.137104
0.064653 0.552480 0.319284
0.083522 0.546116 0.295305
0.225247 0.541502 0.239839
0.465589 0.549319 0.165485
0.666456 0.551966 0.153736
0.887224 0.552208 0.152709
0.917460 0.522752 0.205191
0.958249 0.414933 0.177690
0.194492 0.842544 0.325942
0.225776 0.825030 0.312478
0.339980 0.793816 0.277873
0.540079 0.766233 0.239043
0.736614 0.779527 0.210528
0.897146 0.766038 0.226408
0.916250 0.718027 0.255551
0.964957 0.664835 0.242771
0.321889 0.924307 0.325726
0.348311 0.912394 0.318630
0.406177 0.897082 0.299106
0.565580 0.893835 0.286816
0.726526 0.894595 0.275300
0.889444 0.910764 0.251039
0.918069 0.855836 0.263976
0.964791 0.825651 0.260541
0.324158 0.954969 0.272031
0.342914 0.944322 0.275221
0.370261 0.955721 0.267723
0.530863 0.952562 0.264159
0.687918 0.954068 0.254996
0.839909 0.957791 0.243260
0.916867 0.963534 0.225008
0.965555 0.938376 0.230030
0.000072 0.000072 0.417408
0.051612 0.001608 0.402723
0.113052 0.007278 0.375266
0.241132 0.004176 0.239635
0.436699 0.012170 0.200401
0.718966 0.012230 0.206318
0.971433 0.090627 0.134618
0.974708 0.148485 0.145280
0.001672 0.052041 0.413406
0.046498 0.046497 0.377631
0.100814 0.049076 0.336305
0.221965 0.048957 0.235109
0.424959 0.054232 0.189612
0.717484 0.053377 0.191441
0.940152 0.142536 0.150168
0.949877 0.193449 0.162070
0.004467 0.161154 0.433175
0.047786 0.144560 0.396603
0.092119 0.116730 0.318092
0.216252 0.099812 0.249933
0.438539 0.095641 0.197126
0.704097 0.096046 0.171687
0.912966 0.182290 0.159777
0.950911 0.216674 0.173954
0.005884 0.350063 0.500503
0.050152 0.337070 0.469860
0.094070 0.308846 0.394065
0.285388 0.309208 0.332076
0.542198 0.324092 0.277891
0.787408 0.320938 0.206541
0.911746 0.298293 0.173365
0.941243 0.258650 0.189208
0.158228 0.575872 0.559950
0.156496 0.577708 0.548877
0.150079 0.568157 0.503556
0.392055 0.569318 0.436911
0.640787 0.574922 0.356306
0.854877 0.569390 0.267545
0.916073 0.547727 0.232131
0.951868 0.467261 0.223155
0.211060 0.817483 0.599619
0.243466 0.809418 0.581817
0.278459 0.791055 0.543355
0.474144 0.764412 0.489729
0.682722 0.768690 0.394594
0.869390 0.758275 0.296048
0.918168 0.734298 0.274227
0.962407 0.687355 0.272114
0.297100 0.910503 0.563989
0.329013 0.900499 0.553149
0.349933 0.895262 0.523335
0.483793 0.904823 0.460151
0.684661 0.908739 0.370018
0.872349 0.912490 0.287449
0.919100 0.870013 0.279173
0.963750 0.836906 0.281235
0.308497 0.947430 0.485307
0.327516 0.939857 0.474800
0.331334 0.957223 0.439639
0.456296 0.961458 0.380510
0.647403 0.957782 0.303344
0.815730 0.958374 0.274419
0.910175 0.962187 0.255469
0.963457 0.943910 0.246528
0.000919 0.000919 0.604492
0.051883 0.001586 0.568755
0.112592 0.005993 0.505631
0.181414 0.015319 0.441158
0.392136 0.007461 0.384100
0.693454 0.007673 0.396331
0.972001 0.098987 0.377828
0.971686 0.168011 0.295925
0.002765 0.078785 0.634720
0.046662 0.060542 0.600568
0.099947 0.048431 0.520951
0.169024 0.056455 0.440299
0.378383 0.053323 0.382119
0.683266 0.052773 0.390665
0.941870 0.141667 0.381965
0.946592 0.205403 0.302568
0.009618 0.237257 0.698264
0.050218 0.214938 0.662381
0.092694 0.176378 0.576203
0.120057 0.103146 0.473259
0.406118 0.109139 0.425102
0.677965 0.104849 0.396402
0.913015 0.172340 0.384854
0.944784 0.224232 0.309766
0.057754 0.433467 0.766392
0.080962 0.422047 0.743016
0.100484 0.394970 0.685996
0.151635 0.350075 0.577480
0.493775 0.358800 0.527570
0.758655 0.363238 0.474018
0.914153 0.344312 0.411528
0.933324 0.273771 0.314352
0.142747 0.660970 0.855444
0.169523 0.649058 0.838184
0.200476 0.621750 0.771664
0.230314 0.588353 0.678256
0.570128 0.594175 0.619857
0.824662 0.591773 0.542345
0.916416 0.574781 0.454356
0.949042 0.511032 0.329201
0.174881 0.882088 0.860956
0.222738 0.869058 0.847859
0.272023 0.838091 0.802719
0.327722 0.794277 0.720009
0.605403 0.789451 0.650433
0.846732 0.776427 0.566300
0.917823 0.750882 0.459171
0.956420 0.706298 0.341684
0.253937 0.919079 0.777899
0.301122 0.906799 0.766142
0.337392 0.898257 0.741230
0.359271 0.910671 0.696759
0.603752 0.915480 0.631890
0.824528 0.908117 0.539368
0.918786 0.881399 0.424883
0.958748 0.845504 0.322274
0.267691 0.950900 0.703362
0.300771 0.939493 0.692628
0.312440 0.953503 0.669231
0.340733 0.960160 0.629460
0.566828 0.964015 0.565243
0.773703 0.960882 0.472699
0.908183 0.960060 0.359074
0.957670 0.943809 0.270016
0.004016 0.056285 0.783350
0.026120 0.004157 0.783628
0.113499 0.005971 0.730094
0.180828 0.014565 0.645645
0.292044 0.022580 0.590596
0.646247 0.001088 0.613658
0.971962 0.088813 0.644640
0.979194 0.198702 0.545382
0.006975 0.156366 0.812089
0.050730 0.144613 0.812666
0.058688 0.061223 0.802774
0.166429 0.055501 0.674323
0.280461 0.067438 0.599261
0.629837 0.050140 0.607714
0.941442 0.133061 0.632238
0.957261 0.228429 0.541905
0.018544 0.319270 0.848457
0.059941 0.309349 0.858318
0.099710 0.286231 0.855368
0.100809 0.178969 0.790985
0.303052 0.167198 0.665590
0.645142 0.142774 0.640715
0.908228 0.165684 0.620929
0.960395 0.236909 0.549605
0.124731 0.498342 0.925783
0.157438 0.492217 0.907742
0.171121 0.477180 0.887461
0.160727 0.438606 0.853054
0.366583 0.402341 0.769377
0.709281 0.403860 0.728435
0.916924 0.393252 0.668357
0.959148 0.310531 0.562959
0.241646 0.692809 0.895754
0.276043 0.686344 0.887791
0.301563 0.671619 0.878691
0.301847 0.646142 0.868549
0.426319 0.619207 0.854166
0.756965 0.617692 0.797376
0.917725 0.602585 0.714160
0.963077 0.554779 0.605754
0.236999 0.880323 0.914744
0.286361 0.869364 0.905586
0.334894 0.850174 0.890498
0.362654 0.822469 0.872168
0.453951 0.808736 0.870254
0.767709 0.792100 0.820315
0.918145 0.768893 0.722741
0.962123 0.730766 0.612279
0.249987 0.941187 0.879164
0.304622 0.924451 0.868874
0.346172 0.908797 0.859816
0.363917 0.915545 0.861469
0.449955 0.914908 0.854482
0.742612 0.915735 0.792699
0.919336 0.894811 0.694389
0.963400 0.858822 0.582046
0.238171 0.962517 0.855854
0.280017 0.946411 0.848413
0.299483 0.955442 0.846536
0.332645 0.958019 0.836661
0.408851 0.957170 0.797840
0.690633 0.964339 0.726384
0.895425 0.963011 0.630214
0.963461 0.953746 0.513153
0.004417 0.135322 0.838475
0.006240 0.081521 0.861942
0.038029 0.009200 0.863321
0.171891 0.014430 0.783900
0.247252 0.030318 0.753308
0.552662 0.005434 0.826106
0.949884 0.073867 0.899539
0.982094 0.218600 0.810378
0.005954 0.219734 0.875830
0.050578 0.213244 0.871829
0.052845 0.144850 0.889324
0.097202 0.059683 0.876056
0.233232 0.073575 0.778163
0.534595 0.054341 0.824592
0.913864 0.130802 0.873496
0.959745 0.255909 0.797734
0.015538 0.363206 0.919441
0.056335 0.362243 0.913224
0.099211 0.346367 0.911267
0.145197 0.294753 0.907287
0.187394 0.220368 0.889332
0.568916 0.229508 0.883665
0.883506 0.200692 0.858594
0.964743 0.266580 0.804833
0.204698 0.543398 0.934352
0.234624 0.539329 0.917106
0.249497 0.527194 0.903245
0.236715 0.489353 0.909049
0.244866 0.447172 0.889920
0.616017 0.448826 0.912452
0.906710 0.436826 0.905511
0.965031 0.383761 0.827778
0.275443 0.707627 0.923187
0.313832 0.700787 0.911279
0.342041 0.692944 0.901596
0.350330 0.676761 0.912269
0.365850 0.651455 0.907616
0.645957 0.642268 0.912891
0.912676 0.628218 0.917321
0.964493 0.592431 0.857996
0.274553 0.862749 0.939080
0.327118 0.850780 0.923413
0.368748 0.839013 0.908531
0.386949 0.834866 0.916164
0.411042 0.821154 0.915167
0.640406 0.805767 0.914645
0.911482 0.786747 0.918286
0.964705 0.749264 0.855447
0.254868 0.958477 0.958475
0.315029 0.935333 0.935331
0.358576 0.914345 0.914343
0.375312 0.918420 0.918419
0.398174 0.917424 0.917423
0.603853 0.917885 0.917978
0.880183 0.907193 0.914718
0.964111 0.867280 0.822398
0.230148 0.977009 0.924342
0.273960 0.956165 0.909234
0.293180 0.962402 0.912218
0.321164 0.963470 0.911645
0.354968 0.959933 0.908062
0.545020 0.960750 0.909666
0.816747 0.963823 0.867789
0.965003 0.960305 0.760129
0.008908 0.228457 0.898290
0.011721 0.184792 0.926851
0.016051 0.104939 0.951982
0.070198 0.024658 0.931540
0.226220 0.037396 0.805665
0.328202 0.047235 0.812340
0.827042 0.077426 0.993030
0.983631 0.247303 0.983632
0.008456 0.294949 0.938486
0.042794 0.283355 0.934745
0.059094 0.235932 0.952776
0.093809 0.162545 0.944168
0.159278 0.076258 0.897547
0.324705 0.083776 0.838550
0.793456 0.118294 0.964420
0.959804 0.290811 0.959805
0.095728 0.424085 0.977568
0.117415 0.420289 0.952979
0.117834 0.390213 0.953638
0.166343 0.357322 0.944719
0.216610 0.302477 0.924186
0.355988 0.268631 0.896557
0.798837 0.269710 0.964614
0.964385 0.301147 0.964386
0.258630 0.582688 0.945531
0.281015 0.579719 0.934127
0.277867 0.560374 0.947718
0.283820 0.533901 0.951198
0.284024 0.493742 0.935085
0.374434 0.459379 0.927527
0.820393 0.471880 0.963653
0.964503 0.453268 0.964502
0.306858 0.721541 0.943124
0.337489 0.719368 0.933185
0.345490 0.710383 0.947275
0.366154 0.696656 0.953626
0.384704 0.675794 0.949022
0.423967 0.648988 0.938299
0.825865 0.651401 0.963019
0.964408 0.624377 0.964408
0.307215 0.847541 0.955283
0.346290 0.841557 0.941988
0.362019 0.840788 0.953197
0.389870 0.836807 0.957888
0.419795 0.825334 0.955622
0.458163 0.807434 0.947973
0.798792 0.797713 0.958642
0.964653 0.768793 0.964654
0.284590 0.920081 0.972067
0.328649 0.906670 0.953066
0.344458 0.911168 0.960884
0.370542 0.912161 0.963606
0.400858 0.910049 0.961654
0.436523 0.905885 0.956351
0.749583 0.908912 0.959373
0.964951 0.880806 0.964987
0.221968 0.985444 0.985442
0.268736 0.960714 0.960712
0.283938 0.964644 0.964643
0.307483 0.964648 0.964646
0.336456 0.961490 0.961489
0.367928 0.956272 0.956272
0.674677 0.964093 0.964092
0.944381 0.965005 0.964597
