ecomm/src/main/assets/lut/Landscape - converted with Color.cube
TITLE "Landscape - converted with Color.io - Created with Color.io"
LUT_3D_SIZE 5
DOMAIN_MIN 0.000000 0.000000 0.000000
DOMAIN_MAX 0.903226 0.903226 0.903226
0.000035 0.000035 0.032774
0.211825 0.000012 0.000012
0.416135 0.000108 0.000108
0.929303 0.098110 0.017598
0.989376 0.167907 0.071201
0.000689 0.098482 0.000689
0.165975 0.096364 0.006374
0.393755 0.096831 0.004724
0.885226 0.121765 0.011878
0.996083 0.182147 0.053958
0.000489 0.371306 0.000489
0.207490 0.383503 0.000690
0.552734 0.403347 0.015825
0.930798 0.363492 0.027103
0.984058 0.236221 0.055905
0.258289 0.882045 0.177214
0.398531 0.859728 0.165137
0.668913 0.799869 0.164833
0.946154 0.812183 0.136515
0.980470 0.689736 0.202633
0.355601 0.938567 0.275591
0.425635 0.950464 0.254118
0.651325 0.952917 0.220488
0.877809 0.973075 0.173285
0.989609 0.955302 0.178106
0.000248 0.000248 0.291222
0.165299 0.000596 0.162542
0.355745 0.004835 0.097273
0.862910 0.009658 0.075930
0.987262 0.150663 0.097975
0.006535 0.098041 0.176706
0.081662 0.081413 0.088133
0.339783 0.081697 0.081699
0.843306 0.086938 0.081517
0.964017 0.202236 0.119008
0.000371 0.406251 0.214789
0.114655 0.394252 0.144044
0.517194 0.420386 0.083365
0.899461 0.410062 0.106495
0.951724 0.271430 0.135519
0.240562 0.884077 0.260617
0.341122 0.837350 0.243414
0.647273 0.813652 0.230360
0.908556 0.797506 0.232794
0.964121 0.707336 0.247438
0.327681 0.954136 0.267673
0.357302 0.952501 0.267900
0.617211 0.950317 0.256359
0.865948 0.958454 0.232863
0.965406 0.937358 0.225581
0.000153 0.000153 0.491369
0.096601 0.004795 0.440938
0.301671 0.006187 0.300960
0.783875 0.016322 0.301686
0.969210 0.153992 0.190393
0.003659 0.150379 0.541007
0.080443 0.112465 0.448189
0.296389 0.083645 0.319437
0.776420 0.085873 0.282112
0.943533 0.214336 0.208496
0.094298 0.498100 0.658516
0.103677 0.476739 0.606904
0.434664 0.458367 0.482854
0.864400 0.461476 0.357859
0.931562 0.356039 0.229068
0.223598 0.859010 0.705253
0.297988 0.836096 0.664255
0.536586 0.821717 0.563150
0.884506 0.801340 0.394341
0.959456 0.736964 0.293916
0.288865 0.948642 0.594134
0.318500 0.951612 0.565411
0.509000 0.963123 0.475268
0.839908 0.957677 0.309551
0.960921 0.944313 0.256739
0.003984 0.078650 0.797516
0.079311 0.005569 0.780337
0.215672 0.021699 0.658589
0.720012 0.006261 0.681173
0.980301 0.204124 0.611770
0.014747 0.288689 0.863243
0.088042 0.266534 0.874488
0.131378 0.099101 0.777222
0.696858 0.097505 0.681635
0.962472 0.239902 0.611782
0.223866 0.606173 0.905887
0.274624 0.590593 0.885751
0.252168 0.531753 0.875834
0.787138 0.521117 0.812552
0.964259 0.453142 0.654306
0.242845 0.915588 0.926585
0.341697 0.886569 0.901369
0.378998 0.858900 0.884963
0.802211 0.827580 0.854767
0.962686 0.770179 0.671176
0.234779 0.966845 0.873422
0.291536 0.956203 0.865191
0.347583 0.958068 0.858776
0.722238 0.964282 0.764214
0.964175 0.955029 0.579598
0.008908 0.228457 0.898290
0.014596 0.127921 0.944703
0.147213 0.030933 0.870030
0.444346 0.025057 0.869803
0.983631 0.247303 0.983632
0.028622 0.381934 0.982430
0.093078 0.362114 0.954512
0.177436 0.283659 0.935911
0.470245 0.217123 0.924985
0.963666 0.296287 0.963668
0.293108 0.654696 0.940872
0.319096 0.641379 0.942962
0.340489 0.605305 0.950342
0.519073 0.559939 0.947002
0.964405 0.541556 0.964405
0.304145 0.867833 0.959610
0.356268 0.862814 0.953200
0.404729 0.860327 0.959070
0.516275 0.839502 0.950804
0.964744 0.799248 0.964745
0.221968 0.985444 0.985442
0.278814 0.964051 0.964049
0.321383 0.963396 0.963395
0.398713 0.956549 0.956549
0.944381 0.965005 0.964597
