ecomm/src/main/assets/lut/Landscape - converted with Color.cube
TITLE "Landscape - converted with Color.io - Created with Color.io"
LUT_3D_SIZE 32
DOMAIN_MIN 0.0 0.0 0.0
DOMAIN_MAX 1.0 1.0 1.0
0.000035 0.000035 0.032774
0.022772 0.000479 0.008550
0.066041 0.000001 0.000441
0.111822 0.000010 0.000010
0.148305 0.000016 0.000016
0.175062 0.000009 0.000009
0.194792 0.000002 0.000002
0.211825 0.000012 0.000012
0.228527 0.000049 0.000049
0.244281 0.000122 0.000122
0.258665 0.000240 0.000240
0.280760 0.000334 0.000334
0.316585 0.000326 0.000326
0.362453 0.000236 0.000236
0.416135 0.000108 0.000108
0.480153 0.000035 0.000035
0.558422 0.000269 0.000269
0.642479 0.001187 0.001187
0.725075 0.003049 0.003049
0.798419 0.021864 0.011317
0.871857 0.059520 0.014635
0.929303 0.098110 0.017598
0.966720 0.122545 0.021232
0.979101 0.132355 0.027564
0.981805 0.139644 0.036588
0.983882 0.147076 0.045759
0.985842 0.154256 0.054575
0.987676 0.161197 0.063050
0.989376 0.167907 0.071201
0.990936 0.174397 0.079040
0.992353 0.180670 0.086577
0.993621 0.186734 0.093824
0.002544 0.014199 0.012897
0.011901 0.011341 0.000479
0.054338 0.012032 0.000417
0.108847 0.012127 0.000332
0.147899 0.012057 0.000265
0.174962 0.012013 0.000203
0.194838 0.011989 0.000151
0.212005 0.011994 0.000128
0.228423 0.012034 0.000141
0.243380 0.012116 0.000198
0.258442 0.012238 0.000300
0.279759 0.012340 0.000396
0.315571 0.012320 0.000391
0.361396 0.012207 0.000304
0.412788 0.012069 0.000190
0.476448 0.011970 0.000107
0.556705 0.012203 0.000325
0.639624 0.013113 0.001171
0.719710 0.014942 0.002877
0.794493 0.030598 0.010355
0.867916 0.061882 0.013259
0.926145 0.099207 0.016101
0.964584 0.125107 0.019608
0.979842 0.133383 0.023480
0.983470 0.140196 0.032049
0.985540 0.147843 0.041672
0.987481 0.155216 0.050912
0.989285 0.162329 0.059787
0.990943 0.169190 0.068312
0.992448 0.175811 0.076502
0.993799 0.182197 0.084369
0.994992 0.188356 0.091922
0.000070 0.026243 0.000655
0.011847 0.024065 0.000120
0.033941 0.024776 0.000776
0.098532 0.025272 0.001347
0.138908 0.025004 0.001043
0.171726 0.024832 0.000826
0.192935 0.024728 0.000647
0.211643 0.024684 0.000532
0.227375 0.024696 0.000475
0.243601 0.024755 0.000477
0.259156 0.024865 0.000537
0.280492 0.024957 0.000609
0.315760 0.024924 0.000603
0.360733 0.024797 0.000522
0.411486 0.024639 0.000410
0.472733 0.024520 0.000320
0.552390 0.024730 0.000503
0.637099 0.025682 0.001325
0.716156 0.027510 0.002912
0.788841 0.038776 0.008840
0.861127 0.063580 0.011469
0.920808 0.100854 0.014559
0.961734 0.126398 0.017883
0.980596 0.131994 0.019054
0.985240 0.138313 0.027112
0.987287 0.146242 0.037250
0.989191 0.153869 0.046975
0.990944 0.161207 0.056304
0.992538 0.168268 0.065256
0.993967 0.175063 0.073844
0.995230 0.181600 0.082083
0.996325 0.187885 0.089982
0.000096 0.045245 0.000096
0.012111 0.045373 0.000172
0.025828 0.036875 0.000218
0.071776 0.038693 0.002308
0.122717 0.038712 0.002287
0.157078 0.038416 0.001865
0.186153 0.038205 0.001533
0.209503 0.038077 0.001282
0.227260 0.038029 0.001104
0.242823 0.038054 0.001011
0.259231 0.038134 0.000999
0.279285 0.038224 0.001035
0.313707 0.038183 0.001018
0.359334 0.038026 0.000928
0.409419 0.037848 0.000813
0.469876 0.037699 0.000707
0.546440 0.037852 0.000825
0.629729 0.038741 0.001529
0.710390 0.040617 0.003042
0.785005 0.047806 0.008072
0.855927 0.064578 0.010416
0.915652 0.099544 0.013112
0.958707 0.127313 0.016326
0.980492 0.132224 0.015407
0.986644 0.137650 0.022448
0.988779 0.145745 0.033002
0.990644 0.153594 0.043224
0.992342 0.161127 0.053021
0.993869 0.168356 0.062409
0.995216 0.175294 0.071405
0.996386 0.181947 0.080022
0.997377 0.188326 0.088271
0.000160 0.064049 0.000160
0.012189 0.064162 0.000219
0.024921 0.053709 0.000343
0.048166 0.050736 0.001516
0.102375 0.052627 0.003489
0.143194 0.052552 0.003226
0.174745 0.052307 0.002756
0.202798 0.052119 0.002368
0.225039 0.052006 0.002054
0.242819 0.051977 0.001832
0.258739 0.052029 0.001716
0.279372 0.052095 0.001680
0.311858 0.052061 0.001645
0.356266 0.051898 0.001551
0.406520 0.051692 0.001423
0.465903 0.051516 0.001301
0.541253 0.051621 0.001364
0.623010 0.052436 0.001943
0.702330 0.054216 0.003257
0.778595 0.057476 0.006624
0.850568 0.069001 0.009142
0.911644 0.103739 0.012423
0.956982 0.131555 0.015415
0.978645 0.136964 0.014360
0.986987 0.140888 0.018950
0.989873 0.148556 0.029227
0.991707 0.156531 0.039925
0.993361 0.164164 0.050165
0.994826 0.171470 0.059969
0.996101 0.178461 0.069351
0.997184 0.185147 0.078326
0.998077 0.191538 0.086906
0.000272 0.078410 0.000272
0.012318 0.076913 0.000308
0.024881 0.066852 0.000396
0.039562 0.062992 0.000515
0.082719 0.065864 0.003733
0.127447 0.066831 0.004526
0.160391 0.066796 0.004138
0.190425 0.066664 0.003683
0.215581 0.066548 0.003259
0.238761 0.066490 0.002936
0.258266 0.066504 0.002706
0.278577 0.066560 0.002580
0.309667 0.066539 0.002508
0.351155 0.066400 0.002414
0.401602 0.066172 0.002273
0.461191 0.065959 0.002123
0.535414 0.066011 0.002126
0.615338 0.066732 0.002570
0.693400 0.068392 0.003673
0.770458 0.072109 0.006724
0.843154 0.082304 0.009287
0.904238 0.111021 0.011687
0.952056 0.135254 0.014296
0.976853 0.140203 0.013446
0.987529 0.143019 0.015495
0.990813 0.150511 0.025445
0.992605 0.158622 0.036656
0.994198 0.166363 0.047376
0.995589 0.173750 0.057626
0.996773 0.180796 0.067422
0.997753 0.187512 0.076778
0.998534 0.193911 0.085709
0.000451 0.088709 0.000451
0.012514 0.087279 0.000462
0.025102 0.079465 0.000535
0.038243 0.075858 0.000549
0.060038 0.077489 0.001847
0.108699 0.080593 0.005002
0.148020 0.081378 0.005453
0.178918 0.081498 0.005109
0.204548 0.081487 0.004630
0.228917 0.081486 0.004232
0.252363 0.081516 0.003934
0.277243 0.081560 0.003738
0.308962 0.081551 0.003619
0.349011 0.081440 0.003510
0.396815 0.081238 0.003368
0.454260 0.081013 0.003202
0.527290 0.080998 0.003137
0.605951 0.081596 0.003429
0.682250 0.083078 0.004281
0.760955 0.085621 0.006709
0.835441 0.093567 0.010098
0.895656 0.115797 0.011527
0.945371 0.139179 0.013350
0.973468 0.146364 0.012793
0.987420 0.147936 0.012469
0.991381 0.154998 0.022115
0.993136 0.163155 0.033819
0.994675 0.170917 0.045001
0.995993 0.178300 0.055680
0.997090 0.185319 0.065871
0.997973 0.191987 0.075590
0.998645 0.198316 0.084850
0.000689 0.098482 0.000689
0.012770 0.097395 0.000679
0.025384 0.092063 0.000737
0.038356 0.088877 0.000724
0.053050 0.089993 0.000987
0.084358 0.092981 0.003517
0.128075 0.095441 0.005856
0.165975 0.096364 0.006374
0.193969 0.096641 0.006055
0.219533 0.096800 0.005666
0.246393 0.096929 0.005364
0.276157 0.097017 0.005153
0.310460 0.097039 0.005005
0.349343 0.096977 0.004872
0.393755 0.096831 0.004724
0.448426 0.096622 0.004548
0.517675 0.096549 0.004421
0.593903 0.097009 0.004558
0.671356 0.098388 0.005223
0.751714 0.101073 0.007439
0.825783 0.108093 0.012260
0.885226 0.121765 0.011878
0.936873 0.142559 0.012637
0.969075 0.151940 0.012345
0.986202 0.152752 0.010302
0.991633 0.158833 0.018972
0.993383 0.167002 0.031156
0.994852 0.174778 0.042826
0.996083 0.182147 0.053958
0.997080 0.189127 0.064565
0.997850 0.195731 0.074662
0.998404 0.201976 0.084265
0.000965 0.109693 0.000965
0.013070 0.108985 0.000950
0.025696 0.106420 0.000988
0.038741 0.103322 0.001008
0.052262 0.104295 0.001088
0.071597 0.105657 0.002036
0.113122 0.109068 0.005629
0.156138 0.111139 0.007455
0.188357 0.111919 0.007583
0.217420 0.112345 0.007347
0.246581 0.112639 0.007080
0.278428 0.112836 0.006862
0.316474 0.112925 0.006718
0.355259 0.112930 0.006548
0.397064 0.112858 0.006371
0.446651 0.112721 0.006185
0.510410 0.112651 0.006024
0.584450 0.113022 0.006045
0.661080 0.114272 0.006511
0.741814 0.117098 0.008219
0.814559 0.124477 0.014648
0.875319 0.132129 0.013675
0.929513 0.149180 0.012630
0.964628 0.159108 0.012350
0.982832 0.160031 0.010362
0.990920 0.164270 0.016832
0.993240 0.171982 0.028908
0.994637 0.179710 0.041061
0.995780 0.187003 0.052636
0.996675 0.193882 0.063648
0.997331 0.200364 0.074113
0.997765 0.206466 0.084044
0.001199 0.128858 0.001199
0.013319 0.128392 0.001190
0.025950 0.129222 0.001231
0.039116 0.125883 0.001349
0.053189 0.126683 0.001450
0.071983 0.125617 0.001813
0.113024 0.127154 0.005547
0.153912 0.129416 0.007898
0.187996 0.130878 0.008519
0.217729 0.131273 0.008577
0.250991 0.131045 0.008679
0.286102 0.130174 0.008761
0.325807 0.129464 0.008766
0.368383 0.129277 0.008632
0.408909 0.129276 0.008399
0.456256 0.129246 0.008183
0.512775 0.129261 0.007991
0.578707 0.129592 0.007914
0.652348 0.130703 0.008184
0.731434 0.133233 0.009187
0.806239 0.137079 0.013533
0.866625 0.140353 0.014039
0.921423 0.156697 0.013109
0.959844 0.168301 0.012798
0.979265 0.169474 0.010859
0.989831 0.171981 0.015249
0.992672 0.179187 0.027230
0.994002 0.186764 0.039832
0.995061 0.193885 0.051818
0.995860 0.200570 0.063202
0.996411 0.206841 0.074000
0.996734 0.212717 0.084226
0.001317 0.158940 0.001317
0.013437 0.158531 0.001324
0.026083 0.160261 0.001396
0.039308 0.159484 0.001597
0.054268 0.159612 0.001800
0.077657 0.159693 0.001678
0.113828 0.158953 0.002899
0.153355 0.158812 0.005770
0.188886 0.162148 0.006760
0.221841 0.162479 0.007584
0.256168 0.161677 0.008258
0.296448 0.159434 0.009093
0.337931 0.155638 0.009825
0.381372 0.153879 0.010033
0.428193 0.153180 0.010010
0.476731 0.151379 0.010058
0.531544 0.149568 0.010135
0.587829 0.147966 0.010208
0.650941 0.147972 0.010373
0.723547 0.150047 0.011013
0.797751 0.151574 0.013045
0.859204 0.150839 0.014036
0.913203 0.164978 0.014160
0.954585 0.177565 0.013697
0.975294 0.178745 0.011801
0.988289 0.179555 0.014121
0.991640 0.186233 0.026005
0.992895 0.193621 0.039055
0.993864 0.200530 0.051448
0.994561 0.206981 0.063198
0.995005 0.213002 0.074319
0.995218 0.218615 0.084829
0.001357 0.194715 0.001357
0.013459 0.194769 0.001376
0.026115 0.196229 0.001484
0.039344 0.197542 0.001721
0.053796 0.199082 0.002056
0.079376 0.200066 0.001862
0.115554 0.200467 0.001842
0.154491 0.201724 0.002908
0.191840 0.203741 0.004190
0.229627 0.207046 0.005084
0.266529 0.206916 0.006054
0.309046 0.206718 0.007000
0.357669 0.206461 0.007858
0.402891 0.204035 0.008548
0.451783 0.203385 0.008869
0.505053 0.200613 0.009428
0.561679 0.195056 0.010302
0.617382 0.189526 0.011111
0.670986 0.184454 0.011822
0.730000 0.182490 0.013784
0.791971 0.182114 0.018509
0.852874 0.172398 0.016136
0.905828 0.177000 0.015753
0.949405 0.188304 0.015127
0.971062 0.189096 0.013233
0.986277 0.188162 0.013617
0.990114 0.194265 0.025391
0.991295 0.201388 0.038859
0.992176 0.208010 0.051628
0.992777 0.214160 0.063710
0.993121 0.219866 0.075123
0.993234 0.225154 0.085880
0.001212 0.242772 0.001212
0.013289 0.242307 0.001256
0.025934 0.243527 0.001400
0.039119 0.247968 0.001651
0.053009 0.250929 0.002093
0.073849 0.253190 0.002346
0.116873 0.255536 0.001610
0.162030 0.255963 0.001656
0.203307 0.259029 0.002247
0.246892 0.263243 0.003018
0.289059 0.265846 0.003768
0.334054 0.267301 0.004581
0.383910 0.268827 0.005380
0.435722 0.270534 0.006026
0.485657 0.272050 0.006477
0.540635 0.271800 0.007263
0.599025 0.271079 0.008726
0.654432 0.266959 0.011363
0.705276 0.261318 0.015133
0.755332 0.255840 0.022805
0.809024 0.244187 0.025689
0.861530 0.222133 0.021156
0.906106 0.204221 0.017522
0.945760 0.203869 0.016969
0.966790 0.201302 0.015149
0.983640 0.198622 0.014018
0.988079 0.203987 0.025511
0.989203 0.210737 0.039332
0.990009 0.216978 0.052422
0.990527 0.222736 0.064782
0.990788 0.228044 0.076431
0.990820 0.232935 0.087387
0.000876 0.303857 0.000876
0.012941 0.300922 0.000968
0.025538 0.303077 0.001126
0.038715 0.307064 0.001423
0.054194 0.312977 0.001820
0.078977 0.312542 0.002095
0.126919 0.316522 0.001379
0.179057 0.318111 0.001115
0.226071 0.321579 0.001422
0.272483 0.324927 0.001968
0.318545 0.327173 0.002627
0.364821 0.330887 0.003156
0.417712 0.333867 0.003949
0.468749 0.336431 0.004660
0.521864 0.339736 0.006273
0.573920 0.341445 0.009261
0.631343 0.342139 0.015325
0.684258 0.342836 0.022963
0.730595 0.339481 0.032581
0.780355 0.333043 0.039401
0.846982 0.316365 0.031926
0.894615 0.292723 0.023549
0.928327 0.267174 0.019916
0.956476 0.245537 0.018946
0.969741 0.225385 0.017200
0.981182 0.212983 0.016473
0.985439 0.214382 0.026483
0.986563 0.220513 0.040473
0.987300 0.226309 0.053836
0.987749 0.231618 0.066427
0.987940 0.236476 0.078266
0.987908 0.240921 0.089375
0.000489 0.371306 0.000489
0.012488 0.369384 0.000575
0.025057 0.370815 0.000760
0.039269 0.373052 0.001075
0.061935 0.377936 0.001313
0.102449 0.377838 0.001126
0.151617 0.379053 0.000791
0.207490 0.383503 0.000690
0.257120 0.387679 0.000962
0.304696 0.390657 0.001421
0.351155 0.392670 0.002308
0.399597 0.394319 0.004022
0.450391 0.397880 0.007268
0.501770 0.399913 0.011138
0.552734 0.403347 0.015825
0.604106 0.405712 0.024530
0.654482 0.405939 0.036660
0.702660 0.406888 0.053262
0.753045 0.404743 0.059168
0.813607 0.396773 0.052661
0.882022 0.379964 0.037298
0.930798 0.363492 0.027103
0.955645 0.346100 0.029164
0.971648 0.324576 0.035872
0.978980 0.290054 0.033569
0.981913 0.253806 0.029202
0.983116 0.236305 0.032568
0.983400 0.231303 0.042479
0.984058 0.236221 0.055905
0.984454 0.241019 0.068665
0.984597 0.245374 0.080635
0.984524 0.249326 0.091841
0.005032 0.443932 0.002597
0.014956 0.443859 0.002590
0.026191 0.444392 0.001780
0.053337 0.446267 0.002990
0.088785 0.446313 0.002999
0.138204 0.448281 0.002920
0.187481 0.447682 0.003719
0.242587 0.452648 0.006055
0.292461 0.456593 0.009205
0.338269 0.458910 0.011236
0.385626 0.461718 0.014355
0.434215 0.464590 0.019604
0.484481 0.464232 0.026679
0.533657 0.466654 0.037385
0.580703 0.466967 0.047802
0.627464 0.468611 0.061596
0.671724 0.469033 0.079236
0.724908 0.468720 0.083949
0.786545 0.466381 0.077342
0.856528 0.460541 0.058403
0.917407 0.451331 0.042876
0.949331 0.439948 0.043651
0.964489 0.428079 0.054334
0.971984 0.414168 0.068885
0.977189 0.384873 0.071595
0.981301 0.339612 0.063051
0.982774 0.300862 0.057036
0.981950 0.267963 0.055952
0.981584 0.258367 0.063422
0.980735 0.251582 0.072104
0.980739 0.254378 0.083553
0.980578 0.257370 0.094832
0.034903 0.520531 0.021683
0.041166 0.520315 0.021562
0.047506 0.518612 0.018888
0.091892 0.520790 0.020741
0.135220 0.519630 0.021837
0.180320 0.520003 0.022285
0.227174 0.520880 0.024233
0.279234 0.523673 0.030086
0.327217 0.527242 0.037538
0.371318 0.528250 0.043082
0.417301 0.530555 0.049898
0.466390 0.532840 0.059396
0.515854 0.533630 0.071868
0.561231 0.532152 0.085258
0.602911 0.532065 0.101518
0.641045 0.529650 0.115581
0.692038 0.530534 0.117121
0.755882 0.532493 0.106501
0.830708 0.533713 0.082202
0.897363 0.531593 0.061327
0.936083 0.526439 0.059763
0.953534 0.519182 0.069818
0.959747 0.510179 0.087577
0.964911 0.497155 0.102857
0.971459 0.473920 0.107051
0.978011 0.435731 0.102096
0.982411 0.397271 0.094949
0.983534 0.355220 0.089636
0.982764 0.319207 0.085831
0.979245 0.282035 0.083378
0.977557 0.270772 0.089341
0.976253 0.265954 0.098245
0.094590 0.590558 0.064375
0.099062 0.589585 0.064051
0.102159 0.585429 0.060559
0.140744 0.587299 0.062153
0.180595 0.586475 0.064055
0.220509 0.587406 0.065851
0.263240 0.588566 0.068333
0.314213 0.591834 0.075921
0.358968 0.592587 0.082541
0.401779 0.592310 0.088516
0.445511 0.592754 0.097176
0.490297 0.592065 0.108343
0.536784 0.589051 0.123493
0.575546 0.585662 0.139196
0.609308 0.581433 0.154304
0.653896 0.583145 0.154120
0.712866 0.588015 0.139073
0.791180 0.595332 0.109991
0.870435 0.602123 0.082615
0.918983 0.601123 0.071442
0.940853 0.594708 0.079182
0.948236 0.586140 0.096009
0.953957 0.576269 0.111834
0.959574 0.564456 0.126081
0.966210 0.545292 0.132897
0.973344 0.515334 0.132628
0.979538 0.482569 0.128432
0.983645 0.447960 0.124347
0.985218 0.406959 0.117912
0.982685 0.354071 0.109055
0.978708 0.316038 0.105126
0.974651 0.291269 0.106804
0.152274 0.650978 0.109497
0.156114 0.649345 0.108986
0.161063 0.646283 0.107212
0.186981 0.646653 0.108774
0.219282 0.645546 0.109146
0.255326 0.645853 0.111069
0.295405 0.647544 0.116736
0.343407 0.648908 0.123984
0.386810 0.648598 0.131449
0.427014 0.645253 0.136916
0.466445 0.640863 0.144518
0.505632 0.635643 0.156333
0.543201 0.628540 0.170586
0.575944 0.620841 0.184753
0.613242 0.622244 0.184632
0.666374 0.631479 0.170351
0.742662 0.646619 0.139033
0.819471 0.658854 0.109179
0.892137 0.667743 0.086562
0.927975 0.665257 0.084279
0.938432 0.654946 0.097662
0.944505 0.645983 0.114095
0.950519 0.634383 0.129357
0.956707 0.621307 0.141273
0.963018 0.604071 0.150127
0.969575 0.579384 0.154651
0.975901 0.553702 0.154284
0.981306 0.523624 0.151558
0.985080 0.488986 0.147754
0.986278 0.442548 0.139822
0.984257 0.397642 0.132965
0.979579 0.354818 0.128178
0.193128 0.717259 0.139185
0.195960 0.712371 0.138813
0.201395 0.709811 0.138163
0.220611 0.706111 0.139686
0.250404 0.707212 0.139861
0.283824 0.705076 0.142026
0.321270 0.705038 0.147466
0.365940 0.706606 0.153828
0.407702 0.703766 0.160794
0.445706 0.697065 0.168217
0.482278 0.688554 0.175613
0.518017 0.679408 0.184984
0.551700 0.669056 0.195236
0.581410 0.661173 0.203438
0.620985 0.665651 0.197061
0.684883 0.686039 0.169494
0.765667 0.709195 0.136647
0.848118 0.728590 0.105450
0.903479 0.733490 0.092651
0.929726 0.727465 0.097038
0.936739 0.715107 0.111200
0.943156 0.702853 0.126538
0.949287 0.692029 0.140576
0.955263 0.678979 0.153225
0.961325 0.661963 0.162958
0.967560 0.638550 0.168926
0.973345 0.617739 0.172284
0.978690 0.593504 0.173113
0.983184 0.564181 0.172726
0.986600 0.525089 0.167936
0.987977 0.489088 0.164132
0.986518 0.444784 0.158876
0.214538 0.827873 0.138560
0.208852 0.823524 0.132320
0.211083 0.819957 0.130544
0.225858 0.808682 0.131735
0.257113 0.810533 0.133244
0.293658 0.806063 0.136981
0.333999 0.799804 0.142624
0.380589 0.795765 0.149395
0.423791 0.789579 0.156326
0.463198 0.777314 0.163603
0.500451 0.765389 0.170757
0.537869 0.753870 0.177824
0.574409 0.740801 0.184494
0.606098 0.729313 0.188706
0.639131 0.724619 0.188131
0.699657 0.743178 0.165776
0.785990 0.774380 0.131117
0.867960 0.799611 0.101058
0.914121 0.801761 0.095606
0.930226 0.789137 0.105989
0.937243 0.773895 0.119844
0.943730 0.760933 0.134002
0.950092 0.747346 0.146148
0.955847 0.734163 0.158792
0.961373 0.718174 0.170036
0.966949 0.696834 0.178299
0.972318 0.676889 0.183236
0.976997 0.657002 0.188227
0.981255 0.633027 0.191594
0.985118 0.602025 0.191632
0.987962 0.572053 0.191316
0.989498 0.536067 0.188871
0.258289 0.882045 0.177214
0.252135 0.883488 0.169710
0.250369 0.884476 0.164188
0.252971 0.879810 0.156098
0.281433 0.878571 0.157275
0.316280 0.873646 0.158542
0.354874 0.867089 0.162609
0.398531 0.859728 0.165137
0.439449 0.853348 0.166846
0.479150 0.844794 0.169931
0.517777 0.837285 0.170432
0.557254 0.829977 0.167976
0.598971 0.822488 0.164555
0.635928 0.811522 0.163818
0.668913 0.799869 0.164833
0.715891 0.803256 0.155846
0.799415 0.833820 0.125428
0.883485 0.862777 0.097507
0.921927 0.862346 0.096554
0.932801 0.845986 0.109964
0.939676 0.829321 0.123276
0.946154 0.812183 0.136515
0.952052 0.797637 0.149946
0.957865 0.781075 0.160803
0.963060 0.765712 0.171837
0.967859 0.746565 0.182595
0.972483 0.728135 0.190355
0.976785 0.708976 0.196298
0.980470 0.689736 0.202633
0.984027 0.663412 0.206242
0.986977 0.637305 0.209238
0.989359 0.609876 0.210583
0.303882 0.895429 0.226097
0.300818 0.898944 0.220347
0.297784 0.902425 0.214430
0.297057 0.904571 0.206927
0.319487 0.902465 0.206140
0.347398 0.897527 0.202660
0.380875 0.892159 0.204040
0.418956 0.886633 0.204671
0.455586 0.881137 0.202316
0.491616 0.876638 0.200622
0.528512 0.872741 0.197722
0.566750 0.869220 0.191449
0.608183 0.866042 0.183227
0.648479 0.863225 0.174511
0.686799 0.858972 0.166614
0.728321 0.856305 0.156259
0.795684 0.874506 0.135770
0.876339 0.903698 0.109424
0.924262 0.913542 0.099336
0.936604 0.899356 0.110799
0.943207 0.879877 0.124049
0.949537 0.862708 0.135656
0.955244 0.845031 0.148399
0.960504 0.827267 0.160605
0.965331 0.808165 0.172428
0.969791 0.790590 0.182557
0.973674 0.774570 0.192860
0.977378 0.756555 0.200936
0.980519 0.738298 0.209782
0.983722 0.714200 0.214959
0.986360 0.693177 0.220390
0.988758 0.668151 0.223906
0.333156 0.908576 0.254934
0.329295 0.912599 0.249649
0.327524 0.916090 0.244500
0.326313 0.919542 0.239533
0.343834 0.919109 0.238601
0.368337 0.915590 0.234481
0.398015 0.910893 0.232633
0.431656 0.906300 0.231926
0.465374 0.902856 0.229750
0.498648 0.899409 0.225727
0.533015 0.897036 0.221227
0.569023 0.895356 0.215040
0.608705 0.893908 0.207586
0.648163 0.892686 0.198553
0.687219 0.892001 0.188017
0.728852 0.890919 0.175642
0.777776 0.893549 0.160974
0.843067 0.914367 0.141464
0.896887 0.932121 0.125604
0.930442 0.937359 0.117246
0.946198 0.927300 0.122093
0.953411 0.908748 0.133002
0.958789 0.889979 0.145270
0.963634 0.870371 0.157908
0.968131 0.851713 0.168928
0.972013 0.833109 0.181014
0.975463 0.815990 0.192317
0.978553 0.799279 0.202733
0.981283 0.782199 0.212713
0.983983 0.759577 0.220346
0.986337 0.741177 0.226891
0.988482 0.720849 0.232157
0.350932 0.916210 0.271815
0.346790 0.920531 0.266848
0.345253 0.924169 0.262095
0.343679 0.927838 0.257224
0.355884 0.928505 0.254488
0.379330 0.926492 0.251918
0.406519 0.923810 0.249817
0.438433 0.920373 0.248663
0.470184 0.918376 0.245677
0.502761 0.916866 0.240715
0.535609 0.916001 0.236221
0.569497 0.916149 0.230279
0.606947 0.916214 0.222479
0.645131 0.915735 0.213550
0.683504 0.915779 0.204487
0.724189 0.915800 0.193401
0.767161 0.914547 0.181423
0.814784 0.921174 0.168603
0.863050 0.936859 0.155336
0.898167 0.946201 0.144934
0.929935 0.950913 0.134831
0.954163 0.948575 0.131097
0.962458 0.931221 0.141069
0.967027 0.911096 0.152513
0.971197 0.891873 0.162970
0.974685 0.871304 0.175653
0.977582 0.853966 0.189120
0.980268 0.837883 0.200398
0.982638 0.822295 0.211006
0.984827 0.801435 0.221127
0.986790 0.783094 0.229847
0.988667 0.766882 0.235931
0.361565 0.919005 0.281424
0.357585 0.923438 0.276738
0.354915 0.927520 0.272099
0.354148 0.931133 0.267582
0.362067 0.932782 0.263953
0.385363 0.931177 0.261774
0.410723 0.929543 0.259371
0.440351 0.927437 0.257081
0.470360 0.926030 0.253724
0.502170 0.925173 0.249101
0.534796 0.924877 0.244379
0.568304 0.925432 0.238425
0.604558 0.926611 0.230545
0.641520 0.928146 0.222315
0.678682 0.930168 0.214223
0.717299 0.932834 0.205319
0.758730 0.935467 0.194924
0.799942 0.937997 0.185378
0.839484 0.944088 0.175756
0.870706 0.951241 0.166385
0.899096 0.956673 0.157102
0.928495 0.961272 0.148930
0.956045 0.963560 0.142139
0.969349 0.951206 0.146403
0.974123 0.930491 0.156782
0.977405 0.910257 0.167903
0.979969 0.893401 0.181576
0.982324 0.876925 0.193371
0.984263 0.860789 0.206021
0.985989 0.842751 0.218211
0.987672 0.825705 0.227625
0.989177 0.809833 0.236095
0.364017 0.923776 0.283950
0.360575 0.928136 0.279527
0.358963 0.932022 0.275217
0.356827 0.936037 0.270772
0.361945 0.938419 0.267035
0.383552 0.937375 0.264835
0.409440 0.935812 0.262649
0.438245 0.934140 0.260175
0.468175 0.932953 0.256726
0.498888 0.932513 0.251741
0.530627 0.932490 0.246808
0.563199 0.933063 0.241512
0.598841 0.934035 0.234898
0.634715 0.935865 0.227060
0.670433 0.938295 0.219371
0.707626 0.941161 0.210975
0.747120 0.944233 0.202116
0.787125 0.947590 0.193102
0.824920 0.951250 0.185118
0.853913 0.956117 0.177992
0.877647 0.961170 0.170993
0.902843 0.965814 0.163576
0.931243 0.969990 0.154985
0.959933 0.972857 0.146361
0.975816 0.962386 0.148303
0.979985 0.943378 0.160113
0.982244 0.927973 0.173945
0.984335 0.911006 0.185930
0.986011 0.895796 0.198831
0.987479 0.877592 0.211733
0.988922 0.861931 0.221402
0.990058 0.846993 0.232222
0.360551 0.931025 0.280445
0.358889 0.934927 0.276393
0.356075 0.939109 0.272138
0.353252 0.943252 0.267827
0.357812 0.945773 0.264253
0.377514 0.945286 0.262098
0.403562 0.943845 0.260210
0.433748 0.942038 0.258098
0.463655 0.940880 0.255218
0.493457 0.940367 0.251786
0.524192 0.940440 0.247319
0.556219 0.941155 0.241392
0.591660 0.941921 0.235205
0.626458 0.943474 0.228454
0.660512 0.945634 0.221927
0.696911 0.947986 0.214915
0.735954 0.950582 0.206460
0.774195 0.953634 0.197743
0.811647 0.956947 0.189380
0.844171 0.960744 0.182196
