ecomm/src/main/assets/lut/Long Beach Morning - converted with Color.cube
TITLE "Long Beach Morning - converted with Color.io - Created with Color.io"
LUT_3D_SIZE 5
DOMAIN_MIN 0.000000 0.000000 0.000000
DOMAIN_MAX 0.903226 0.903226 0.903226
0.000000 0.000000 0.000000
0.203138 0.000000 0.000000
0.429459 0.000000 0.000000
0.726566 0.000000 0.000000
1.000000 0.000000 0.000000
0.000000 0.201880 0.000000
0.225533 0.212527 0.000000
0.485569 0.137873 0.000000
0.775910 0.053214 0.000000
1.000000 0.000151 0.000000
0.000000 0.424154 0.000000
0.133923 0.423913 0.000000
0.502744 0.458628 0.000000
0.974423 0.399346 0.000000
1.000000 0.291710 0.000000
0.000000 0.712965 0.000000
0.075061 0.728993 0.000000
0.420800 0.757238 0.000000
0.963387 0.827510 0.000000
1.000000 0.700468 0.000000
0.000000 1.000000 0.000000
0.010543 1.000000 0.000000
0.376390 1.000000 0.000000
0.796019 1.000000 0.000000
1.000000 0.999380 0.000000
0.000000 0.000000 0.201880
0.184980 0.000000 0.184974
0.423088 0.000000 0.129697
0.732460 0.000000 0.072341
1.000000 0.000000 0.008795
0.000000 0.184975 0.184975
0.096035 0.092865 0.089656
0.408209 0.046910 0.044944
0.782369 0.001349 0.002572
1.000000 0.000000 0.000000
0.000000 0.422826 0.129808
0.053037 0.393477 0.052094
0.451045 0.396406 0.000320
0.910397 0.314661 0.000000
1.000000 0.214933 0.000000
0.000000 0.729807 0.073650
0.005780 0.754360 0.005757
0.373541 0.763255 0.000000
0.846166 0.697624 0.000000
1.000000 0.573226 0.000000
0.000000 1.000000 0.010301
0.000000 1.000000 0.000000
0.283611 1.000000 0.000000
0.724523 1.000000 0.000000
1.000000 0.919956 0.000000
0.000000 0.000000 0.424154
0.129808 0.000000 0.422826
0.411563 0.000000 0.411563
0.756048 0.000000 0.395949
1.000000 0.000000 0.361889
0.000000 0.129808 0.422826
0.052288 0.052287 0.393455
0.389262 0.018152 0.389088
0.771577 0.000000 0.359096
1.000000 0.000000 0.274491
0.000000 0.411563 0.411563
0.018216 0.389139 0.389137
0.354339 0.346151 0.342001
0.836118 0.252979 0.251538
1.000000 0.154723 0.162428
0.000000 0.756037 0.395954
0.000000 0.769418 0.360097
0.273394 0.799674 0.271476
0.741144 0.631905 0.141837
1.000000 0.490169 0.001774
0.000000 1.000000 0.362114
0.000000 1.000000 0.278879
0.187954 1.000000 0.187723
0.620804 1.000000 0.063041
1.000000 0.869949 0.000000
0.000000 0.000000 0.712965
0.073589 0.000000 0.729772
0.395952 0.000000 0.756035
0.773217 0.000000 0.773217
1.000000 0.000000 0.725334
0.000000 0.073649 0.729807
0.005608 0.005707 0.754301
0.360096 0.000000 0.769434
0.706758 0.000000 0.706758
1.000000 0.000000 0.671520
0.000000 0.395901 0.756036
0.000000 0.360424 0.769032
0.271732 0.271888 0.800757
0.664482 0.225761 0.664107
1.000000 0.084247 0.587876
0.000000 0.773208 0.773269
0.000000 0.706345 0.706312
0.225657 0.664392 0.664354
0.575154 0.563332 0.561559
0.950342 0.444189 0.450868
0.000000 1.000000 0.725374
0.000000 1.000000 0.671852
0.086508 1.000000 0.589688
0.479252 0.901083 0.474286
0.936131 0.756955 0.283260
0.000000 0.000000 1.000000
0.010287 0.000000 1.000000
0.362111 0.000000 1.000000
0.725340 0.000000 1.000000
0.999313 0.000000 0.999312
0.000000 0.010293 1.000000
0.000000 0.000000 1.000000
0.278883 0.000000 1.000000
0.671554 0.000000 1.000000
0.982988 0.000000 0.982988
0.000000 0.362107 1.000000
0.000000 0.278865 1.000000
0.187818 0.187817 1.000000
0.589636 0.086512 1.000000
0.977696 0.000020 0.977695
0.000000 0.725334 1.000000
0.000000 0.671551 1.000000
0.086511 0.589636 1.000000
0.476192 0.476188 0.901301
0.836744 0.368446 0.836178
0.000000 0.999312 0.999312
0.000000 0.982985 0.982985
0.000020 0.977696 0.977696
0.368735 0.836409 0.836408
0.778031 0.757621 0.759234
