ecomm/src/main/assets/lut/Long Beach Morning - converted with Color.cube
TITLE "Long Beach Morning - converted with Color.io - Created with Color.io"
LUT_3D_SIZE 8
DOMAIN_MIN 0.000000 0.000000 0.000000
DOMAIN_MAX 0.903226 0.903226 0.903226
0.000000 0.000000 0.000000
0.115921 0.000000 0.000000
0.232799 0.000000 0.000000
0.359089 0.000000 0.000000
0.506046 0.000000 0.000000
0.679018 0.000000 0.000000
0.879942 0.000000 0.000000
1.000000 0.000000 0.000000
0.000000 0.115473 0.000000
0.124978 0.118838 0.000000
0.262430 0.086977 0.000000
0.377265 0.032510 0.000000
0.517843 0.002078 0.000000
0.695349 0.000000 0.000000
0.908940 0.000000 0.000000
1.000000 0.000000 0.000000
0.000000 0.231160 0.000000
0.079281 0.234818 0.000000
0.259014 0.243425 0.000000
0.429239 0.213043 0.000000
0.577170 0.156762 0.000000
0.746434 0.106936 0.000000
0.960167 0.060772 0.000000
1.000000 0.012800 0.000000
0.000000 0.355296 0.000000
0.032581 0.355516 0.000000
0.199160 0.359217 0.000000
0.409080 0.378182 0.000000
0.639396 0.356432 0.000000
0.864316 0.299819 0.000000
1.000000 0.242032 0.000000
1.000000 0.193432 0.000000
0.000000 0.498889 0.000000
0.003150 0.500867 0.000000
0.158986 0.501207 0.000000
0.351755 0.518669 0.000000
0.614911 0.551694 0.000000
0.932600 0.537377 0.000000
1.000000 0.473972 0.000000
1.000000 0.400906 0.000000
0.000000 0.666940 0.000000
0.000000 0.673861 0.000000
0.127968 0.681165 0.000000
0.317492 0.692437 0.000000
0.559833 0.733143 0.000000
0.893011 0.773099 0.000000
1.000000 0.736807 0.000000
1.000000 0.641299 0.000000
0.000000 0.861009 0.000000
0.000000 0.876425 0.000000
0.094275 0.894546 0.000000
0.293146 0.912107 0.000000
0.522395 0.933786 0.000000
0.809161 0.969036 0.000000
1.000000 0.952357 0.000000
1.000000 0.860038 0.000000
0.000000 1.000000 0.000000
0.000000 1.000000 0.000000
0.057167 1.000000 0.000000
0.264990 1.000000 0.000000
0.491666 1.000000 0.000000
0.732793 1.000000 0.000000
0.988108 1.000000 0.000000
1.000000 0.999380 0.000000
0.000000 0.000000 0.115473
0.105326 0.000000 0.105295
0.229739 0.000000 0.072809
0.356200 0.000000 0.031396
0.503535 0.000000 0.002965
0.679662 0.000000 0.000000
0.887433 0.000000 0.000000
1.000000 0.000000 0.000000
0.000000 0.105302 0.105302
0.042292 0.040560 0.037499
0.183334 0.010130 0.005749
0.333273 0.000244 0.000259
0.505016 0.000000 0.000000
0.704163 0.000000 0.000000
0.931366 0.000000 0.000000
1.000000 0.000000 0.000000
0.000000 0.229539 0.072873
0.010461 0.175067 0.007676
0.180982 0.166277 0.000066
0.364132 0.142688 0.000000
0.537307 0.100292 0.000000
0.740094 0.058802 0.000000
0.978287 0.012997 0.000000
1.000000 0.000000 0.000000
0.000000 0.355326 0.031722
0.000470 0.323928 0.000427
0.145983 0.320565 0.000000
0.371566 0.332052 0.000000
0.609832 0.303853 0.000000
0.834236 0.249981 0.000000
1.000000 0.200660 0.000000
1.000000 0.147340 0.000000
0.000000 0.500992 0.003075
0.000000 0.492524 0.000000
0.114201 0.493782 0.000000
0.323331 0.503608 0.000000
0.601971 0.521003 0.000000
0.920638 0.485197 0.000000
1.000000 0.412230 0.000000
1.000000 0.345298 0.000000
0.000000 0.673936 0.000000
0.000000 0.684592 0.000000
0.083747 0.694950 0.000000
0.290690 0.703618 0.000000
0.540860 0.719944 0.000000
0.862499 0.721324 0.000000
1.000000 0.647703 0.000000
1.000000 0.560614 0.000000
0.000000 0.876462 0.000000
0.000000 0.901327 0.000000
0.046810 0.922281 0.000000
0.259843 0.933860 0.000000
0.493964 0.923695 0.000000
0.751637 0.898010 0.000000
0.997034 0.835541 0.000000
1.000000 0.762249 0.000000
0.000000 1.000000 0.000000
0.000000 1.000000 0.000000
0.004902 1.000000 0.000000
0.210331 1.000000 0.000000
0.449838 1.000000 0.000000
0.687798 1.000000 0.000000
0.917579 0.998486 0.000000
1.000000 0.938536 0.000000
0.000000 0.000000 0.231160
0.072873 0.000000 0.229539
0.211774 0.000000 0.211770
0.347966 0.000000 0.183452
0.501635 0.000000 0.154429
0.683501 0.000000 0.124725
0.899788 0.000000 0.090503
1.000000 0.000000 0.051778
0.000000 0.072873 0.229539
0.008316 0.008266 0.173687
0.154819 0.000453 0.153943
0.317998 0.000000 0.135306
0.498259 0.000000 0.110047
0.703940 0.000000 0.078658
0.938620 0.000000 0.038722
1.000000 0.000000 0.002980
0.000000 0.211771 0.211771
0.000490 0.154235 0.154098
0.123270 0.119559 0.116281
0.308542 0.097472 0.091821
0.507411 0.065570 0.064681
0.728775 0.027517 0.029491
0.986398 0.000128 0.000540
1.000000 0.000000 0.000000
0.000000 0.347929 0.183467
0.000000 0.316402 0.135899
0.101903 0.295125 0.097342
0.317869 0.289672 0.057424
0.556910 0.260384 0.007001
0.787235 0.214544 0.000612
1.000000 0.154573 0.000000
1.000000 0.101265 0.000000
0.000000 0.501345 0.154561
0.000000 0.494275 0.111781
0.074956 0.489340 0.074312
0.286052 0.491533 0.044941
0.568504 0.489264 0.000000
0.861762 0.435205 0.000000
1.000000 0.362955 0.000000
1.000000 0.306543 0.000000
0.000000 0.682613 0.125275
0.000000 0.695529 0.082706
0.043836 0.702512 0.043708
0.252959 0.709815 0.019040
0.502971 0.698141 0.000890
0.784384 0.651272 0.000000
1.000000 0.572876 0.000000
1.000000 0.508524 0.000000
0.000000 0.895798 0.092437
0.000000 0.922625 0.046326
0.002520 0.964249 0.002504
0.200115 0.982130 0.000000
0.447477 0.946614 0.000000
0.688392 0.856990 0.000000
0.950099 0.766066 0.000000
1.000000 0.713470 0.000000
0.000000 1.000000 0.056069
0.000000 1.000000 0.004816
0.000000 1.000000 0.000000
0.145752 1.000000 0.000000
0.396390 1.000000 0.000000
0.654667 1.000000 0.000000
0.894608 0.997677 0.000000
1.000000 0.914672 0.000000
0.000000 0.000000 0.355296
0.031722 0.000000 0.355326
0.183467 0.000000 0.347929
0.334863 0.000000 0.334863
0.500937 0.000000 0.320174
0.694149 0.000000 0.303805
0.919099 0.000000 0.283107
1.000000 0.000000 0.256218
0.000000 0.031722 0.355326
0.000429 0.000429 0.323892
0.135911 0.000000 0.316394
0.310709 0.000000 0.310656
0.498237 0.000000 0.298661
0.708786 0.000000 0.280013
0.942214 0.000000 0.251882
1.000000 0.000000 0.202876
0.000000 0.183467 0.347929
0.000000 0.135906 0.316395
0.098814 0.098703 0.294214
0.285793 0.079436 0.284337
0.494171 0.053570 0.270862
0.719333 0.015564 0.245101
0.986542 0.000000 0.191248
1.000000 0.000000 0.135277
0.000000 0.334863 0.334863
0.000000 0.310670 0.310670
0.079896 0.284820 0.284669
0.266248 0.259908 0.256172
0.498150 0.234867 0.227455
0.759693 0.182134 0.180946
1.000000 0.109779 0.114802
1.000000 0.060303 0.067841
0.000000 0.500933 0.320176
0.000000 0.497973 0.298778
0.055216 0.491251 0.272218
0.246138 0.477772 0.239332
0.504809 0.456953 0.182917
0.793354 0.392590 0.099254
1.000000 0.332006 0.029833
1.000000 0.275974 0.006971
0.000000 0.694270 0.303810
0.000000 0.707597 0.280587
0.019959 0.712080 0.248546
0.200675 0.727916 0.199666
0.443693 0.697196 0.170780
0.712882 0.605567 0.082464
0.999250 0.532516 0.000000
1.000000 0.465146 0.000000
0.000000 0.918670 0.283300
0.000000 0.938449 0.253699
0.000000 0.983170 0.198172
0.133354 0.994915 0.133096
0.391756 0.979027 0.091688
0.647473 0.869684 0.039176
0.933245 0.748365 0.000000
1.000000 0.662197 0.000000
0.000000 1.000000 0.257141
0.000000 1.000000 0.206582
0.000000 1.000000 0.144955
0.090405 1.000000 0.090314
0.338316 1.000000 0.032386
0.594958 1.000000 0.000476
0.865362 0.998327 0.000000
1.000000 0.888039 0.000000
0.000000 0.000000 0.498889
0.003075 0.000000 0.500992
0.154561 0.000000 0.501345
0.320176 0.000000 0.500933
0.500877 0.000000 0.500877
0.707962 0.000000 0.499260
0.939185 0.000000 0.490359
1.000000 0.000000 0.468460
0.000000 0.003075 0.500992
0.000000 0.000000 0.492547
0.111781 0.000000 0.494276
0.298779 0.000000 0.497973
0.498448 0.000000 0.498445
0.714808 0.000000 0.490397
0.936458 0.000000 0.467877
1.000000 0.000000 0.431326
0.000000 0.154561 0.501345
0.000000 0.111780 0.494276
0.074410 0.074410 0.489452
0.272239 0.055171 0.491252
0.489464 0.033256 0.489362
0.704124 0.009625 0.468148
0.959971 0.000000 0.430050
1.000000 0.000000 0.383583
0.000000 0.320176 0.500933
0.000000 0.298778 0.497973
0.055175 0.272232 0.491255
0.242339 0.242154 0.478007
0.466553 0.225455 0.464134
0.707965 0.182538 0.424768
0.989133 0.087572 0.379754
1.000000 0.022852 0.325439
0.000000 0.500877 0.500877
0.000000 0.498445 0.498445
0.033298 0.489394 0.489394
0.226422 0.465010 0.464852
0.439787 0.429938 0.426090
0.703016 0.373704 0.367719
0.955990 0.315006 0.318004
1.000000 0.249165 0.256724
0.000000 0.707967 0.499258
0.000000 0.714777 0.490408
0.009741 0.703721 0.468325
0.185394 0.702967 0.427214
0.391625 0.673476 0.383785
0.645567 0.583300 0.304976
0.925590 0.504551 0.206487
1.000000 0.431925 0.158514
0.000000 0.939161 0.490335
0.000000 0.936392 0.467964
0.000000 0.957748 0.431037
0.094461 0.982137 0.384992
0.340640 0.912085 0.338600
0.583371 0.821218 0.263257
0.873204 0.720014 0.111982
1.000000 0.602774 0.018228
0.000000 1.000000 0.468459
0.000000 1.000000 0.431824
0.000000 1.000000 0.386260
0.034155 1.000000 0.335318
0.283544 1.000000 0.282983
0.514148 0.999742 0.218646
0.791788 0.974187 0.086894
1.000000 0.843757 0.000000
0.000000 0.000000 0.666940
0.000000 0.000000 0.673934
0.125146 0.000000 0.682557
0.303720 0.000000 0.694243
0.499258 0.000000 0.707967
0.716750 0.000000 0.716750
0.942989 0.000000 0.708582
1.000000 0.000000 0.676197
0.000000 0.000000 0.673936
0.000000 0.000000 0.684606
0.082487 0.000000 0.695496
0.280520 0.000000 0.707631
0.490388 0.000000 0.714798
0.703941 0.000000 0.703940
0.901461 0.000000 0.669807
1.000000 0.000000 0.639890
0.000000 0.125238 0.682596
0.000000 0.082687 0.695639
0.043332 0.043444 0.702491
0.248386 0.019896 0.712297
0.468452 0.009703 0.703934
0.661666 0.009892 0.661661
0.876444 0.000000 0.628470
1.000000 0.000000 0.614442
0.000000 0.303722 0.694258
0.000000 0.280649 0.707744
0.019827 0.248620 0.712143
0.198904 0.199319 0.728933
0.427449 0.185151 0.703328
0.629878 0.181423 0.629708
0.890305 0.075095 0.604145
1.000000 0.002607 0.565711
0.000000 0.499143 0.707993
0.000000 0.490546 0.715064
0.009696 0.468556 0.703909
0.184845 0.427255 0.703225
0.387550 0.387263 0.675484
0.604652 0.346906 0.601829
0.835294 0.281073 0.556139
0.999920 0.217642 0.495461
0.000000 0.716711 0.716844
0.000000 0.704150 0.704159
0.009982 0.661750 0.661725
0.181413 0.629734 0.629745
0.348084 0.602816 0.602692
0.553018 0.541747 0.539549
0.769341 0.477867 0.477815
0.986142 0.409824 0.416598
0.000000 0.943118 0.708716
0.000000 0.901555 0.669974
0.000000 0.875337 0.628140
0.074330 0.890871 0.604883
0.284837 0.828847 0.559101
0.502517 0.739990 0.491301
0.740783 0.662836 0.387545
0.981450 0.559634 0.305115
0.000000 1.000000 0.676274
0.000000 1.000000 0.639638
0.000000 1.000000 0.614961
0.003291 1.000000 0.567292
0.227048 0.999757 0.502650
0.444132 0.939707 0.440870
0.677518 0.877854 0.351295
0.969670 0.771272 0.211955
0.000000 0.000000 0.861009
0.000000 0.000000 0.876462
0.092437 0.000000 0.895798
0.283300 0.000000 0.918669
0.490335 0.000000 0.939162
0.708586 0.000000 0.942993
0.915946 0.000000 0.915946
1.000000 0.000000 0.862290
0.000000 0.000000 0.876462
0.000000 0.000000 0.901333
0.046326 0.000000 0.922626
0.253702 0.000000 0.938452
0.467994 0.000000 0.936410
0.669822 0.000000 0.901468
0.842238 0.000000 0.842238
0.999624 0.000000 0.811140
0.000000 0.092437 0.895798
0.000000 0.046326 0.922626
0.002503 0.002503 0.964277
0.198172 0.000000 0.983171
0.431037 0.000000 0.957748
0.628492 0.000000 0.876396
0.802295 0.000000 0.802294
0.999934 0.000000 0.802005
0.000000 0.283300 0.918669
0.000000 0.253699 0.938449
0.000000 0.198172 0.983171
0.133130 0.133130 0.994957
0.384996 0.094453 0.982140
0.604480 0.075517 0.889549
0.807902 0.037270 0.807895
1.000000 0.000000 0.780089
0.000000 0.490335 0.939161
0.000000 0.467964 0.936392
0.000000 0.431037 0.957748
0.094454 0.384995 0.982139
0.339410 0.339409 0.912475
0.559121 0.284815 0.828736
0.775868 0.212668 0.775670
0.986723 0.150796 0.715647
0.000000 0.708583 0.942989
0.000000 0.669808 0.901459
0.000000 0.628491 0.876396
0.075519 0.604480 0.889547
0.284825 0.559108 0.828740
0.496757 0.496469 0.741663
0.695807 0.431100 0.692697
0.892774 0.374218 0.634731
0.000000 0.915945 0.916105
0.000000 0.841989 0.841984
0.000000 0.801632 0.801665
0.036675 0.808236 0.808301
0.212631 0.775829 0.775832
0.432918 0.693794 0.693708
0.636989 0.621727 0.621673
0.852571 0.549128 0.555543
0.000000 1.000000 0.862346
0.000000 0.999582 0.810587
0.000000 0.999935 0.802260
0.000000 1.000000 0.780704
0.151296 0.986112 0.716129
0.379647 0.884687 0.638859
0.588695 0.816106 0.574791
0.847227 0.738349 0.486880
0.000000 0.000000 1.000000
0.000000 0.000000 1.000000
0.056036 0.000000 1.000000
0.257130 0.000000 1.000000
0.468462 0.000000 1.000000
0.676201 0.000000 1.000000
0.862303 0.000000 1.000000
0.999313 0.000000 0.999312
0.000000 0.000000 1.000000
0.000000 0.000000 1.000000
0.004808 0.000000 1.000000
0.206577 0.000000 1.000000
0.431844 0.000000 1.000000
0.639901 0.000000 1.000000
0.811129 0.000000 0.999623
0.975735 0.000000 0.975734
0.000000 0.056060 1.000000
0.000000 0.004819 1.000000
0.000000 0.000000 1.000000
0.144945 0.000000 1.000000
0.386277 0.000000 1.000000
0.614608 0.000000 1.000000
0.802006 0.000000 0.999934
0.986415 0.000000 0.986415
0.000000 0.257131 1.000000
0.000000 0.206653 1.000000
0.000000 0.144924 1.000000
0.090333 0.090351 1.000000
0.335331 0.034153 1.000000
0.567092 0.003390 1.000000
0.780117 0.000000 1.000000
0.990842 0.000000 0.990842
0.000000 0.468458 1.000000
0.000000 0.431851 1.000000
0.000000 0.386261 1.000000
0.034132 0.335319 1.000000
0.283241 0.283214 1.000000
0.502657 0.227003 0.999757
0.716085 0.151343 0.986094
0.944907 0.066571 0.944899
0.000000 0.676197 1.000000
0.000000 0.639901 1.000000
0.000000 0.614616 1.000000
0.003389 0.567092 1.000000
0.227004 0.502657 0.999757
0.442137 0.442136 0.939799
0.638935 0.379524 0.884697
0.855703 0.310415 0.855445
0.000000 0.862287 1.000000
0.000000 0.811141 0.999624
0.000000 0.802004 0.999931
0.000000 0.780116 1.000000
0.151343 0.716085 0.986094
0.379538 0.638920 0.884705
0.580725 0.580276 0.819615
0.796213 0.534160 0.791830
0.000000 0.999312 0.999312
0.000000 0.975736 0.975736
0.000000 0.986415 0.986416
0.000000 0.990842 0.990842
0.066573 0.944902 0.944902
0.310536 0.855546 0.855546
0.537296 0.793619 0.793622
0.778031 0.757621 0.759234
