ecomm/src/main/assets/lut/Long Beach Morning - converted with Color.cube
TITLE "Long Beach Morning - converted with Color.io - Created with Color.io"
LUT_3D_SIZE 32
DOMAIN_MIN 0.0 0.0 0.0
DOMAIN_MAX 1.0 1.0 1.0
0.000000 0.000000 0.000000
0.029075 0.000000 0.000000
0.058092 0.000000 0.000000
0.087030 0.000000 0.000000
0.115921 0.000000 0.000000
0.144835 0.000000 0.000000
0.173867 0.000000 0.000000
0.203138 0.000000 0.000000
0.232799 0.000000 0.000000
0.263026 0.000000 0.000000
0.294017 0.000000 0.000000
0.325973 0.000000 0.000000
0.359089 0.000000 0.000000
0.393538 0.000000 0.000000
0.429459 0.000000 0.000000
0.466946 0.000000 0.000000
0.506046 0.000000 0.000000
0.546777 0.000000 0.000000
0.589161 0.000000 0.000000
0.633229 0.000000 0.000000
0.679018 0.000000 0.000000
0.726566 0.000000 0.000000
0.775900 0.000000 0.000000
0.827034 0.000000 0.000000
0.879942 0.000000 0.000000
0.934493 0.000000 0.000000
0.990844 0.000000 0.000000
0.999962 0.000000 0.000000
1.000000 0.000000 0.000000
1.000000 0.000000 0.000000
1.000000 0.000000 0.000000
1.000000 0.000000 0.000000
0.000000 0.029007 0.000000
0.024720 0.024100 0.000000
0.058270 0.018385 0.000000
0.090719 0.011363 0.000000
0.121763 0.003542 0.000000
0.151466 0.000898 0.000000
0.180249 0.000534 0.000000
0.208690 0.000142 0.000000
0.237335 0.000005 0.000000
0.266608 0.000000 0.000000
0.296822 0.000000 0.000000
0.328210 0.000000 0.000000
0.360955 0.000000 0.000000
0.395208 0.000000 0.000000
0.431083 0.000000 0.000000
0.468653 0.000000 0.000000
0.507947 0.000000 0.000000
0.548976 0.000000 0.000000
0.591757 0.000000 0.000000
0.636316 0.000000 0.000000
0.682693 0.000000 0.000000
0.730924 0.000000 0.000000
0.781036 0.000000 0.000000
0.833043 0.000000 0.000000
0.886913 0.000000 0.000000
0.942504 0.000000 0.000000
0.992381 0.000000 0.000000
1.000000 0.000000 0.000000
1.000000 0.000000 0.000000
1.000000 0.000000 0.000000
1.000000 0.000000 0.000000
1.000000 0.000000 0.000000
0.000000 0.057935 0.000000
0.019016 0.056623 0.000000
0.056475 0.054385 0.000000
0.092498 0.050345 0.000000
0.126427 0.043977 0.000000
0.157989 0.035220 0.000000
0.187513 0.024522 0.000000
0.215774 0.012577 0.000000
0.243656 0.002536 0.000000
0.271923 0.001302 0.000000
0.301135 0.000462 0.000000
0.331663 0.000059 0.000000
0.363750 0.000000 0.000000
0.397559 0.000000 0.000000
0.433193 0.000000 0.000000
0.470700 0.000000 0.000000
0.510087 0.000000 0.000000
0.551347 0.000000 0.000000
0.594479 0.000000 0.000000
0.639505 0.000000 0.000000
0.686455 0.000000 0.000000
0.735362 0.000000 0.000000
0.786249 0.000000 0.000000
0.839125 0.000000 0.000000
0.893950 0.000000 0.000000
0.950560 0.000000 0.000000
0.993673 0.000000 0.000000
1.000000 0.000000 0.000000
1.000000 0.000000 0.000000
1.000000 0.000000 0.000000
1.000000 0.000000 0.000000
1.000000 0.000000 0.000000
0.000000 0.086750 0.000000
0.011394 0.087614 0.000000
0.051448 0.087839 0.000000
0.090653 0.086632 0.000000
0.128061 0.083075 0.000000
0.162873 0.076625 0.000000
0.194823 0.067340 0.000000
0.224369 0.055861 0.000000
0.252449 0.043072 0.000000
0.280129 0.029758 0.000000
0.308326 0.016460 0.000000
0.337715 0.005829 0.000000
0.368744 0.002166 0.000000
0.401686 0.000989 0.000000
0.436688 0.000139 0.000000
0.473803 0.000000 0.000000
0.513021 0.000000 0.000000
0.554312 0.000000 0.000000
0.597655 0.000000 0.000000
0.643050 0.000000 0.000000
0.690511 0.000000 0.000000
0.740055 0.000000 0.000000
0.791695 0.000000 0.000000
0.845431 0.000000 0.000000
0.901205 0.000000 0.000000
0.958834 0.000000 0.000000
0.994998 0.000000 0.000000
1.000000 0.000000 0.000000
1.000000 0.000000 0.000000
1.000000 0.000000 0.000000
1.000000 0.000000 0.000000
1.000000 0.000000 0.000000
0.000000 0.115473 0.000000
0.002898 0.117198 0.000000
0.043232 0.118716 0.000000
0.084443 0.119554 0.000000
0.124978 0.118838 0.000000
0.163678 0.115481 0.000000
0.199573 0.108866 0.000000
0.232334 0.099108 0.000000
0.262430 0.086977 0.000000
0.290881 0.073492 0.000000
0.318854 0.059551 0.000000
0.347386 0.045776 0.000000
0.377265 0.032510 0.000000
0.409019 0.019891 0.000000
0.442959 0.009090 0.000000
0.479224 0.003504 0.000000
0.517843 0.002078 0.000000
0.558791 0.000681 0.000000
0.602036 0.000059 0.000000
0.647558 0.000000 0.000000
0.695349 0.000000 0.000000
0.745406 0.000000 0.000000
0.797715 0.000000 0.000000
0.852254 0.000000 0.000000
0.908940 0.000000 0.000000
0.967543 0.000000 0.000000
0.996385 0.000000 0.000000
1.000000 0.000000 0.000000
1.000000 0.000000 0.000000
1.000000 0.000000 0.000000
1.000000 0.000000 0.000000
1.000000 0.000000 0.000000
0.000000 0.144170 0.000000
0.000809 0.145923 0.000000
0.032814 0.147744 0.000000
0.074677 0.149554 0.000000
0.116964 0.150836 0.000000
0.158872 0.150523 0.000000
0.199052 0.147349 0.000000
0.236392 0.140641 0.000000
0.270489 0.130573 0.000000
0.301789 0.118007 0.000000
0.331305 0.104053 0.000000
0.360237 0.089691 0.000000
0.389686 0.075604 0.000000
0.420518 0.062166 0.000000
0.453323 0.049500 0.000000
0.488447 0.037546 0.000000
0.526057 0.026133 0.000000
0.566210 0.015045 0.000000
0.608914 0.007055 0.000000
0.654163 0.003773 0.000000
0.701940 0.002003 0.000000
0.752224 0.000195 0.000000
0.804979 0.000003 0.000000
0.860151 0.000000 0.000000
0.917614 0.000000 0.000000
0.977089 0.000000 0.000000
0.997889 0.000000 0.000000
1.000000 0.000000 0.000000
1.000000 0.000000 0.000000
1.000000 0.000000 0.000000
1.000000 0.000000 0.000000
1.000000 0.000000 0.000000
0.000000 0.172932 0.000000
0.000439 0.174386 0.000000
0.021377 0.175944 0.000000
0.062919 0.177784 0.000000
0.105478 0.179885 0.000000
0.148921 0.181609 0.000000
0.192309 0.181684 0.000000
0.234172 0.178721 0.000000
0.273324 0.172042 0.000000
0.309315 0.161880 0.000000
0.342522 0.149151 0.000000
0.373886 0.135008 0.000000
0.404563 0.120466 0.000000
0.435647 0.106236 0.000000
0.468019 0.092696 0.000000
0.502304 0.079948 0.000000
0.538900 0.067907 0.000000
0.578041 0.056393 0.000000
0.619859 0.045196 0.000000
0.664423 0.034118 0.000000
0.711758 0.022985 0.000000
0.761856 0.011657 0.000000
0.814675 0.005924 0.000000
0.870137 0.003609 0.000000
0.928074 0.001328 0.000000
0.986355 0.000049 0.000000
0.999541 0.000000 0.000000
1.000000 0.000000 0.000000
1.000000 0.000000 0.000000
1.000000 0.000000 0.000000
1.000000 0.000000 0.000000
1.000000 0.000000 0.000000
0.000000 0.201880 0.000000
0.000100 0.203009 0.000000
0.009979 0.204135 0.000000
0.050561 0.205494 0.000000
0.092440 0.207421 0.000000
0.135833 0.209881 0.000000
0.180545 0.212064 0.000000
0.225533 0.212527 0.000000
0.269290 0.209828 0.000000
0.310626 0.203332 0.000000
0.349055 0.193316 0.000000
0.384862 0.180708 0.000000
0.418862 0.166649 0.000000
0.452094 0.152139 0.000000
0.485569 0.137873 0.000000
0.520135 0.124219 0.000000
0.556439 0.111283 0.000000
0.594946 0.099007 0.000000
0.635977 0.087243 0.000000
0.679724 0.075807 0.000000
0.726288 0.064516 0.000000
0.775910 0.053214 0.000000
0.828418 0.041773 0.000000
0.883738 0.030119 0.000000
0.941697 0.018221 0.000000
0.990640 0.009404 0.000000
1.000000 0.005588 0.000000
1.000000 0.002883 0.000000
1.000000 0.000151 0.000000
1.000000 0.000001 0.000000
1.000000 0.000000 0.000000
1.000000 0.000000 0.000000
0.000000 0.231160 0.000000
0.000000 0.232044 0.000000
0.001906 0.232796 0.000000
0.038348 0.233569 0.000000
0.079281 0.234818 0.000000
0.121706 0.236968 0.000000
0.166127 0.239876 0.000000
0.212260 0.242548 0.000000
0.259014 0.243425 0.000000
0.304913 0.241078 0.000000
0.348809 0.234934 0.000000
0.390195 0.225290 0.000000
0.429239 0.213043 0.000000
0.466591 0.199266 0.000000
0.503119 0.184899 0.000000
0.539713 0.170605 0.000000
0.577170 0.156762 0.000000
0.616151 0.143521 0.000000
0.657168 0.130878 0.000000
0.700543 0.118732 0.000000
0.746434 0.106936 0.000000
0.795566 0.095373 0.000000
0.847720 0.083890 0.000000
0.902612 0.072378 0.000000
0.960167 0.060772 0.000000
0.993922 0.049036 0.000000
1.000000 0.037126 0.000000
1.000000 0.025027 0.000000
1.000000 0.012800 0.000000
1.000000 0.008406 0.000000
1.000000 0.005410 0.000000
1.000000 0.002450 0.000000
0.000000 0.260947 0.000000
0.000000 0.261664 0.000000
0.001158 0.262162 0.000000
0.026494 0.262476 0.000000
0.066672 0.262990 0.000000
0.107940 0.264316 0.000000
0.151196 0.266861 0.000000
0.196885 0.270325 0.000000
0.244648 0.273539 0.000000
0.293395 0.274890 0.000000
0.341730 0.273000 0.000000
0.388569 0.267358 0.000000
0.433382 0.258254 0.000000
0.476214 0.246504 0.000000
0.517528 0.233084 0.000000
0.558014 0.218863 0.000000
0.598437 0.204490 0.000000
0.639531 0.190378 0.000000
0.681932 0.176736 0.000000
0.726113 0.163617 0.000000
0.772380 0.150972 0.000000
0.821517 0.138795 0.000000
0.873414 0.126937 0.000000
0.927874 0.115270 0.000000
0.980058 0.103714 0.000000
0.998073 0.092196 0.000000
1.000000 0.080658 0.000000
1.000000 0.069069 0.000000
1.000000 0.057444 0.000000
1.000000 0.045813 0.000000
1.000000 0.034197 0.000000
1.000000 0.022596 0.000000
0.000000 0.291435 0.000000
0.000000 0.292034 0.000000
0.000430 0.292386 0.000000
0.014979 0.292425 0.000000
0.054747 0.292393 0.000000
0.095124 0.292860 0.000000
0.137072 0.294500 0.000000
0.181484 0.297630 0.000000
0.228725 0.301765 0.000000
0.278383 0.305596 0.000000
0.329407 0.307496 0.000000
0.380504 0.306156 0.000000
0.430660 0.301109 0.000000
0.479322 0.292608 0.000000
0.526415 0.281374 0.000000
0.572239 0.268287 0.000000
0.617321 0.254167 0.000000
0.662294 0.239663 0.000000
0.707786 0.225223 0.000000
0.754328 0.211106 0.000000
0.802323 0.197427 0.000000
0.852521 0.184326 0.000000
0.904947 0.171724 0.000000
0.959488 0.159519 0.000000
0.992171 0.147646 0.000000
1.000000 0.136017 0.000000
1.000000 0.124586 0.000000
1.000000 0.113317 0.000000
1.000000 0.102169 0.000000
1.000000 0.091095 0.000000
1.000000 0.080075 0.000000
1.000000 0.069088 0.000000
0.000000 0.322821 0.000000
0.000000 0.323337 0.000000
0.000058 0.323613 0.000000
0.005692 0.323536 0.000000
0.043420 0.323209 0.000000
0.083320 0.323048 0.000000
0.124269 0.323736 0.000000
0.167278 0.325942 0.000000
0.213194 0.329844 0.000000
0.262299 0.334765 0.000000
0.314152 0.339283 0.000000
0.367764 0.341785 0.000000
0.421959 0.341034 0.000000
0.475797 0.336592 0.000000
0.528713 0.328669 0.000000
0.580543 0.317908 0.000000
0.631440 0.305110 0.000000
0.681766 0.291053 0.000000
0.731985 0.276382 0.000000
0.782555 0.261572 0.000000
0.833868 0.246938 0.000000
0.886514 0.232774 0.000000
0.940631 0.219146 0.000000
0.984867 0.206037 0.000000
0.999304 0.193438 0.000000
1.000000 0.181282 0.000000
1.000000 0.169561 0.000000
1.000000 0.158263 0.000000
1.000000 0.147291 0.000000
1.000000 0.136504 0.000000
1.000000 0.125835 0.000000
1.000000 0.115227 0.000000
0.000000 0.355296 0.000000
0.000000 0.355757 0.000000
0.000000 0.356010 0.000000
0.002285 0.355926 0.000000
0.032581 0.355516 0.000000
0.072376 0.355030 0.000000
0.112784 0.355010 0.000000
0.154707 0.356203 0.000000
0.199160 0.359217 0.000000
0.246922 0.364050 0.000000
0.298203 0.369836 0.000000
0.352555 0.375072 0.000000
0.409080 0.378182 0.000000
0.466732 0.378006 0.000000
0.524658 0.374138 0.000000
0.582297 0.366757 0.000000
0.639396 0.356432 0.000000
0.695950 0.343893 0.000000
0.752124 0.329872 0.000000
0.808162 0.315010 0.000000
0.864316 0.299819 0.000000
0.920892 0.284714 0.000000
0.972233 0.269964 0.000000
0.995406 0.255708 0.000000
1.000000 0.242032 0.000000
1.000000 0.228934 0.000000
1.000000 0.216474 0.000000
1.000000 0.204683 0.000000
1.000000 0.193432 0.000000
1.000000 0.182487 0.000000
1.000000 0.171738 0.000000
1.000000 0.161090 0.000000
0.000000 0.389028 0.000000
0.000000 0.389469 0.000000
0.000000 0.389741 0.000000
0.001297 0.389722 0.000000
0.022158 0.389377 0.000000
0.062107 0.388828 0.000000
0.102388 0.388435 0.000000
0.143695 0.388838 0.000000
0.186976 0.390798 0.000000
0.233225 0.394812 0.000000
0.283146 0.400675 0.000000
0.336899 0.407355 0.000000
0.394072 0.413306 0.000000
0.453888 0.417015 0.000000
0.515441 0.417408 0.000000
0.577959 0.414109 0.000000
0.640863 0.407257 0.000000
0.703778 0.397346 0.000000
0.766502 0.385036 0.000000
0.828954 0.371026 0.000000
0.891119 0.355968 0.000000
0.952903 0.340326 0.000000
0.989453 0.324608 0.000000
1.000000 0.309161 0.000000
1.000000 0.294205 0.000000
1.000000 0.279841 0.000000
1.000000 0.266219 0.000000
1.000000 0.253437 0.000000
1.000000 0.241352 0.000000
1.000000 0.229686 0.000000
1.000000 0.218303 0.000000
1.000000 0.207071 0.000000
0.000000 0.424154 0.000000
0.000000 0.424616 0.000000
0.000000 0.424947 0.000000
0.000342 0.425044 0.000000
0.012098 0.424859 0.000000
0.052351 0.424430 0.000000
0.092796 0.423961 0.000000
0.133923 0.423913 0.000000
0.176491 0.424991 0.000000
0.221473 0.427929 0.000000
0.269829 0.433072 0.000000
0.322208 0.440019 0.000000
0.378760 0.447607 0.000000
0.439153 0.454288 0.000000
0.502744 0.458628 0.000000
0.568746 0.459625 0.000000
0.636422 0.456912 0.000000
0.705117 0.450578 0.000000
0.774271 0.441037 0.000000
0.843430 0.428906 0.000000
0.912215 0.414874 0.000000
0.974423 0.399346 0.000000
0.997458 0.383069 0.000000
1.000000 0.366622 0.000000
1.000000 0.350375 0.000000
1.000000 0.334565 0.000000
1.000000 0.319443 0.000000
1.000000 0.305194 0.000000
1.000000 0.291710 0.000000
1.000000 0.278730 0.000000
1.000000 0.266123 0.000000
1.000000 0.253724 0.000000
0.000000 0.460761 0.000000
0.000000 0.461291 0.000000
0.000000 0.461723 0.000000
0.000028 0.461980 0.000000
0.005199 0.462012 0.000000
0.042961 0.461816 0.000000
0.083742 0.461488 0.000000
0.125007 0.461315 0.000000
0.167309 0.461838 0.000000
0.211464 0.463807 0.000000
0.258463 0.467888 0.000000
0.309240 0.474262 0.000000
0.364421 0.482350 0.000000
0.424190 0.490896 0.000000
0.488309 0.498371 0.000000
0.556247 0.503409 0.000000
0.627273 0.505051 0.000000
0.700602 0.502910 0.000000
0.775406 0.497013 0.000000
0.850876 0.487738 0.000000
0.926238 0.475692 0.000000
0.983260 0.461090 0.000000
1.000000 0.444871 0.000000
1.000000 0.427837 0.000000
1.000000 0.410488 0.000000
1.000000 0.393219 0.000000
1.000000 0.376380 0.000000
1.000000 0.360264 0.000000
1.000000 0.344887 0.000000
1.000000 0.330059 0.000000
1.000000 0.315679 0.000000
1.000000 0.301567 0.000000
0.000000 0.498889 0.000000
0.000000 0.499536 0.000000
0.000000 0.500116 0.000000
0.000000 0.500574 0.000000
0.003150 0.500867 0.000000
0.033795 0.500976 0.000000
0.074996 0.500930 0.000000
0.116598 0.500886 0.000000
0.158986 0.501207 0.000000
0.202777 0.502514 0.000000
0.248842 0.505568 0.000000
0.298191 0.510949 0.000000
0.351755 0.518669 0.000000
0.410168 0.527987 0.000000
0.473662 0.537577 0.000000
0.542074 0.545922 0.000000
0.614911 0.551694 0.000000
0.691393 0.553935 0.000000
0.770565 0.552219 0.000000
0.851346 0.546569 0.000000
0.932600 0.537377 0.000000
0.986671 0.524549 0.000000
1.000000 0.509124 0.000000
1.000000 0.492066 0.000000
1.000000 0.473972 0.000000
1.000000 0.455395 0.000000
1.000000 0.436778 0.000000
1.000000 0.418540 0.000000
1.000000 0.400906 0.000000
1.000000 0.383815 0.000000
1.000000 0.367220 0.000000
1.000000 0.350941 0.000000
0.000000 0.538552 0.000000
0.000000 0.539369 0.000000
0.000000 0.540148 0.000000
0.000000 0.540851 0.000000
0.001988 0.541447 0.000000
0.024720 0.541912 0.000000
0.066377 0.542243 0.000000
0.108425 0.542509 0.000000
0.151136 0.542926 0.000000
0.194950 0.543943 0.000000
0.240556 0.546244 0.000000
0.288881 0.550586 0.000000
0.340966 0.557435 0.000000
0.397752 0.566627 0.000000
0.459892 0.577270 0.000000
0.527643 0.587961 0.000000
0.600837 0.597168 0.000000
0.678901 0.603553 0.000000
0.760874 0.606138 0.000000
0.845532 0.604542 0.000000
0.931467 0.598841 0.000000
0.987579 0.588530 0.000000
1.000000 0.574628 0.000000
1.000000 0.558168 0.000000
1.000000 0.539788 0.000000
1.000000 0.520190 0.000000
1.000000 0.499901 0.000000
1.000000 0.479479 0.000000
1.000000 0.459402 0.000000
1.000000 0.439799 0.000000
1.000000 0.420701 0.000000
1.000000 0.401943 0.000000
0.000000 0.579764 0.000000
0.000000 0.580809 0.000000
0.000000 0.581838 0.000000
0.000000 0.582835 0.000000
0.000822 0.583780 0.000000
0.015626 0.584649 0.000000
0.057750 0.585425 0.000000
0.100296 0.586127 0.000000
0.143471 0.586867 0.000000
0.187585 0.587932 0.000000
0.233148 0.589852 0.000000
0.280925 0.593366 0.000000
0.331904 0.599196 0.000000
0.387159 0.607668 0.000000
0.447639 0.618426 0.000000
0.513978 0.630406 0.000000
0.586378 0.642101 0.000000
0.664546 0.651925 0.000000
0.747695 0.658522 0.000000
0.834580 0.661007 0.000000
0.923636 0.659095 0.000000
0.986128 0.651812 0.000000
1.000000 0.640024 0.000000
1.000000 0.624733 0.000000
1.000000 0.606556 0.000000
1.000000 0.586317 0.000000
1.000000 0.564607 0.000000
1.000000 0.542137 0.000000
1.000000 0.519650 0.000000
1.000000 0.497491 0.000000
1.000000 0.475784 0.000000
1.000000 0.454410 0.000000
0.000000 0.622549 0.000000
0.000000 0.623879 0.000000
0.000000 0.625216 0.000000
0.000000 0.626560 0.000000
0.000071 0.627905 0.000000
0.008178 0.629228 0.000000
0.049017 0.630507 0.000000
0.092081 0.631734 0.000000
0.135791 0.632957 0.000000
0.180381 0.634338 0.000000
0.226216 0.636238 0.000000
0.273881 0.639268 0.000000
0.324219 0.644199 0.000000
0.378275 0.651675 0.000000
0.437131 0.661839 0.000000
0.501697 0.674100 0.000000
0.572508 0.687195 0.000000
0.649596 0.699493 0.000000
0.732420 0.709366 0.000000
0.819867 0.715572 0.000000
0.910337 0.717357 0.000000
0.982637 0.713283 0.000000
1.000000 0.703962 0.000000
1.000000 0.690262 0.000000
1.000000 0.672726 0.000000
1.000000 0.652262 0.000000
1.000000 0.629502 0.000000
1.000000 0.605292 0.000000
1.000000 0.580654 0.000000
1.000000 0.556106 0.000000
1.000000 0.531884 0.000000
1.000000 0.507943 0.000000
0.000000 0.666940 0.000000
0.000000 0.668614 0.000000
0.000000 0.670316 0.000000
0.000000 0.672064 0.000000
0.000000 0.673861 0.000000
0.004783 0.675690 0.000000
0.040101 0.677527 0.000000
0.083688 0.679350 0.000000
0.127968 0.681165 0.000000
0.173131 0.683053 0.000000
0.219449 0.685230 0.000000
0.267350 0.688133 0.000000
0.317492 0.692437 0.000000
0.370782 0.698902 0.000000
0.428285 0.708035 0.000000
0.491039 0.719735 0.000000
0.559833 0.733143 0.000000
0.635003 0.746788 0.000000
0.716296 0.758944 0.000000
0.802802 0.768082 0.000000
0.893011 0.773099 0.000000
0.977534 0.772052 0.000000
1.000000 0.765248 0.000000
1.000000 0.753357 0.000000
1.000000 0.736807 0.000000
1.000000 0.716542 0.000000
1.000000 0.693194 0.000000
1.000000 0.667683 0.000000
1.000000 0.641299 0.000000
1.000000 0.614704 0.000000
1.000000 0.588238 0.000000
1.000000 0.561959 0.000000
0.000000 0.712965 0.000000
0.000000 0.715043 0.000000
0.000000 0.717170 0.000000
0.000000 0.719378 0.000000
0.000000 0.721681 0.000000
0.003308 0.724071 0.000000
0.030949 0.726519 0.000000
0.075061 0.728993 0.000000
0.119924 0.731479 0.000000
0.165713 0.733997 0.000000
0.212641 0.736658 0.000000
0.261015 0.739730 0.000000
0.311320 0.743717 0.000000
0.364271 0.749323 0.000000
0.420800 0.757238 0.000000
0.481940 0.767768 0.000000
0.548611 0.780521 0.000000
0.621384 0.794356 0.000000
0.700284 0.807629 0.000000
0.784639 0.818659 0.000000
0.873108 0.826045 0.000000
0.963387 0.827510 0.000000
0.998651 0.822972 0.000000
1.000000 0.812882 0.000000
1.000000 0.797527 0.000000
1.000000 0.777833 0.000000
1.000000 0.754381 0.000000
1.000000 0.728089 0.000000
1.000000 0.700468 0.000000
1.000000 0.672291 0.000000
1.000000 0.643998 0.000000
1.000000 0.615762 0.000000
0.000000 0.760645 0.000000
0.000000 0.763186 0.000000
0.000000 0.765796 0.000000
0.000000 0.768521 0.000000
0.000000 0.771386 0.000000
0.001792 0.774387 0.000000
0.021529 0.777495 0.000000
0.066171 0.780669 0.000000
0.111627 0.783871 0.000000
0.158065 0.787087 0.000000
0.205664 0.790346 0.000000
0.254650 0.793780 0.000000
0.305363 0.797706 0.000000
0.358325 0.802673 0.000000
0.414275 0.809375 0.000000
0.474127 0.818371 0.000000
0.538807 0.829698 0.000000
0.609020 0.842644 0.000000
0.685005 0.855813 0.000000
0.766336 0.867530 0.000000
0.851895 0.876204 0.000000
0.940539 0.879346 0.000000
0.993402 0.876579 0.000000
1.000000 0.868070 0.000000
1.000000 0.853962 0.000000
1.000000 0.835110 0.000000
1.000000 0.811989 0.000000
1.000000 0.785448 0.000000
1.000000 0.757146 0.000000
1.000000 0.727930 0.000000
1.000000 0.698319 0.000000
1.000000 0.668615 0.000000
0.000000 0.809992 0.000000
0.000000 0.813055 0.000000
0.000000 0.816203 0.000000
0.000000 0.819500 0.000000
0.000000 0.822977 0.000000
0.000237 0.826635 0.000000
0.011842 0.830439 0.000000
0.057022 0.834338 0.000000
0.103073 0.838274 0.000000
0.150163 0.842198 0.000000
0.198448 0.846084 0.000000
0.248104 0.849963 0.000000
0.299363 0.853989 0.000000
0.352580 0.858520 0.000000
0.408290 0.864130 0.000000
0.467213 0.871450 0.000000
0.530170 0.880827 0.000000
0.597885 0.891977 0.000000
0.670737 0.903874 0.000000
0.748512 0.915010 0.000000
0.830348 0.923756 0.000000
0.915429 0.927568 0.000000
0.985736 0.925869 0.000000
1.000000 0.918568 0.000000
1.000000 0.905608 0.000000
1.000000 0.887732 0.000000
1.000000 0.865278 0.000000
1.000000 0.838968 0.000000
1.000000 0.810524 0.000000
1.000000 0.780821 0.000000
1.000000 0.750447 0.000000
1.000000 0.719813 0.000000
0.000000 0.861009 0.000000
0.000000 0.864645 0.000000
0.000000 0.868384 0.000000
0.000000 0.872298 0.000000
0.000000 0.876425 0.000000
0.000007 0.880766 0.000000
0.007135 0.885279 0.000000
0.047634 0.889900 0.000000
0.094275 0.894546 0.000000
0.142001 0.899139 0.000000
0.190958 0.903612 0.000000
0.241285 0.907924 0.000000
0.293146 0.912107 0.000000
0.346767 0.916337 0.000000
0.402493 0.921002 0.000000
0.460825 0.926656 0.000000
0.522395 0.933786 0.000000
0.587833 0.942460 0.000000
0.657558 0.952069 0.000000
0.731531 0.961424 0.000000
0.809161 0.969036 0.000000
0.889953 0.972516 0.000000
0.970870 0.971062 0.000000
0.998753 0.964412 0.000000
1.000000 0.952357 0.000000
1.000000 0.935451 0.000000
1.000000 0.913865 0.000000
1.000000 0.888137 0.000000
1.000000 0.860038 0.000000
1.000000 0.830377 0.000000
1.000000 0.799769 0.000000
1.000000 0.768747 0.000000
0.000000 0.913684 0.000000
0.000000 0.917936 0.000000
0.000000 0.922300 0.000000
0.000000 0.926859 0.000000
0.000000 0.931651 0.000000
0.000000 0.936671 0.000000
0.005089 0.941872 0.000000
0.038033 0.947172 0.000000
0.085250 0.952467 0.000000
0.133586 0.957649 0.000000
0.183183 0.962617 0.000000
0.234158 0.967281 0.000000
0.286620 0.971582 0.000000
0.340701 0.975547 0.000000
0.396588 0.979365 0.000000
0.454569 0.983416 0.000000
0.515044 0.987786 0.000000
0.578480 0.990493 0.000000
0.645254 0.992192 0.000000
0.715449 0.993939 0.000000
0.788733 0.995476 0.000000
0.864916 0.996444 0.000000
0.942772 0.996479 0.000000
0.993229 0.995583 0.000000
1.000000 0.993211 0.000000
1.000000 0.978363 0.000000
1.000000 0.957712 0.000000
1.000000 0.932834 0.000000
1.000000 0.905422 0.000000
1.000000 0.876224 0.000000
1.000000 0.845856 0.000000
1.000000 0.814938 0.000000
0.000000 0.967986 0.000000
0.000000 0.972867 0.000000
0.000000 0.977867 0.000000
0.000000 0.983066 0.000000
0.000000 0.988219 0.000000
0.000000 0.991375 0.000000
0.003210 0.992211 0.000000
0.028250 0.993067 0.000000
0.076025 0.993924 0.000000
0.124945 0.994767 0.000000
0.175145 0.995579 0.000000
0.226723 0.996343 0.000000
0.279749 0.997048 0.000000
0.334276 0.997688 0.000000
0.390360 0.998280 0.000000
0.448104 0.998868 0.000000
0.507688 0.999499 0.000000
0.569385 1.000000 0.000000
0.633485 1.000000 0.000000
0.700136 1.000000 0.000000
0.769222 1.000000 0.000000
0.840793 1.000000 0.000000
0.913979 1.000000 0.000000
0.985085 1.000000 0.000000
1.000000 0.999961 0.000000
1.000000 0.998848 0.000000
1.000000 0.995711 0.000000
1.000000 0.973176 0.000000
1.000000 0.946655 0.000000
1.000000 0.918223 0.000000
1.000000 0.888472 0.000000
1.000000 0.858061 0.000000
0.000000 0.996970 0.000000
0.000000 0.997594 0.000000
0.000000 0.998232 0.000000
0.000000 0.998895 0.000000
0.000000 0.999583 0.000000
0.000000 1.000000 0.000000
0.001309 1.000000 0.000000
0.018325 1.000000 0.000000
0.066644 1.000000 0.000000
0.116123 1.000000 0.000000
0.166886 1.000000 0.000000
0.219014 1.000000 0.000000
0.272534 1.000000 0.000000
0.327430 1.000000 0.000000
0.383657 1.000000 0.000000
0.441170 1.000000 0.000000
0.499972 1.000000 0.000000
0.560159 1.000000 0.000000
0.621910 1.000000 0.000000
