ecomm/src/main/assets/lut/MagicHour - converted with Color.cube
TITLE "MagicHour - converted with Color.io - Created with Color.io"
LUT_3D_SIZE 32
DOMAIN_MIN 0.0 0.0 0.0
DOMAIN_MAX 1.0 1.0 1.0
0.000000 0.000001 0.000001
0.028673 0.000000 0.000000
0.057357 0.000000 0.000000
0.086071 0.000000 0.000000
0.114853 0.000000 0.000000
0.143770 0.000000 0.000000
0.172920 0.000000 0.000000
0.202426 0.000000 0.000000
0.232445 0.000000 0.000000
0.263165 0.000000 0.000000
0.294798 0.000000 0.000000
0.327526 0.000000 0.000000
0.361591 0.000000 0.000000
0.397254 0.000000 0.000000
0.434594 0.000000 0.000000
0.473725 0.000000 0.000000
0.514527 0.000000 0.000000
0.556766 0.000000 0.000000
0.600515 0.000000 0.000000
0.645711 0.000000 0.000000
0.692107 0.000000 0.000000
0.739613 0.000000 0.000000
0.788340 0.000000 0.000000
0.838331 0.000000 0.000000
0.889738 0.000000 0.000000
0.942924 0.000000 0.000000
0.992415 0.000000 0.000000
1.000000 0.000000 0.000000
1.000000 0.000000 0.000000
1.000000 0.000000 0.000000
1.000000 0.000000 0.000000
1.000000 0.000000 0.000000
0.000000 0.027593 0.000000
0.016550 0.014892 0.000000
0.046989 0.002592 0.000000
0.077485 0.000469 0.000000
0.108076 0.000126 0.000000
0.138813 0.000000 0.000000
0.169763 0.000000 0.000000
0.201022 0.000000 0.000000
0.232714 0.000000 0.000000
0.265005 0.000000 0.000000
0.298094 0.000000 0.000000
0.332166 0.000000 0.000000
0.367469 0.000000 0.000000
0.404280 0.000000 0.000000
0.442708 0.000000 0.000000
0.482890 0.000000 0.000000
0.524718 0.000000 0.000000
0.567956 0.000000 0.000000
0.612671 0.000000 0.000000
0.658842 0.000000 0.000000
0.706208 0.000000 0.000000
0.754585 0.000000 0.000000
0.803989 0.000000 0.000000
0.854405 0.000000 0.000000
0.905932 0.000000 0.000000
0.958855 0.000000 0.000000
0.994903 0.000000 0.000000
1.000000 0.000000 0.000000
1.000000 0.000000 0.000000
1.000000 0.000000 0.000000
1.000000 0.000000 0.000000
1.000000 0.000000 0.000000
0.000000 0.055189 0.000000
0.004661 0.044182 0.000000
0.036456 0.033109 0.000000
0.068693 0.021887 0.000000
0.101048 0.010619 0.000000
0.133559 0.001722 0.000000
0.166271 0.001039 0.000000
0.199252 0.000332 0.000000
0.232599 0.000031 0.000000
0.266457 0.000000 0.000000
0.301014 0.000000 0.000000
0.336457 0.000000 0.000000
0.373041 0.000000 0.000000
0.411056 0.000000 0.000000
0.450637 0.000000 0.000000
0.491941 0.000000 0.000000
0.534869 0.000000 0.000000
0.579189 0.000000 0.000000
0.624963 0.000000 0.000000
0.672151 0.000000 0.000000
0.720472 0.000000 0.000000
0.769702 0.000000 0.000000
0.819776 0.000000 0.000000
0.870611 0.000000 0.000000
0.922246 0.000000 0.000000
0.974887 0.000000 0.000000
0.997406 0.000000 0.000000
1.000000 0.000000 0.000000
1.000000 0.000000 0.000000
1.000000 0.000000 0.000000
1.000000 0.000000 0.000000
1.000000 0.000000 0.000000
0.000000 0.082801 0.000000
0.000589 0.073418 0.000000
0.025599 0.063979 0.000000
0.059515 0.054422 0.000000
0.093552 0.044659 0.000000
0.127755 0.034640 0.000000
0.162155 0.024296 0.000000
0.196798 0.013582 0.000000
0.231762 0.004327 0.000000
0.267175 0.002217 0.000000
0.303218 0.001201 0.000000
0.340076 0.000229 0.000000
0.378008 0.000000 0.000000
0.417314 0.000000 0.000000
0.458148 0.000000 0.000000
0.500680 0.000000 0.000000
0.544819 0.000000 0.000000
0.590336 0.000000 0.000000
0.637281 0.000000 0.000000
0.685590 0.000000 0.000000
0.734946 0.000000 0.000000
0.785090 0.000000 0.000000
0.835859 0.000000 0.000000
0.887118 0.000000 0.000000
0.938853 0.000000 0.000000
0.989747 0.000000 0.000000
0.999920 0.000000 0.000000
1.000000 0.000000 0.000000
1.000000 0.000000 0.000000
1.000000 0.000000 0.000000
1.000000 0.000000 0.000000
1.000000 0.000000 0.000000
0.000000 0.110468 0.000000
0.000217 0.102613 0.000000
0.014336 0.094705 0.000000
0.049801 0.086683 0.000000
0.085419 0.078476 0.000000
0.121198 0.069989 0.000000
0.157180 0.061161 0.000000
0.193400 0.051931 0.000000
0.229923 0.042283 0.000000
0.266871 0.032245 0.000000
0.304416 0.021906 0.000000
0.342741 0.011585 0.000000
0.382106 0.004479 0.000000
0.422812 0.003314 0.000000
0.465017 0.002220 0.000000
0.508894 0.001227 0.000000
0.554352 0.000336 0.000000
0.601165 0.000028 0.000000
0.649371 0.000000 0.000000
0.698890 0.000000 0.000000
0.749392 0.000000 0.000000
0.800545 0.000000 0.000000
0.852097 0.000000 0.000000
0.903855 0.000000 0.000000
0.955730 0.000000 0.000000
0.993287 0.000000 0.000000
1.000000 0.000000 0.000000
1.000000 0.000000 0.000000
1.000000 0.000000 0.000000
1.000000 0.000000 0.000000
1.000000 0.000000 0.000000
1.000000 0.000000 0.000000
0.000000 0.138254 0.000000
0.000026 0.131811 0.000000
0.003780 0.125312 0.000000
0.039483 0.118696 0.000000
0.076523 0.111892 0.000000
0.113756 0.104817 0.000000
0.151191 0.097378 0.000000
0.188880 0.089529 0.000000
0.226889 0.081243 0.000000
0.265336 0.072548 0.000000
0.304390 0.063519 0.000000
0.344233 0.054286 0.000000
0.385121 0.045023 0.000000
0.427349 0.035959 0.000000
0.471075 0.027349 0.000000
0.516464 0.019441 0.000000
0.563426 0.012334 0.000000
0.611736 0.007792 0.000000
0.661412 0.006426 0.000000
0.712311 0.005899 0.000000
0.764062 0.005529 0.000000
0.816300 0.005325 0.000000
0.868679 0.005299 0.000000
0.920932 0.005410 0.000000
0.972919 0.005624 0.000000
0.996532 0.005916 0.000000
1.000000 0.006260 0.000000
1.000000 0.006612 0.000000
1.000000 0.006933 0.000000
1.000000 0.007202 0.000000
1.000000 0.007420 0.000000
1.000000 0.007606 0.000000
0.000000 0.166260 0.000000
0.000000 0.161099 0.000000
0.001284 0.155875 0.000000
0.028535 0.150525 0.000000
0.066843 0.144977 0.000000
0.105360 0.139153 0.000000
0.144119 0.132981 0.000000
0.183157 0.126394 0.000000
0.222559 0.119385 0.000000
0.262449 0.111979 0.000000
0.303003 0.104250 0.000000
0.344399 0.096316 0.000000
0.386886 0.088340 0.000000
0.430750 0.080527 0.000000
0.476127 0.073104 0.000000
0.523173 0.066292 0.000000
0.571789 0.060182 0.000000
0.621737 0.054792 0.000000
0.673015 0.050296 0.000000
0.725455 0.046815 0.000000
0.778635 0.044323 0.000000
0.832103 0.042856 0.000000
0.885394 0.042492 0.000000
0.938187 0.043060 0.000000
0.987487 0.044338 0.000000
0.999700 0.046155 0.000000
1.000000 0.048351 0.000000
1.000000 0.050659 0.000000
1.000000 0.052819 0.000000
1.000000 0.054680 0.000000
1.000000 0.056221 0.000000
1.000000 0.057553 0.000000
0.000000 0.194616 0.000000
0.000000 0.190601 0.000000
0.000523 0.186515 0.000000
0.016990 0.182289 0.000000
0.056411 0.177852 0.000000
0.096055 0.173135 0.000000
0.135978 0.168081 0.000000
0.176247 0.162649 0.000000
0.216940 0.156823 0.000000
0.258202 0.150646 0.000000
0.300217 0.144192 0.000000
0.343169 0.137568 0.000000
0.387308 0.130919 0.000000
0.432898 0.124421 0.000000
0.480037 0.118268 0.000000
0.528858 0.112641 0.000000
0.579247 0.107609 0.000000
0.630946 0.103178 0.000000
0.683936 0.099499 0.000000
0.738048 0.096707 0.000000
0.792824 0.094799 0.000000
0.847681 0.093791 0.000000
0.901997 0.093765 0.000000
0.955392 0.094596 0.000000
0.992277 0.096108 0.000000
1.000000 0.098167 0.000000
1.000000 0.100659 0.000000
1.000000 0.103344 0.000000
1.000000 0.105979 0.000000
1.000000 0.108409 0.000000
1.000000 0.110593 0.000000
1.000000 0.112612 0.000000
0.000000 0.223482 0.000000
0.000000 0.220481 0.000000
0.000084 0.217399 0.000000
0.006440 0.214161 0.000000
0.045323 0.210701 0.000000
0.085949 0.206961 0.000000
0.126897 0.202899 0.000000
0.168259 0.198498 0.000000
0.210156 0.193770 0.000000
0.252730 0.188749 0.000000
0.296180 0.183522 0.000000
0.340677 0.178190 0.000000
0.386460 0.172879 0.000000
0.433788 0.167735 0.000000
0.482743 0.162910 0.000000
0.533432 0.158543 0.000000
0.585716 0.154682 0.000000
0.639317 0.151321 0.000000
0.694189 0.148580 0.000000
0.750116 0.146568 0.000000
0.806571 0.145290 0.000000
0.862861 0.144778 0.000000
0.918247 0.145104 0.000000
0.972285 0.146183 0.000000
0.996067 0.147891 0.000000
1.000000 0.150121 0.000000
1.000000 0.152774 0.000000
1.000000 0.155632 0.000000
1.000000 0.158464 0.000000
1.000000 0.161118 0.000000
1.000000 0.163552 0.000000
1.000000 0.165836 0.000000
0.000000 0.253039 0.000000
0.000000 0.250928 0.000000
0.000000 0.248727 0.000000
0.002296 0.246359 0.000000
0.033748 0.243760 0.000000
0.075221 0.240885 0.000000
0.117066 0.237711 0.000000
0.159403 0.234243 0.000000
0.202377 0.230514 0.000000
0.246166 0.226583 0.000000
0.290959 0.222523 0.000000
0.336937 0.218438 0.000000
0.384338 0.214438 0.000000
0.433409 0.210640 0.000000
0.484199 0.207149 0.000000
0.536795 0.204064 0.000000
0.591036 0.201409 0.000000
0.646620 0.199165 0.000000
0.703464 0.197413 0.000000
0.761291 0.196228 0.000000
0.819505 0.195620 0.000000
0.877291 0.195639 0.000000
0.933778 0.196343 0.000000
0.985034 0.197655 0.000000
0.999500 0.199501 0.000000
1.000000 0.201803 0.000000
1.000000 0.204461 0.000000
1.000000 0.207271 0.000000
1.000000 0.210020 0.000000
1.000000 0.212567 0.000000
1.000000 0.214881 0.000000
1.000000 0.217040 0.000000
0.000000 0.283478 0.000000
0.000000 0.282151 0.000000
0.000000 0.280729 0.000000
0.001148 0.279132 0.000000
0.021906 0.277301 0.000000
0.064116 0.275205 0.000000
0.106751 0.272837 0.000000
0.149959 0.270223 0.000000
0.193907 0.267416 0.000000
0.238794 0.264490 0.000000
0.284838 0.261533 0.000000
0.332207 0.258626 0.000000
0.381143 0.255873 0.000000
0.431879 0.253366 0.000000
0.484433 0.251164 0.000000
0.538868 0.249325 0.000000
0.595002 0.247847 0.000000
0.652538 0.246703 0.000000
0.711408 0.245948 0.000000
0.771226 0.245606 0.000000
0.831288 0.245670 0.000000
0.890693 0.246184 0.000000
0.948364 0.247231 0.000000
0.990021 0.248767 0.000000
1.000000 0.250709 0.000000
1.000000 0.252977 0.000000
1.000000 0.255474 0.000000
1.000000 0.258014 0.000000
1.000000 0.260407 0.000000
1.000000 0.262537 0.000000
1.000000 0.264392 0.000000
1.000000 0.266072 0.000000
0.000000 0.314988 0.000000
0.000000 0.314361 0.000000
0.000000 0.313637 0.000000
0.000208 0.312738 0.000000
0.010756 0.311610 0.000000
0.052912 0.310230 0.000000
0.096246 0.308610 0.000000
0.140228 0.306790 0.000000
0.185045 0.304839 0.000000
0.230911 0.302844 0.000000
0.278065 0.300897 0.000000
0.326702 0.299087 0.000000
0.377048 0.297487 0.000000
0.429328 0.296175 0.000000
0.483515 0.295171 0.000000
0.539648 0.294494 0.000000
0.597522 0.294114 0.000000
0.656846 0.293992 0.000000
0.717626 0.294167 0.000000
0.779443 0.294646 0.000000
0.841402 0.295388 0.000000
0.902432 0.296411 0.000000
0.961335 0.297766 0.000000
0.993488 0.299420 0.000000
1.000000 0.301312 0.000000
1.000000 0.303376 0.000000
1.000000 0.305501 0.000000
1.000000 0.307528 0.000000
1.000000 0.309303 0.000000
1.000000 0.310746 0.000000
1.000000 0.311873 0.000000
1.000000 0.312807 0.000000
0.000000 0.347740 0.000000
0.000000 0.347754 0.000000
0.000000 0.347674 0.000000
0.000000 0.347425 0.000000
0.004005 0.346956 0.000000
0.041906 0.346256 0.000000
0.085860 0.345343 0.000000
0.130526 0.344273 0.000000
0.176105 0.343121 0.000000
0.222828 0.341982 0.000000
0.270953 0.340955 0.000000
0.320687 0.340125 0.000000
0.372276 0.339568 0.000000
0.425926 0.339327 0.000000
0.481592 0.339400 0.000000
0.539304 0.339776 0.000000
0.598844 0.340408 0.000000
0.659906 0.341236 0.000000
0.722484 0.342259 0.000000
0.786113 0.343456 0.000000
0.849817 0.344780 0.000000
0.912400 0.346219 0.000000
0.972523 0.347778 0.000000
0.996523 0.349429 0.000000
1.000000 0.351128 0.000000
1.000000 0.352811 0.000000
1.000000 0.354358 0.000000
1.000000 0.355642 0.000000
1.000000 0.356557 0.000000
1.000000 0.357066 0.000000
1.000000 0.357219 0.000000
1.000000 0.357162 0.000000
0.000000 0.381877 0.000000
0.000000 0.382498 0.000000
0.000000 0.383030 0.000000
0.000000 0.383403 0.000000
0.002686 0.383574 0.000000
0.031414 0.383533 0.000000
0.075933 0.383309 0.000000
0.121217 0.382957 0.000000
0.167478 0.382560 0.000000
0.214958 0.382214 0.000000
0.263922 0.382020 0.000000
0.314584 0.382057 0.000000
0.367200 0.382396 0.000000
0.421991 0.383076 0.000000
0.478891 0.384064 0.000000
0.537934 0.385334 0.000000
0.598892 0.386822 0.000000
0.661447 0.388454 0.000000
0.725598 0.390193 0.000000
0.790849 0.391989 0.000000
0.856154 0.393782 0.000000
0.920230 0.395520 0.000000
0.980484 0.397153 0.000000
0.998960 0.398658 0.000000
1.000000 0.399997 0.000000
1.000000 0.401112 0.000000
1.000000 0.401873 0.000000
1.000000 0.402194 0.000000
1.000000 0.402028 0.000000
1.000000 0.401385 0.000000
1.000000 0.400354 0.000000
1.000000 0.399100 0.000000
0.000000 0.417494 0.000000
0.000000 0.418707 0.000000
0.000000 0.419839 0.000000
0.000000 0.420826 0.000000
0.001479 0.421629 0.000000
0.021705 0.422241 0.000000
0.066736 0.422690 0.000000
0.112575 0.423034 0.000000
0.159438 0.423353 0.000000
0.207571 0.423740 0.000000
0.257237 0.424290 0.000000
0.308639 0.425077 0.000000
0.362035 0.426164 0.000000
0.417671 0.427587 0.000000
0.475505 0.429310 0.000000
0.535567 0.431285 0.000000
0.597632 0.433445 0.000000
0.661378 0.435704 0.000000
0.726819 0.437993 0.000000
0.793436 0.440237 0.000000
0.860123 0.442355 0.000000
0.925516 0.444251 0.000000
0.983891 0.445812 0.000000
1.000000 0.447005 0.000000
1.000000 0.447806 0.000000
1.000000 0.448164 0.000000
1.000000 0.447942 0.000000
1.000000 0.447098 0.000000
1.000000 0.445655 0.000000
1.000000 0.443669 0.000000
1.000000 0.441269 0.000000
1.000000 0.438639 0.000000
0.000000 0.454636 0.000000
0.000000 0.456440 0.000000
0.000000 0.458171 0.000000
0.000000 0.459771 0.000000
0.000411 0.461205 0.000000
0.013016 0.462467 0.000000
0.058510 0.463582 0.000000
0.104834 0.464600 0.000000
0.152199 0.465594 0.000000
0.200850 0.466650 0.000000
0.251052 0.467856 0.000000
0.303006 0.469277 0.000000
0.356968 0.470969 0.000000
0.413190 0.472964 0.000000
0.471655 0.475227 0.000000
0.532430 0.477711 0.000000
0.595302 0.480338 0.000000
0.659949 0.483022 0.000000
0.726330 0.485671 0.000000
0.793944 0.488184 0.000000
0.861693 0.490458 0.000000
0.928166 0.492347 0.000000
0.984969 0.493668 0.000000
1.000000 0.494378 0.000000
1.000000 0.494470 0.000000
1.000000 0.493894 0.000000
1.000000 0.492509 0.000000
1.000000 0.490325 0.000000
1.000000 0.487431 0.000000
1.000000 0.483940 0.000000
1.000000 0.480015 0.000000
1.000000 0.475857 0.000000
0.000000 0.493288 0.000000
0.000000 0.495686 0.000000
0.000000 0.498020 0.000000
0.000000 0.500235 0.000000
0.000036 0.502301 0.000000
0.007390 0.504208 0.000000
0.051437 0.505974 0.000000
0.098178 0.507640 0.000000
0.145954 0.509267 0.000000
0.194994 0.510928 0.000000
0.245559 0.512699 0.000000
0.297863 0.514640 0.000000
0.352170 0.516799 0.000000
0.408729 0.519205 0.000000
0.467519 0.521825 0.000000
0.528625 0.524614 0.000000
0.591864 0.527506 0.000000
0.656948 0.530408 0.000000
0.723909 0.533210 0.000000
0.792194 0.535794 0.000000
0.860696 0.538036 0.000000
0.928000 0.539740 0.000000
0.985244 0.540656 0.000000
1.000000 0.540726 0.000000
1.000000 0.539947 0.000000
1.000000 0.538284 0.000000
1.000000 0.535587 0.000000
1.000000 0.531918 0.000000
1.000000 0.527433 0.000000
1.000000 0.522301 0.000000
1.000000 0.516718 0.000000
1.000000 0.510901 0.000000
0.000000 0.533378 0.000000
0.000000 0.536373 0.000000
0.000000 0.539310 0.000000
0.000000 0.542140 0.000000
0.000000 0.544831 0.000000
0.005688 0.547370 0.000000
0.045641 0.549766 0.000000
0.092728 0.552049 0.000000
0.140827 0.554265 0.000000
0.190152 0.556469 0.000000
0.240949 0.558723 0.000000
0.293423 0.561078 0.000000
0.347835 0.563572 0.000000
0.404437 0.566230 0.000000
0.463228 0.569030 0.000000
0.524312 0.571932 0.000000
0.587521 0.574882 0.000000
0.652589 0.577796 0.000000
0.719637 0.580547 0.000000
0.788194 0.582998 0.000000
0.857111 0.585014 0.000000
0.924963 0.586356 0.000000
0.984675 0.586709 0.000000
1.000000 0.586002 0.000000
1.000000 0.584228 0.000000
1.000000 0.581359 0.000000
1.000000 0.577244 0.000000
1.000000 0.571986 0.000000
1.000000 0.565808 0.000000
1.000000 0.558928 0.000000
1.000000 0.551578 0.000000
1.000000 0.543991 0.000000
0.000000 0.574792 0.000000
0.000000 0.578378 0.000000
0.000000 0.581910 0.000000
0.000000 0.585342 0.000000
0.000000 0.588641 0.000000
0.005038 0.591789 0.000000
0.041199 0.594785 0.000000
0.088570 0.597646 0.000000
0.136923 0.600399 0.000000
0.186453 0.603083 0.000000
0.237372 0.605741 0.000000
0.289851 0.608410 0.000000
0.344128 0.611118 0.000000
0.400472 0.613884 0.000000
0.458930 0.616699 0.000000
0.519611 0.619536 0.000000
0.582354 0.622355 0.000000
0.647099 0.625072 0.000000
0.713899 0.627556 0.000000
0.782268 0.629672 0.000000
0.851130 0.631271 0.000000
0.919133 0.632081 0.000000
0.983278 0.631733 0.000000
1.000000 0.630143 0.000000
1.000000 0.627301 0.000000
1.000000 0.623170 0.000000
1.000000 0.617588 0.000000
1.000000 0.610693 0.000000
1.000000 0.602764 0.000000
1.000000 0.594067 0.000000
1.000000 0.584870 0.000000
1.000000 0.575424 0.000000
0.000000 0.617389 0.000000
0.000000 0.621548 0.000000
0.000000 0.625656 0.000000
0.000000 0.629666 0.000000
0.000000 0.633543 0.000000
0.004595 0.637264 0.000000
0.038081 0.640817 0.000000
0.085634 0.644202 0.000000
0.134113 0.647433 0.000000
0.183691 0.650527 0.000000
0.234562 0.653508 0.000000
0.286887 0.656397 0.000000
0.340887 0.659210 0.000000
0.396810 0.661958 0.000000
0.454714 0.664644 0.000000
0.514723 0.667254 0.000000
0.576689 0.669768 0.000000
0.640631 0.672109 0.000000
0.706737 0.674138 0.000000
0.774460 0.675726 0.000000
0.842813 0.676733 0.000000
0.910544 0.676859 0.000000
0.976092 0.675695 0.000000
0.999343 0.673137 0.000000
1.000000 0.669173 0.000000
1.000000 0.663759 0.000000
1.000000 0.656708 0.000000
1.000000 0.648184 0.000000
1.000000 0.638506 0.000000
1.000000 0.627981 0.000000
1.000000 0.616912 0.000000
1.000000 0.605575 0.000000
0.000000 0.661044 0.000000
0.000000 0.665743 0.000000
0.000000 0.670391 0.000000
0.000000 0.674940 0.000000
0.000000 0.679351 0.000000
0.004354 0.683594 0.000000
0.036250 0.687646 0.000000
0.083902 0.691493 0.000000
0.132417 0.695131 0.000000
0.181941 0.698559 0.000000
0.232654 0.701778 0.000000
0.284714 0.704792 0.000000
0.338329 0.707602 0.000000
0.393741 0.710206 0.000000
0.451003 0.712620 0.000000
0.510090 0.714857 0.000000
0.570966 0.716908 0.000000
0.633801 0.718697 0.000000
0.698719 0.720107 0.000000
0.765256 0.721024 0.000000
0.832590 0.721296 0.000000
0.899614 0.720623 0.000000
0.964878 0.718560 0.000000
0.996686 0.714991 0.000000
1.000000 0.709895 0.000000
1.000000 0.703219 0.000000
1.000000 0.694752 0.000000
1.000000 0.684662 0.000000
1.000000 0.673297 0.000000
1.000000 0.660993 0.000000
1.000000 0.648086 0.000000
1.000000 0.634882 0.000000
0.000000 0.705687 0.000000
0.000000 0.710874 0.000000
0.000000 0.716007 0.000000
0.000000 0.721037 0.000000
0.000000 0.725920 0.000000
0.004289 0.730619 0.000000
0.035577 0.735098 0.000000
0.083264 0.739332 0.000000
0.131750 0.743299 0.000000
0.181156 0.746977 0.000000
0.231625 0.750347 0.000000
0.283277 0.753397 0.000000
0.336289 0.756108 0.000000
0.390900 0.758467 0.000000
0.447200 0.760494 0.000000
0.505149 0.762223 0.000000
0.564640 0.763679 0.000000
0.625979 0.764779 0.000000
0.689416 0.765391 0.000000
0.754478 0.765447 0.000000
0.820447 0.764819 0.000000
0.886379 0.763202 0.000000
0.951002 0.760164 0.000000
0.993343 0.755617 0.000000
1.000000 0.749534 0.000000
1.000000 0.741609 0.000000
1.000000 0.731800 0.000000
1.000000 0.720284 0.000000
1.000000 0.707373 0.000000
1.000000 0.693422 0.000000
1.000000 0.678793 0.000000
1.000000 0.663830 0.000000
0.000000 0.751359 0.000000
0.000000 0.756963 0.000000
0.000000 0.762510 0.000000
0.000000 0.767946 0.000000
0.000000 0.773224 0.000000
0.004370 0.778295 0.000000
0.035875 0.783118 0.000000
0.083522 0.787650 0.000000
0.131886 0.791855 0.000000
0.181061 0.795692 0.000000
0.231162 0.799118 0.000000
0.282289 0.802106 0.000000
0.334595 0.804617 0.000000
0.388279 0.806617 0.000000
0.443429 0.808136 0.000000
0.500026 0.809228 0.000000
0.557990 0.809944 0.000000
0.617614 0.810207 0.000000
0.679198 0.809891 0.000000
0.742446 0.808939 0.000000
0.806696 0.807274 0.000000
0.871143 0.804614 0.000000
0.934697 0.800521 0.000000
0.989308 0.794961 0.000000
1.000000 0.787881 0.000000
1.000000 0.778881 0.000000
1.000000 0.767904 0.000000
1.000000 0.755156 0.000000
1.000000 0.740918 0.000000
1.000000 0.725543 0.000000
1.000000 0.709413 0.000000
1.000000 0.692908 0.000000
0.000000 0.798255 0.000000
0.000000 0.804190 0.000000
0.000000 0.810064 0.000000
0.000000 0.815817 0.000000
0.000000 0.821393 0.000000
0.004552 0.826738 0.000000
0.036883 0.831798 0.000000
0.084453 0.836519 0.000000
0.132653 0.840849 0.000000
0.181551 0.844728 0.000000
0.231233 0.848092 0.000000
0.281776 0.850898 0.000000
0.333304 0.853084 0.000000
0.385981 0.854601 0.000000
0.439886 0.855480 0.000000
0.495013 0.855796 0.000000
0.551315 0.855625 0.000000
0.609075 0.854893 0.000000
0.668596 0.853484 0.000000
0.729654 0.851391 0.000000
0.791763 0.848571 0.000000
0.854297 0.844780 0.000000
0.916365 0.839620 0.000000
0.976527 0.833016 0.000000
0.998956 0.824953 0.000000
1.000000 0.815012 0.000000
1.000000 0.803097 0.000000
1.000000 0.789375 0.000000
1.000000 0.774096 0.000000
1.000000 0.757603 0.000000
1.000000 0.740288 0.000000
1.000000 0.722556 0.000000
0.000000 0.846746 0.000000
0.000000 0.852912 0.000000
0.000000 0.859008 0.000000
0.000000 0.864968 0.000000
0.000000 0.870729 0.000000
0.004772 0.876227 0.000000
0.038226 0.881398 0.000000
0.085721 0.886176 0.000000
0.133758 0.890491 0.000000
0.182378 0.894267 0.000000
0.231636 0.897421 0.000000
0.281579 0.899891 0.000000
0.332292 0.901601 0.000000
0.383900 0.902486 0.000000
0.436469 0.902582 0.000000
0.490011 0.901981 0.000000
0.544508 0.900782 0.000000
0.600227 0.898912 0.000000
0.657480 0.896264 0.000000
0.716154 0.892863 0.000000
0.775862 0.888717 0.000000
0.836144 0.883624 0.000000
0.896324 0.877320 0.000000
0.955721 0.869739 0.000000
0.995222 0.860779 0.000000
1.000000 0.850043 0.000000
1.000000 0.837407 0.000000
1.000000 0.822992 0.000000
1.000000 0.807008 0.000000
1.000000 0.789770 0.000000
1.000000 0.771665 0.000000
1.000000 0.753115 0.000000
0.000000 0.897361 0.000000
0.000000 0.903640 0.000000
0.000000 0.909838 0.000000
0.000000 0.915882 0.000000
0.000000 0.921696 0.000000
0.004963 0.927208 0.000000
0.039470 0.932342 0.000000
0.086939 0.937018 0.000000
0.134848 0.941155 0.000000
0.183215 0.944660 0.000000
0.232065 0.947428 0.000000
0.281420 0.949383 0.000000
0.331327 0.950431 0.000000
0.381871 0.950492 0.000000
0.433099 0.949613 0.000000
0.485034 0.947908 0.000000
0.537683 0.945501 0.000000
0.591285 0.942322 0.000000
0.646135 0.938279 0.000000
0.702206 0.933437 0.000000
0.759251 0.927876 0.000000
0.816965 0.921475 0.000000
0.874874 0.913963 0.000000
0.932406 0.905304 0.000000
0.987409 0.895447 0.000000
0.999731 0.884009 0.000000
1.000000 0.870845 0.000000
1.000000 0.856014 0.000000
1.000000 0.839676 0.000000
1.000000 0.822105 0.000000
1.000000 0.803664 0.000000
1.000000 0.784770 0.000000
0.000000 0.950696 0.000000
0.000000 0.956954 0.000000
0.000000 0.963121 0.000000
0.000000 0.969106 0.000000
0.000000 0.974825 0.000000
0.005057 0.980189 0.000000
0.040183 0.985112 0.000000
0.087730 0.989355 0.000000
0.135607 0.991936 0.000000
0.183809 0.992505 0.000000
0.232331 0.992961 0.000000
0.281162 0.993289 0.000000
0.330314 0.993478 0.000000
0.379826 0.993506 0.000000
0.429732 0.993381 0.000000
0.480065 0.992722 0.000000
0.530857 0.989931 0.000000
0.582310 0.985258 0.000000
0.634688 0.979645 0.000000
0.688035 0.973208 0.000000
0.742231 0.966082 0.000000
0.797122 0.958226 0.000000
0.852427 0.949445 0.000000
0.907697 0.939708 0.000000
0.962436 0.928981 0.000000
0.996804 0.916934 0.000000
1.000000 0.903409 0.000000
1.000000 0.888421 0.000000
1.000000 0.872073 0.000000
1.000000 0.854585 0.000000
1.000000 0.836278 0.000000
1.000000 0.817538 0.000000
0.000000 0.994724 0.000000
0.000000 0.995508 0.000000
0.000000 0.996282 0.000000
0.000000 0.997035 0.000000
0.000000 0.997757 0.000000
0.004998 0.998436 0.000000
0.039984 0.999062 0.000000
0.087760 0.999619 0.000000
0.135741 1.000000 0.000000
0.183899 1.000000 0.000000
0.232199 1.000000 0.000000
0.280605 1.000000 0.000000
0.329089 1.000000 0.000000
0.377647 1.000000 0.000000
0.426297 1.000000 0.000000
0.475083 0.999983 0.000000
0.524068 0.999795 0.000000
0.573408 0.999211 0.000000
0.623292 0.998505 0.000000
0.673821 0.997685 0.000000
