ecomm/src/main/assets/lut/MagicHour - converted with Color.cube
TITLE "MagicHour - converted with Color.io - Created with Color.io"
LUT_3D_SIZE 5
DOMAIN_MIN 0.000000 0.000000 0.000000
DOMAIN_MAX 0.903226 0.903226 0.903226
0.000000 0.000001 0.000001
0.202426 0.000000 0.000000
0.434594 0.000000 0.000000
0.739613 0.000000 0.000000
1.000000 0.000000 0.000000
0.000000 0.194616 0.000000
0.176247 0.162649 0.000000
0.480037 0.118268 0.000000
0.847681 0.093791 0.000000
1.000000 0.105979 0.000000
0.000000 0.417494 0.000000
0.112575 0.423034 0.000000
0.475505 0.429310 0.000000
0.925516 0.444251 0.000000
1.000000 0.445655 0.000000
0.000000 0.705687 0.000000
0.083264 0.739332 0.000000
0.447200 0.760494 0.000000
0.886379 0.763202 0.000000
1.000000 0.707373 0.000000
0.000000 1.000000 0.000000
0.086801 1.000000 0.000000
0.422724 1.000000 0.000000
0.756414 0.999884 0.000000
1.000000 0.935931 0.000000
0.000000 0.000000 0.210696
0.158133 0.000000 0.154031
0.431933 0.000000 0.088409
0.761529 0.000000 0.055336
1.000000 0.000000 0.049441
0.000000 0.161168 0.191405
0.113412 0.086437 0.089929
0.459822 0.054272 0.052890
0.838689 0.030027 0.036080
1.000000 0.008805 0.031840
0.000000 0.428594 0.107207
0.087984 0.392701 0.046394
0.477974 0.394996 0.039375
0.893614 0.393479 0.063711
1.000000 0.363421 0.092337
0.000000 0.745515 0.057347
0.068981 0.744955 0.011587
0.438320 0.734196 0.006123
0.833992 0.699016 0.020037
1.000000 0.652669 0.098100
0.000000 1.000000 0.045058
0.023340 1.000000 0.000751
0.364283 1.000000 0.000000
0.693574 0.990331 0.000000
0.999989 0.900037 0.000064
0.000000 0.000000 0.450635
0.100259 0.000000 0.425229
0.426059 0.000000 0.409185
0.779404 0.000000 0.399613
1.000000 0.000000 0.381975
0.000000 0.107205 0.541295
0.060422 0.051697 0.423864
0.439965 0.022479 0.376347
0.808062 0.004596 0.345826
1.000000 0.000000 0.313273
0.000000 0.437557 0.499839
0.038828 0.393368 0.415399
0.432389 0.359710 0.359939
0.809339 0.316103 0.327124
1.000000 0.259434 0.303677
0.000000 0.772212 0.425214
0.033218 0.745274 0.356355
0.385245 0.697748 0.299714
0.741852 0.626308 0.285251
1.000000 0.591590 0.325065
0.000000 1.000000 0.384766
0.000291 1.000000 0.301217
0.295712 0.999893 0.226217
0.630963 0.940216 0.183046
0.994616 0.879193 0.229529
0.000000 0.000000 0.756521
0.074361 0.000000 0.747578
0.424113 0.000000 0.753619
0.764638 0.000000 0.733994
1.000000 0.000000 0.670093
0.000000 0.068199 0.958116
0.012130 0.023169 0.824267
0.406877 0.006934 0.738659
0.740633 0.000142 0.660631
0.999992 0.000000 0.598700
0.000000 0.448141 0.983639
0.000157 0.376432 0.856932
0.351249 0.311414 0.725667
0.692643 0.252213 0.604252
0.994920 0.181910 0.555390
0.000000 0.775719 0.839245
0.000210 0.698109 0.737309
0.301019 0.619778 0.632069
0.629859 0.546908 0.548705
0.958093 0.521181 0.550085
0.000000 1.000000 0.689620
0.000000 0.995760 0.613999
0.227530 0.940054 0.552488
0.563989 0.868526 0.506465
0.917926 0.848461 0.525645
0.000000 0.000000 1.000000
0.075614 0.000000 1.000000
0.416827 0.000000 1.000000
0.707138 0.000000 0.998436
0.929936 0.000000 0.887494
0.000000 0.044589 1.000000
0.000014 0.001253 1.000000
0.342847 0.000000 1.000000
0.656009 0.000000 0.979388
0.904440 0.000000 0.850670
0.000000 0.438447 1.000000
0.000000 0.328291 1.000000
0.237464 0.239280 1.000000
0.599920 0.178473 0.943852
0.905576 0.128603 0.855382
0.000000 0.740078 1.000000
0.000000 0.647519 1.000000
0.153630 0.569719 0.998922
0.536829 0.509505 0.890478
0.871216 0.475498 0.840561
0.000000 0.928740 0.952456
0.000000 0.887034 0.912546
0.126759 0.879197 0.897720
0.490892 0.844077 0.851004
0.854610 0.834562 0.841919
