ecomm/src/main/assets/lut/MagicHour - converted with Color.cube
TITLE "MagicHour - converted with Color.io - Created with Color.io"
LUT_3D_SIZE 8
DOMAIN_MIN 0.000000 0.000000 0.000000
DOMAIN_MAX 0.903226 0.903226 0.903226
0.000000 0.000001 0.000001
0.114853 0.000000 0.000000
0.232445 0.000000 0.000000
0.361591 0.000000 0.000000
0.514527 0.000000 0.000000
0.692107 0.000000 0.000000
0.889738 0.000000 0.000000
1.000000 0.000000 0.000000
0.000000 0.110468 0.000000
0.085419 0.078476 0.000000
0.229923 0.042283 0.000000
0.382106 0.004479 0.000000
0.554352 0.000336 0.000000
0.749392 0.000000 0.000000
0.955730 0.000000 0.000000
1.000000 0.000000 0.000000
0.000000 0.223482 0.000000
0.045323 0.210701 0.000000
0.210156 0.193770 0.000000
0.386460 0.172879 0.000000
0.585716 0.154682 0.000000
0.806571 0.145290 0.000000
0.996067 0.147891 0.000000
1.000000 0.158464 0.000000
0.000000 0.347740 0.000000
0.004005 0.346956 0.000000
0.176105 0.343121 0.000000
0.372276 0.339568 0.000000
0.598844 0.340408 0.000000
0.849817 0.344780 0.000000
1.000000 0.351128 0.000000
1.000000 0.356557 0.000000
0.000000 0.493288 0.000000
0.000036 0.502301 0.000000
0.145954 0.509267 0.000000
0.352170 0.516799 0.000000
0.591864 0.527506 0.000000
0.860696 0.538036 0.000000
1.000000 0.539947 0.000000
1.000000 0.527433 0.000000
0.000000 0.661044 0.000000
0.000000 0.679351 0.000000
0.132417 0.695131 0.000000
0.338329 0.707602 0.000000
0.570966 0.716908 0.000000
0.832590 0.721296 0.000000
1.000000 0.709895 0.000000
1.000000 0.673297 0.000000
0.000000 0.846746 0.000000
0.000000 0.870729 0.000000
0.133758 0.890491 0.000000
0.332292 0.901601 0.000000
0.544508 0.900782 0.000000
0.775862 0.888717 0.000000
0.995222 0.860779 0.000000
1.000000 0.807008 0.000000
0.000000 1.000000 0.000000
0.000000 1.000000 0.000000
0.135052 1.000000 0.000000
0.327563 1.000000 0.000000
0.517193 1.000000 0.000000
0.707673 1.000000 0.000000
0.905485 0.992239 0.000000
1.000000 0.935931 0.000000
0.000000 0.000000 0.119628
0.076612 0.000000 0.077132
0.213358 0.000000 0.030841
0.355447 0.000000 0.001548
0.517479 0.000000 0.000000
0.702208 0.000000 0.000000
0.902997 0.000000 0.000000
1.000000 0.000000 0.000000
0.000000 0.075837 0.091475
0.040854 0.032689 0.038886
0.195699 0.002348 0.002301
0.362830 0.000000 0.000000
0.547181 0.000000 0.000000
0.748725 0.000000 0.000000
0.961760 0.000000 0.000000
1.000000 0.000000 0.000000
0.000000 0.211658 0.047775
0.007166 0.172941 0.002683
0.178800 0.147327 0.000000
0.371057 0.132004 0.000000
0.581141 0.121004 0.000000
0.802388 0.111553 0.000000
0.995114 0.103418 0.000000
1.000000 0.100697 0.000000
0.000000 0.349768 0.003297
0.000617 0.324765 0.000000
0.159928 0.312774 0.000000
0.370457 0.313110 0.000000
0.603826 0.317881 0.000000
0.845293 0.319551 0.000000
1.000000 0.315151 0.000000
1.000000 0.307254 0.001520
0.000000 0.505214 0.000000
0.000000 0.494501 0.000000
0.143480 0.493386 0.000000
0.359116 0.500381 0.000000
0.599279 0.509542 0.000000
0.851897 0.514982 0.000000
1.000000 0.508699 0.000248
1.000000 0.489128 0.013922
0.000000 0.682794 0.000000
0.000000 0.683706 0.000000
0.131908 0.689934 0.000000
0.342487 0.695574 0.000000
0.570082 0.695107 0.000000
0.815082 0.689919 0.000000
0.999986 0.674341 0.000000
1.000000 0.641729 0.005443
0.000000 0.876507 0.000000
0.000000 0.891668 0.000000
0.118243 0.903211 0.000000
0.321402 0.901671 0.000000
0.529584 0.882682 0.000000
0.749242 0.854771 0.000000
0.975408 0.822795 0.000000
1.000000 0.779218 0.000000
0.000000 1.000000 0.000000
0.000000 1.000000 0.000000
0.098474 1.000000 0.000000
0.294921 1.000000 0.000000
0.485697 1.000000 0.000000
0.673669 0.999227 0.000000
0.869239 0.965438 0.000000
1.000000 0.913609 0.000000
0.000000 0.000000 0.241903
0.033665 0.000000 0.214169
0.188652 0.000000 0.182676
0.346198 0.000000 0.148025
0.521012 0.000000 0.119187
0.714797 0.000000 0.104369
0.918145 0.000000 0.102073
1.000000 0.000000 0.097183
0.000000 0.034882 0.249456
0.002905 0.001949 0.188059
0.165302 0.000000 0.143813
0.347418 0.000000 0.114986
0.542938 0.000000 0.096208
0.750186 0.000000 0.084086
0.965534 0.000000 0.075657
1.000000 0.000000 0.072083
0.000000 0.193201 0.228531
0.000167 0.145227 0.160894
0.149246 0.114758 0.117198
0.353691 0.099509 0.097180
0.570601 0.089576 0.088745
0.791907 0.076362 0.081134
0.992910 0.057937 0.073431
1.000000 0.043200 0.072514
0.000000 0.348281 0.181809
0.000000 0.313560 0.129851
0.138950 0.294315 0.097465
0.358272 0.290442 0.086977
0.592143 0.290953 0.089675
0.824358 0.284187 0.094620
0.999862 0.268558 0.099493
1.000000 0.249712 0.102835
0.000000 0.515999 0.135802
0.000000 0.496783 0.101043
0.131752 0.487570 0.078920
0.352278 0.486956 0.072361
0.587351 0.486996 0.080120
0.823709 0.481850 0.097255
0.999873 0.467552 0.120101
1.000000 0.442377 0.137239
0.000000 0.701908 0.109763
0.000000 0.694966 0.079959
0.120887 0.693126 0.058466
0.332931 0.688009 0.048599
0.553482 0.672431 0.051360
0.781836 0.653804 0.067030
0.993632 0.634692 0.099185
1.000000 0.607035 0.139488
0.000000 0.898857 0.102133
0.000000 0.909691 0.062776
0.096307 0.914995 0.031969
0.299858 0.900888 0.013280
0.504064 0.863015 0.009236
0.711895 0.817935 0.012203
0.929792 0.782614 0.039244
1.000000 0.752093 0.091600
0.000000 1.000000 0.094061
0.000000 1.000000 0.048362
0.063208 1.000000 0.010053
0.258300 1.000000 0.000621
0.449478 1.000000 0.000000
0.636642 0.996511 0.000000
0.832567 0.941185 0.000021
0.999824 0.896691 0.008255
0.000000 0.000000 0.375836
0.002513 0.000000 0.357368
0.159046 0.000000 0.338901
0.334850 0.000000 0.321451
0.524436 0.000000 0.308171
0.725747 0.000000 0.300846
0.928337 0.000000 0.296828
1.000000 0.000000 0.288996
0.000000 0.002808 0.421924
0.000000 0.000000 0.359246
0.139119 0.000000 0.318017
0.337038 0.000000 0.295684
0.541177 0.000000 0.282757
0.749146 0.000000 0.272188
0.958897 0.000000 0.260621
1.000000 0.000000 0.249453
0.000000 0.167689 0.431130
0.000000 0.125558 0.357351
0.122548 0.097613 0.307701
0.338236 0.081097 0.282117
0.556760 0.068174 0.268153
0.773044 0.049512 0.254237
0.983373 0.021509 0.238496
1.000000 0.005615 0.225633
0.000000 0.344453 0.399277
0.000000 0.311437 0.341771
0.112343 0.288500 0.299658
0.337225 0.275406 0.275625
0.565498 0.264376 0.263109
0.787173 0.245196 0.252657
0.988157 0.217470 0.241690
1.000000 0.188223 0.229657
0.000000 0.526774 0.353548
0.000000 0.505747 0.313896
0.109027 0.489005 0.282022
0.330103 0.475130 0.261142
0.554785 0.459169 0.252104
0.775877 0.439280 0.251371
0.979861 0.415841 0.254543
1.000000 0.387325 0.253850
0.000000 0.717914 0.320059
0.000000 0.705352 0.284690
0.100588 0.694718 0.253008
0.308707 0.676909 0.229618
0.518877 0.645649 0.219270
0.732243 0.613378 0.222916
0.945443 0.590784 0.240978
1.000000 0.568497 0.265773
0.000000 0.911245 0.302839
0.000000 0.912912 0.259675
0.072496 0.909332 0.219451
0.269474 0.885502 0.187334
0.467731 0.836637 0.167502
0.667449 0.782039 0.164869
0.880135 0.747100 0.186675
1.000000 0.728364 0.232795
0.000000 1.000000 0.289829
0.000000 1.000000 0.241228
0.029944 1.000000 0.194977
0.219204 1.000000 0.152788
0.410430 0.999761 0.117663
0.600175 0.973795 0.098397
0.799728 0.920221 0.106867
0.998087 0.886086 0.150404
0.000000 0.000000 0.531549
0.000000 0.000000 0.518611
0.134313 0.000000 0.510739
0.325909 0.000000 0.507736
0.526285 0.000000 0.505786
0.729647 0.000000 0.500946
0.925131 0.000000 0.489927
1.000000 0.000000 0.471077
0.000000 0.000000 0.615564
0.000000 0.000000 0.553858
0.118290 0.000000 0.513520
0.328688 0.000000 0.494084
0.536268 0.000000 0.481604
0.738412 0.000000 0.467073
0.935461 0.000000 0.448144
1.000000 0.000000 0.426733
0.000000 0.142992 0.662903
0.000000 0.111603 0.584181
0.097877 0.088181 0.525636
0.322682 0.072225 0.489961
0.538254 0.058132 0.463685
0.742594 0.035995 0.437710
0.939351 0.006986 0.411902
1.000000 0.000000 0.389368
0.000000 0.342533 0.654443
0.000000 0.311994 0.588044
0.081010 0.285467 0.531071
0.309864 0.264082 0.487041
0.529475 0.243815 0.450149
0.736483 0.214773 0.417285
0.929414 0.175282 0.390839
1.000000 0.134901 0.370465
0.000000 0.538778 0.605959
0.000000 0.512361 0.556879
0.077023 0.485625 0.509240
0.296446 0.458021 0.465920
0.508821 0.428167 0.428868
0.714123 0.395319 0.400834
0.906628 0.362416 0.384672
1.000000 0.332086 0.375627
0.000000 0.730018 0.551566
0.000000 0.705393 0.508527
0.074063 0.680575 0.464089
0.275848 0.650279 0.421670
0.473679 0.610088 0.387996
0.673093 0.569896 0.368941
0.873944 0.543563 0.370624
1.000000 0.525813 0.387260
0.000000 0.912218 0.509561
0.000000 0.895738 0.463700
0.049633 0.876415 0.416961
0.236957 0.844715 0.373294
0.427112 0.795662 0.338018
0.620591 0.743405 0.318755
0.825414 0.712498 0.329711
0.999677 0.702882 0.371218
0.000000 1.000000 0.476537
0.000000 1.000000 0.429340
0.007430 1.000000 0.382776
0.181470 0.999841 0.339573
0.372714 0.984431 0.302502
0.564369 0.931179 0.276766
0.763105 0.890984 0.276259
0.976577 0.870720 0.312893
0.000000 0.000000 0.709386
0.000000 0.000000 0.700678
0.124146 0.000000 0.699635
0.323331 0.000000 0.703542
0.525334 0.000000 0.704124
0.722351 0.000000 0.693929
0.904006 0.000000 0.669682
1.000000 0.000000 0.633185
0.000000 0.000000 0.826897
0.000000 0.000000 0.764812
0.101413 0.000000 0.724175
0.318581 0.000000 0.700343
0.524347 0.000000 0.679740
0.716127 0.000000 0.654295
0.895912 0.000000 0.623354
1.000000 0.000000 0.589913
0.000000 0.125708 0.915429
0.000000 0.096047 0.827889
0.067834 0.072552 0.760352
0.299337 0.056846 0.709076
0.511316 0.044210 0.662583
0.701825 0.023443 0.618123
0.881208 0.003095 0.579813
1.000000 0.000000 0.551258
0.000000 0.342376 0.938251
0.000000 0.306003 0.854932
0.036037 0.271575 0.781252
0.269906 0.242554 0.714170
0.484788 0.218702 0.647734
0.677586 0.189102 0.587819
0.858385 0.146068 0.546173
0.999779 0.098360 0.524018
0.000000 0.548324 0.887527
0.000000 0.509838 0.820223
0.024835 0.469698 0.753775
0.246028 0.429555 0.687038
0.453107 0.391935 0.619613
0.646391 0.354048 0.560824
0.828894 0.316342 0.525629
0.995525 0.286645 0.513479
0.000000 0.734493 0.800425
0.000000 0.693970 0.744310
0.027900 0.651948 0.685577
0.228019 0.608970 0.626022
0.419370 0.565400 0.569876
0.608557 0.523567 0.524802
0.796706 0.495010 0.506494
0.980445 0.482619 0.515326
0.000000 0.899176 0.717138
0.000000 0.863761 0.665886
0.017187 0.826286 0.612996
0.197723 0.786799 0.562977
0.380149 0.742579 0.518986
0.567797 0.698066 0.484966
0.762495 0.672648 0.480220
0.965390 0.671942 0.510945
0.000000 1.000000 0.648823
0.000000 0.999780 0.603918
0.000225 0.997800 0.561033
0.145111 0.976141 0.523246
0.333817 0.930054 0.490497
0.526009 0.886159 0.464093
0.721187 0.858578 0.457280
0.929528 0.852586 0.483061
0.000000 0.000000 0.905812
0.000000 0.000000 0.898032
0.126290 0.000000 0.896868
0.324652 0.000000 0.898588
0.519077 0.000000 0.892030
0.701784 0.000000 0.868714
0.864424 0.000000 0.827057
0.998358 0.000000 0.771573
0.000000 0.000000 0.999341
0.000000 0.000000 0.987094
0.082891 0.000000 0.947892
0.301789 0.000000 0.913347
0.503081 0.000000 0.876198
0.683209 0.000000 0.832333
0.844976 0.000000 0.783808
0.990721 0.000000 0.734138
0.000000 0.114784 1.000000
0.000000 0.074845 1.000000
0.028071 0.043252 0.991037
0.263877 0.023448 0.936323
0.474757 0.011274 0.866052
0.655701 0.005180 0.798113
0.818535 0.000032 0.741233
0.979961 0.000000 0.702305
0.000000 0.339199 1.000000
0.000000 0.289551 1.000000
0.003151 0.243391 0.998754
0.215227 0.205508 0.948154
0.433926 0.176647 0.855128
0.621499 0.151122 0.769774
0.791727 0.117905 0.709524
0.964602 0.074093 0.682791
0.000000 0.548766 1.000000
0.000000 0.496192 1.000000
0.000045 0.443547 0.993422
0.173417 0.394210 0.920381
0.390696 0.351282 0.826347
0.586127 0.313081 0.742245
0.764691 0.278074 0.688192
0.938819 0.251186 0.670477
0.000000 0.726112 0.999891
0.000000 0.674285 0.988120
0.000016 0.621182 0.923837
0.150113 0.571414 0.848833
0.352709 0.527097 0.772427
0.548331 0.485982 0.704657
0.733327 0.456545 0.665858
0.914431 0.446248 0.662731
0.000000 0.870898 0.921404
0.000000 0.826402 0.871344
0.000043 0.779645 0.816639
0.134185 0.738552 0.764375
0.319801 0.701420 0.714571
0.513074 0.664201 0.668359
0.705351 0.641542 0.646603
0.902003 0.643474 0.661500
0.000000 0.991119 0.806500
0.000000 0.965535 0.767608
0.000000 0.941958 0.732373
0.101408 0.919507 0.705798
0.286507 0.888699 0.679803
0.483965 0.856113 0.653289
0.681192 0.837335 0.641252
0.886385 0.838786 0.655985
0.000000 0.000000 1.000000
0.000000 0.000000 1.000000
0.126473 0.000000 1.000000
0.323210 0.000000 1.000000
0.506254 0.000000 1.000000
0.669748 0.000000 0.999642
0.810765 0.000000 0.961435
0.929936 0.000000 0.887494
0.000000 0.000000 1.000000
0.000000 0.000000 1.000000
0.062848 0.000000 1.000000
0.278090 0.000000 1.000000
0.472270 0.000000 1.000000
0.640695 0.000000 0.997883
0.786017 0.000000 0.935513
0.912276 0.000000 0.862486
0.000000 0.100989 1.000000
0.000000 0.052472 1.000000
0.006570 0.013047 1.000000
0.221846 0.002305 1.000000
0.429692 0.000000 1.000000
0.607750 0.000000 0.992037
0.761743 0.000000 0.915068
0.904020 0.000000 0.849461
0.000000 0.329411 1.000000
0.000000 0.267867 1.000000
0.000000 0.212061 1.000000
0.153821 0.164644 1.000000
0.377505 0.126297 1.000000
0.571978 0.097669 0.976731
0.743024 0.074314 0.902597
0.907789 0.047681 0.854257
0.000000 0.538807 1.000000
0.000000 0.474374 1.000000
0.000000 0.412996 1.000000
0.087765 0.359007 1.000000
0.323138 0.315037 0.999715
0.534027 0.279005 0.948325
0.720913 0.247635 0.885350
0.897794 0.221311 0.852484
0.000000 0.705471 1.000000
0.000000 0.648877 1.000000
0.000000 0.594172 1.000000
0.045983 0.545620 1.000000
0.276759 0.504907 0.990224
0.494799 0.469822 0.914066
0.691134 0.441545 0.862782
0.875780 0.424050 0.842225
0.000000 0.830269 1.000000
0.000000 0.787451 1.000000
0.000000 0.747706 0.999611
0.036448 0.716461 0.993440
0.245557 0.687139 0.939774
0.461324 0.657516 0.881516
0.665044 0.636636 0.846561
0.861917 0.629349 0.839306
0.000000 0.928740 0.952456
0.000000 0.901366 0.926919
0.000000 0.884694 0.909816
0.038412 0.882776 0.904284
0.226139 0.870861 0.885882
0.438106 0.848696 0.856918
0.647065 0.835099 0.839983
0.854610 0.834562 0.841919
