ecomm/src/main/assets/lut/NaturalBoost - converted with Color.cube
TITLE "NaturalBoost - converted with Color.io - Created with Color.io"
LUT_3D_SIZE 5
DOMAIN_MIN 0.000000 0.000000 0.000000
DOMAIN_MAX 0.903226 0.903226 0.903226
0.000001 0.000001 0.000001
0.166458 0.000000 0.000000
0.457092 0.000000 0.000000
0.740679 0.000000 0.000000
0.983648 0.000000 0.000000
0.000000 0.234262 0.000000
0.163193 0.125739 0.000000
0.400395 0.023926 0.000000
0.822537 0.000000 0.000000
1.000000 0.000000 0.000000
0.000000 0.457779 0.000000
0.217057 0.407091 0.000000
0.497487 0.341742 0.000000
0.931695 0.271136 0.000000
1.000000 0.306861 0.000000
0.000000 0.680993 0.000000
0.234756 0.664726 0.000000
0.540463 0.662252 0.000000
0.965858 0.701717 0.000000
1.000000 0.761738 0.000000
0.006965 0.917746 0.000000
0.268152 0.928805 0.000000
0.559597 0.962252 0.000000
0.927461 0.999688 0.000000
1.000000 1.000000 0.000000
0.000000 0.000000 0.250883
0.151114 0.000000 0.232214
0.414998 0.000000 0.227877
0.672810 0.000000 0.225754
0.946207 0.000000 0.255338
0.000000 0.247965 0.190757
0.113641 0.123307 0.132388
0.406260 0.040801 0.097142
0.760131 0.009393 0.107158
1.000000 0.022411 0.194691
0.000000 0.508217 0.110938
0.114655 0.401939 0.079993
0.447279 0.348536 0.051213
0.867469 0.350569 0.060416
1.000000 0.399823 0.168872
0.000000 0.772029 0.036832
0.151524 0.704257 0.071744
0.484646 0.690681 0.084898
0.888633 0.732741 0.082343
1.000000 0.781286 0.154458
0.000000 1.000000 0.030957
0.211897 0.997387 0.081452
0.512831 0.997356 0.106834
0.845727 1.000000 0.099907
1.000000 1.000000 0.108912
0.000000 0.000000 0.487490
0.078978 0.000000 0.491219
0.355355 0.000000 0.502411
0.642748 0.000000 0.526379
0.943875 0.000000 0.568160
0.000000 0.261415 0.485500
0.043413 0.135530 0.427616
0.352304 0.086625 0.431766
0.697911 0.091541 0.481707
1.000000 0.098244 0.544896
0.000000 0.558076 0.426951
0.040995 0.446297 0.396619
0.386694 0.395485 0.403314
0.774997 0.405361 0.449825
1.000000 0.426820 0.518398
0.000000 0.858857 0.358345
0.086741 0.767920 0.381182
0.428340 0.723292 0.405156
0.795819 0.731883 0.427645
1.000000 0.771799 0.522762
0.000000 1.000000 0.342201
0.164665 1.000000 0.382501
0.460432 0.999422 0.405174
0.764302 0.998983 0.406092
1.000000 1.000000 0.428550
0.000000 0.000000 0.721443
0.009268 0.000000 0.773531
0.312356 0.000000 0.806410
0.637835 0.000000 0.839580
0.957402 0.000000 0.870658
0.000000 0.257038 0.767350
0.013063 0.166481 0.749282
0.336451 0.133133 0.762587
0.670624 0.130095 0.792562
0.997211 0.113043 0.829521
0.000000 0.583586 0.771590
0.008411 0.495715 0.754019
0.353967 0.441833 0.745690
0.698859 0.422685 0.755343
0.999745 0.408900 0.780914
0.000000 0.923265 0.733274
0.017775 0.822560 0.738121
0.368858 0.748589 0.730932
0.705116 0.712988 0.723169
0.998173 0.718537 0.766913
0.000000 1.000000 0.686888
0.090847 1.000000 0.704366
0.397050 0.999952 0.703506
0.690881 0.989605 0.687313
0.976685 0.989334 0.704267
0.000000 0.007071 0.967744
0.006916 0.000000 1.000000
0.312232 0.000000 1.000000
0.628578 0.000000 1.000000
0.925605 0.000000 1.000000
0.000000 0.273957 1.000000
0.010334 0.216393 1.000000
0.344277 0.192170 1.000000
0.655656 0.173891 1.000000
0.955973 0.146694 1.000000
0.000000 0.590052 1.000000
0.004179 0.523069 1.000000
0.345898 0.469627 1.000000
0.664349 0.433098 0.999952
0.959578 0.402809 0.999750
0.000000 0.923153 1.000000
0.000018 0.841863 1.000000
0.325962 0.755871 1.000000
0.649320 0.696196 0.996499
0.939078 0.665463 0.979689
0.000000 1.000000 0.999543
0.008440 1.000000 0.999997
0.327678 0.999986 0.997838
0.629416 0.968928 0.963371
0.913082 0.931425 0.936020
