ecomm/src/main/assets/lut/NaturalBoost - converted with Color.cube
TITLE "NaturalBoost - converted with Color.io - Created with Color.io"
LUT_3D_SIZE 32
DOMAIN_MIN 0.0 0.0 0.0
DOMAIN_MAX 1.0 1.0 1.0
0.000001 0.000001 0.000001
0.017307 0.000000 0.000000
0.035653 0.000000 0.000000
0.055928 0.000000 0.000000
0.078823 0.000000 0.000000
0.104782 0.000000 0.000000
0.133999 0.000000 0.000000
0.166458 0.000000 0.000000
0.201977 0.000000 0.000000
0.240233 0.000000 0.000000
0.280776 0.000000 0.000000
0.323230 0.000000 0.000000
0.367232 0.000000 0.000000
0.412093 0.000000 0.000000
0.457092 0.000000 0.000000
0.501624 0.000000 0.000000
0.545204 0.000000 0.000000
0.587472 0.000000 0.000000
0.628240 0.000000 0.000000
0.667308 0.000000 0.000000
0.704683 0.000000 0.000000
0.740679 0.000000 0.000000
0.775770 0.000000 0.000000
0.810332 0.000000 0.000000
0.844627 0.000000 0.000000
0.878905 0.000000 0.000000
0.913415 0.000000 0.000000
0.948315 0.000000 0.000000
0.983648 0.000000 0.000000
0.999159 0.000000 0.000000
1.000000 0.000000 0.000000
1.000000 0.000000 0.000000
0.000000 0.033964 0.000000
0.016511 0.025526 0.000000
0.035667 0.016977 0.000000
0.056531 0.008167 0.000000
0.079718 0.000481 0.000000
0.105631 0.000126 0.000000
0.134462 0.000000 0.000000
0.166212 0.000000 0.000000
0.200747 0.000000 0.000000
0.237816 0.000000 0.000000
0.277060 0.000000 0.000000
0.318224 0.000000 0.000000
0.361110 0.000000 0.000000
0.405241 0.000000 0.000000
0.450133 0.000000 0.000000
0.495328 0.000000 0.000000
0.540416 0.000000 0.000000
0.585100 0.000000 0.000000
0.629154 0.000000 0.000000
0.672326 0.000000 0.000000
0.714448 0.000000 0.000000
0.755522 0.000000 0.000000
0.795720 0.000000 0.000000
0.835187 0.000000 0.000000
0.874037 0.000000 0.000000
0.912420 0.000000 0.000000
0.950445 0.000000 0.000000
0.987296 0.000000 0.000000
0.999202 0.000000 0.000000
1.000000 0.000000 0.000000
1.000000 0.000000 0.000000
1.000000 0.000000 0.000000
0.000000 0.067852 0.000000
0.015631 0.056229 0.000000
0.035557 0.044653 0.000000
0.056948 0.033155 0.000000
0.080356 0.021643 0.000000
0.106144 0.010118 0.000000
0.134496 0.000793 0.000000
0.165439 0.000167 0.000000
0.198890 0.000000 0.000000
0.234671 0.000000 0.000000
0.272518 0.000000 0.000000
0.312304 0.000000 0.000000
0.354000 0.000000 0.000000
0.397342 0.000000 0.000000
0.442084 0.000000 0.000000
0.487917 0.000000 0.000000
0.534504 0.000000 0.000000
0.581612 0.000000 0.000000
0.628976 0.000000 0.000000
0.676291 0.000000 0.000000
0.723208 0.000000 0.000000
0.769408 0.000000 0.000000
0.814762 0.000000 0.000000
0.859179 0.000000 0.000000
0.902621 0.000000 0.000000
0.945131 0.000000 0.000000
0.985079 0.000000 0.000000
0.998834 0.000000 0.000000
1.000000 0.000000 0.000000
1.000000 0.000000 0.000000
1.000000 0.000000 0.000000
1.000000 0.000000 0.000000
0.000000 0.101599 0.000000
0.014658 0.087308 0.000000
0.035283 0.073221 0.000000
0.057134 0.059477 0.000000
0.080674 0.046129 0.000000
0.106229 0.033085 0.000000
0.133978 0.020176 0.000000
0.163977 0.007976 0.000000
0.196199 0.000880 0.000000
0.230546 0.000138 0.000000
0.266857 0.000000 0.000000
0.305136 0.000000 0.000000
0.345528 0.000000 0.000000
0.387985 0.000000 0.000000
0.432508 0.000000 0.000000
0.478928 0.000000 0.000000
0.526985 0.000000 0.000000
0.576511 0.000000 0.000000
0.627202 0.000000 0.000000
0.678698 0.000000 0.000000
0.730469 0.000000 0.000000
0.781870 0.000000 0.000000
0.832449 0.000000 0.000000
0.881868 0.000000 0.000000
0.929921 0.000000 0.000000
0.975434 0.000000 0.000000
0.997187 0.000000 0.000000
1.000000 0.000000 0.000000
1.000000 0.000000 0.000000
1.000000 0.000000 0.000000
1.000000 0.000000 0.000000
1.000000 0.000000 0.000000
0.000000 0.135145 0.000000
0.013625 0.118891 0.000000
0.034940 0.102948 0.000000
0.057227 0.087550 0.000000
0.080863 0.072807 0.000000
0.106130 0.058699 0.000000
0.133204 0.045062 0.000000
0.162172 0.031644 0.000000
0.193066 0.018150 0.000000
0.225876 0.006090 0.000000
0.260545 0.000985 0.000000
0.297213 0.000122 0.000000
0.336204 0.000000 0.000000
0.377685 0.000000 0.000000
0.421899 0.000000 0.000000
0.468820 0.000000 0.000000
0.518262 0.000000 0.000000
0.570119 0.000000 0.000000
0.624047 0.000000 0.000000
0.679631 0.000000 0.000000
0.736161 0.000000 0.000000
0.792668 0.000000 0.000000
0.848386 0.000000 0.000000
0.902733 0.000000 0.000000
0.955333 0.000000 0.000000
0.993045 0.000000 0.000000
1.000000 0.000000 0.000000
1.000000 0.000000 0.000000
1.000000 0.000000 0.000000
1.000000 0.000000 0.000000
1.000000 0.000000 0.000000
1.000000 0.000000 0.000000
0.000000 0.168452 0.000000
0.012615 0.151046 0.000000
0.034706 0.134007 0.000000
0.057512 0.117618 0.000000
0.081325 0.102034 0.000000
0.106374 0.087262 0.000000
0.132832 0.073169 0.000000
0.160817 0.059510 0.000000
0.190422 0.045984 0.000000
0.221721 0.032286 0.000000
0.254764 0.018164 0.000000
0.289826 0.006028 0.000000
0.327402 0.001298 0.000000
0.367870 0.000153 0.000000
0.411706 0.000000 0.000000
0.459024 0.000000 0.000000
0.509709 0.000000 0.000000
0.563723 0.000000 0.000000
0.620689 0.000000 0.000000
0.680150 0.000000 0.000000
0.741227 0.000000 0.000000
0.802630 0.000000 0.000000
0.863278 0.000000 0.000000
0.922330 0.000000 0.000000
0.977637 0.000000 0.000000
0.997716 0.000000 0.000000
1.000000 0.000000 0.000000
1.000000 0.000000 0.000000
1.000000 0.000000 0.000000
1.000000 0.000000 0.000000
1.000000 0.000000 0.000000
1.000000 0.000000 0.000000
0.000000 0.201494 0.000000
0.011729 0.183770 0.000000
0.034785 0.166418 0.000000
0.058311 0.149730 0.000000
0.082514 0.133876 0.000000
0.107576 0.118885 0.000000
0.133651 0.104645 0.000000
0.160888 0.090935 0.000000
0.189433 0.077472 0.000000
0.219439 0.063958 0.000000
0.251057 0.050134 0.000000
0.284682 0.035729 0.000000
0.320966 0.020459 0.000000
0.360480 0.007461 0.000000
0.403910 0.001812 0.000000
0.451502 0.000210 0.000000
0.503211 0.000000 0.000000
0.559058 0.000000 0.000000
0.618646 0.000000 0.000000
0.681483 0.000000 0.000000
0.746548 0.000000 0.000000
0.812281 0.000000 0.000000
0.877317 0.000000 0.000000
0.940597 0.000000 0.000000
0.989494 0.000000 0.000000
1.000000 0.000000 0.000000
1.000000 0.000000 0.000000
1.000000 0.000000 0.000000
1.000000 0.000000 0.000000
1.000000 0.000000 0.000000
1.000000 0.000000 0.000000
1.000000 0.000000 0.000000
0.000000 0.234262 0.000000
0.011035 0.216985 0.000000
0.035315 0.200044 0.000000
0.059848 0.183706 0.000000
0.084765 0.168132 0.000000
0.110199 0.153355 0.000000
0.136290 0.139287 0.000000
0.163193 0.125739 0.000000
0.191101 0.112454 0.000000
0.220233 0.099165 0.000000
0.250821 0.085627 0.000000
0.283361 0.071578 0.000000
0.318627 0.056735 0.000000
0.357350 0.040907 0.000000
0.400395 0.023926 0.000000
0.448126 0.009556 0.000000
0.500566 0.002578 0.000000
0.557802 0.000289 0.000000
0.619432 0.000000 0.000000
0.684952 0.000000 0.000000
0.753246 0.000000 0.000000
0.822537 0.000000 0.000000
0.891227 0.000000 0.000000
0.958065 0.000000 0.000000
0.993553 0.000000 0.000000
1.000000 0.000000 0.000000
1.000000 0.000000 0.000000
1.000000 0.000000 0.000000
1.000000 0.000000 0.000000
1.000000 0.000000 0.000000
1.000000 0.000000 0.000000
1.000000 0.000000 0.000000
0.000000 0.266763 0.000000
0.010549 0.250554 0.000000
0.036315 0.234617 0.000000
0.062161 0.219172 0.000000
0.088154 0.204349 0.000000
0.114385 0.190179 0.000000
0.140976 0.176589 0.000000
0.168085 0.163422 0.000000
0.195926 0.150463 0.000000
0.224765 0.137478 0.000000
0.254898 0.124256 0.000000
0.286889 0.110560 0.000000
0.321599 0.096126 0.000000
0.359876 0.080762 0.000000
0.402713 0.064295 0.000000
0.450569 0.046704 0.000000
0.503525 0.028086 0.000000
0.561727 0.012325 0.000000
0.624785 0.003965 0.000000
0.692207 0.000418 0.000000
0.762833 0.000000 0.000000
0.834740 0.000000 0.000000
0.906159 0.000000 0.000000
0.974286 0.000000 0.000000
0.997531 0.000000 0.000000
1.000000 0.000000 0.000000
1.000000 0.000000 0.000000
1.000000 0.000000 0.000000
1.000000 0.000000 0.000000
1.000000 0.000000 0.000000
1.000000 0.000000 0.000000
1.000000 0.000903 0.000000
0.000000 0.299015 0.000000
0.010224 0.284302 0.000000
0.037670 0.269785 0.000000
0.065078 0.255624 0.000000
0.092467 0.241910 0.000000
0.119895 0.228661 0.000000
0.147466 0.215815 0.000000
0.175333 0.203242 0.000000
0.203722 0.190767 0.000000
0.232919 0.178201 0.000000
0.263249 0.165363 0.000000
0.295319 0.152053 0.000000
0.330030 0.138035 0.000000
0.368292 0.123142 0.000000
0.411172 0.107216 0.000000
0.459189 0.090241 0.000000
0.512471 0.072315 0.000000
0.571210 0.053538 0.000000
0.635040 0.034170 0.000000
0.703505 0.017075 0.000000
0.775450 0.007646 0.000000
0.848906 0.003146 0.000000
0.922011 0.000236 0.000000
0.984268 0.000000 0.000000
1.000000 0.000000 0.000000
1.000000 0.000000 0.000000
1.000000 0.000000 0.000000
1.000000 0.000000 0.000000
1.000000 0.002388 0.000000
1.000000 0.007435 0.000000
1.000000 0.013257 0.000000
1.000000 0.021947 0.000000
0.000000 0.331049 0.000000
0.009974 0.318051 0.000000
0.039174 0.305176 0.000000
0.068272 0.292520 0.000000
0.097263 0.280138 0.000000
0.126182 0.268028 0.000000
0.155119 0.256130 0.000000
0.184219 0.244340 0.000000
0.213707 0.232516 0.000000
0.243877 0.220504 0.000000
0.275069 0.208168 0.000000
0.307878 0.195332 0.000000
0.343213 0.181799 0.000000
0.381991 0.167439 0.000000
0.425285 0.152129 0.000000
0.473630 0.135879 0.000000
0.527116 0.118804 0.000000
0.585965 0.101021 0.000000
0.650088 0.082788 0.000000
0.718892 0.064575 0.000000
0.791206 0.047157 0.000000
0.865165 0.031528 0.000000
0.938912 0.019755 0.000000
0.988577 0.014851 0.000000
1.000000 0.013621 0.000000
1.000000 0.013747 0.000000
1.000000 0.015539 0.000000
1.000000 0.018947 0.000000
1.000000 0.028632 0.000000
1.000000 0.045935 0.000000
1.000000 0.066391 0.000000
1.000000 0.088255 0.000000
0.000000 0.362899 0.000000
0.009705 0.351648 0.000000
0.040593 0.340456 0.000000
0.071365 0.329370 0.000000
0.102011 0.318406 0.000000
0.132557 0.307546 0.000000
0.163083 0.296732 0.000000
0.193729 0.285873 0.000000
0.224712 0.274855 0.000000
0.256318 0.263555 0.000000
0.288880 0.251868 0.000000
0.322982 0.239656 0.000000
0.359477 0.226744 0.000000
0.399255 0.213048 0.000000
0.443336 0.198494 0.000000
0.492229 0.183127 0.000000
0.545958 0.167090 0.000000
0.604664 0.150531 0.000000
0.668588 0.133716 0.000000
0.737277 0.117119 0.000000
0.809288 0.101503 0.000000
0.882923 0.087805 0.000000
0.956472 0.076685 0.000000
0.993050 0.068847 0.000000
1.000000 0.064872 0.000000
1.000000 0.065128 0.000000
1.000000 0.070492 0.000000
1.000000 0.081001 0.000000
1.000000 0.095878 0.000000
1.000000 0.114144 0.000000
1.000000 0.134738 0.000000
1.000000 0.156547 0.000000
0.000000 0.394609 0.000000
0.009351 0.384989 0.000000
0.041737 0.375385 0.000000
0.074035 0.365801 0.000000
0.106238 0.356228 0.000000
0.138378 0.346635 0.000000
0.170531 0.336964 0.000000
0.202830 0.327136 0.000000
0.235480 0.317055 0.000000
0.268746 0.306624 0.000000
0.302936 0.295767 0.000000
0.338590 0.284372 0.000000
0.376503 0.272303 0.000000
0.417468 0.259503 0.000000
0.462441 0.245952 0.000000
0.511895 0.231726 0.000000
0.565859 0.216991 0.000000
0.624479 0.201915 0.000000
0.688017 0.186793 0.000000
0.756095 0.172095 0.000000
0.827411 0.158534 0.000000
0.900407 0.146967 0.000000
0.972188 0.137959 0.000000
0.997283 0.132120 0.000000
1.000000 0.129957 0.000000
1.000000 0.131769 0.000000
1.000000 0.138334 0.000000
1.000000 0.149656 0.000000
1.000000 0.164994 0.000000
1.000000 0.183437 0.000000
1.000000 0.204005 0.000000
1.000000 0.225678 0.000000
0.000000 0.426221 0.000000
0.008892 0.418032 0.000000
0.042511 0.409829 0.000000
0.076091 0.401596 0.000000
0.109641 0.393307 0.000000
0.143205 0.384920 0.000000
0.176864 0.376383 0.000000
0.210749 0.367626 0.000000
0.245051 0.358567 0.000000
0.280015 0.349130 0.000000
0.315915 0.339256 0.000000
0.353239 0.328859 0.000000
0.392708 0.317830 0.000000
0.435029 0.306157 0.000000
0.481035 0.293844 0.000000
0.531156 0.281008 0.000000
0.585416 0.267831 0.000000
0.643959 0.254500 0.000000
0.707054 0.241334 0.000000
0.774397 0.228796 0.000000
0.844835 0.217534 0.000000
0.916963 0.208313 0.000000
0.981338 0.201595 0.000000
1.000000 0.197878 0.000000
1.000000 0.197579 0.000000
1.000000 0.200919 0.000000
1.000000 0.208540 0.000000
1.000000 0.220386 0.000000
1.000000 0.235751 0.000000
1.000000 0.253821 0.000000
1.000000 0.273746 0.000000
1.000000 0.294636 0.000000
0.000000 0.457779 0.000000
0.008366 0.450787 0.000000
0.042924 0.443767 0.000000
0.077499 0.436694 0.000000
0.112124 0.429535 0.000000
0.146858 0.422249 0.000000
0.181792 0.414787 0.000000
0.217057 0.407091 0.000000
0.252838 0.399092 0.000000
0.289357 0.390728 0.000000
0.326857 0.381956 0.000000
0.365776 0.372711 0.000000
0.406758 0.362911 0.000000
0.450419 0.352570 0.000000
0.497487 0.341742 0.000000
0.548315 0.330541 0.000000
0.602924 0.319170 0.000000
0.661449 0.307828 0.000000
0.724160 0.296851 0.000000
0.790820 0.286680 0.000000
0.860417 0.277889 0.000000
0.931695 0.271136 0.000000
0.985649 0.266770 0.000000
1.000000 0.265171 0.000000
1.000000 0.266657 0.000000
1.000000 0.271366 0.000000
1.000000 0.279795 0.000000
1.000000 0.291843 0.000000
1.000000 0.306861 0.000000
1.000000 0.324137 0.000000
1.000000 0.342957 0.000000
1.000000 0.362581 0.000000
0.000000 0.489330 0.000000
0.007858 0.483310 0.000000
0.043078 0.477261 0.000000
0.078370 0.471156 0.000000
0.113789 0.464965 0.000000
0.149410 0.458653 0.000000
0.185336 0.452179 0.000000
0.221703 0.445496 0.000000
0.258690 0.438551 0.000000
0.296505 0.431296 0.000000
0.335361 0.423700 0.000000
0.375653 0.415717 0.000000
0.417962 0.407292 0.000000
0.462817 0.398462 0.000000
0.510848 0.389306 0.000000
0.562354 0.379966 0.000000
0.617327 0.370615 0.000000
0.675899 0.361470 0.000000
0.738338 0.352868 0.000000
0.804458 0.345221 0.000000
0.873369 0.339015 0.000000
0.943939 0.334789 0.000000
0.989308 0.332778 0.000000
1.000000 0.333240 0.000000
1.000000 0.336391 0.000000
1.000000 0.342280 0.000000
1.000000 0.351256 0.000000
1.000000 0.363181 0.000000
1.000000 0.377495 0.000000
1.000000 0.393603 0.000000
1.000000 0.410921 0.000000
1.000000 0.428865 0.000000
0.000000 0.520918 0.000000
0.007479 0.515684 0.000000
0.043134 0.510428 0.000000
0.078907 0.505126 0.000000
0.114871 0.499756 0.000000
0.151116 0.494294 0.000000
0.187756 0.488710 0.000000
0.224932 0.482973 0.000000
0.262823 0.477047 0.000000
0.301624 0.470895 0.000000
0.341527 0.464501 0.000000
0.382894 0.457837 0.000000
0.426257 0.450880 0.000000
0.472073 0.443681 0.000000
0.520895 0.436339 0.000000
0.572971 0.429000 0.000000
0.628281 0.421838 0.000000
0.686939 0.415034 0.000000
0.749214 0.408928 0.000000
0.814958 0.403890 0.000000
0.883374 0.400310 0.000000
0.953422 0.398601 0.000000
0.992199 0.398888 0.000000
1.000000 0.401310 0.000000
1.000000 0.405981 0.000000
1.000000 0.412871 0.000000
1.000000 0.422176 0.000000
1.000000 0.433724 0.000000
1.000000 0.447037 0.000000
1.000000 0.461644 0.000000
1.000000 0.477112 0.000000
1.000000 0.493024 0.000000
0.000000 0.552588 0.000000
0.007355 0.548005 0.000000
0.043279 0.543407 0.000000
0.079355 0.538782 0.000000
0.115669 0.534117 0.000000
0.152323 0.529400 0.000000
0.189441 0.524617 0.000000
0.227167 0.519752 0.000000
0.265680 0.514786 0.000000
0.305168 0.509704 0.000000
0.345808 0.504496 0.000000
0.387937 0.499161 0.000000
0.432053 0.493705 0.000000
0.478563 0.488191 0.000000
0.527961 0.482736 0.000000
0.580460 0.477477 0.000000
0.636023 0.472569 0.000000
0.694762 0.468193 0.000000
0.756937 0.464635 0.000000
0.822429 0.462225 0.000000
0.890501 0.461250 0.000000
0.960180 0.461996 0.000000
0.994328 0.464476 0.000000
1.000000 0.468713 0.000000
1.000000 0.474723 0.000000
1.000000 0.482402 0.000000
1.000000 0.491800 0.000000
1.000000 0.502725 0.000000
1.000000 0.514805 0.000000
1.000000 0.527694 0.000000
1.000000 0.541098 0.000000
1.000000 0.554760 0.000000
0.000000 0.584387 0.000000
0.007608 0.580364 0.000000
0.043693 0.576338 0.000000
0.079952 0.572304 0.000000
0.116482 0.568262 0.000000
0.153392 0.564211 0.000000
0.190809 0.560154 0.000000
0.228883 0.556092 0.000000
0.267789 0.552026 0.000000
0.307713 0.547958 0.000000
0.348820 0.543895 0.000000
0.391430 0.539855 0.000000
0.436021 0.535879 0.000000
0.482964 0.532044 0.000000
0.532716 0.528477 0.000000
0.585464 0.525302 0.000000
0.641166 0.522646 0.000000
0.699927 0.520667 0.000000
0.762004 0.519642 0.000000
0.827298 0.519802 0.000000
0.895116 0.521346 0.000000
0.964536 0.524430 0.000000
0.995741 0.528965 0.000000
1.000000 0.534863 0.000000
1.000000 0.542046 0.000000
1.000000 0.550344 0.000000
1.000000 0.559667 0.000000
1.000000 0.569804 0.000000
1.000000 0.580479 0.000000
1.000000 0.591477 0.000000
1.000000 0.602653 0.000000
1.000000 0.613908 0.000000
0.000000 0.616357 0.000000
0.008342 0.612848 0.000000
0.044529 0.609344 0.000000
0.080904 0.605851 0.000000
0.117568 0.602380 0.000000
0.154635 0.598942 0.000000
0.192234 0.595557 0.000000
0.230514 0.592240 0.000000
0.269649 0.589015 0.000000
0.309820 0.585901 0.000000
0.351185 0.582919 0.000000
0.394054 0.580114 0.000000
0.438887 0.577558 0.000000
0.486037 0.575341 0.000000
0.535935 0.573598 0.000000
0.588754 0.572439 0.000000
0.644447 0.571956 0.000000
0.703114 0.572283 0.000000
0.765005 0.573657 0.000000
0.830022 0.576266 0.000000
0.897492 0.580163 0.000000
0.966508 0.585396 0.000000
0.996510 0.591783 0.000000
1.000000 0.599138 0.000000
1.000000 0.607304 0.000000
1.000000 0.616053 0.000000
1.000000 0.625172 0.000000
1.000000 0.634429 0.000000
1.000000 0.643631 0.000000
1.000000 0.652686 0.000000
1.000000 0.661592 0.000000
1.000000 0.670408 0.000000
0.000000 0.648545 0.000000
0.009643 0.645529 0.000000
0.045906 0.642526 0.000000
0.082364 0.639551 0.000000
0.119120 0.636623 0.000000
0.156287 0.633768 0.000000
0.193996 0.631014 0.000000
0.232391 0.628399 0.000000
0.271644 0.625960 0.000000
0.311931 0.623738 0.000000
0.353404 0.621765 0.000000
0.396364 0.620113 0.000000
0.441259 0.618886 0.000000
0.488429 0.618184 0.000000
0.538292 0.618150 0.000000
0.591012 0.618878 0.000000
0.646544 0.620426 0.000000
0.704986 0.622900 0.000000
0.766590 0.626499 0.000000
0.831264 0.631345 0.000000
0.898356 0.637407 0.000000
0.966985 0.644583 0.000000
0.996686 0.652624 0.000000
1.000000 0.661257 0.000000
1.000000 0.670244 0.000000
1.000000 0.679298 0.000000
1.000000 0.688094 0.000000
1.000000 0.696401 0.000000
1.000000 0.704106 0.000000
1.000000 0.711218 0.000000
1.000000 0.717869 0.000000
1.000000 0.724270 0.000000
0.000000 0.680993 0.000000
0.011577 0.678469 0.000000
0.047911 0.675964 0.000000
0.084441 0.673501 0.000000
0.121272 0.671107 0.000000
0.158515 0.668819 0.000000
0.196296 0.666675 0.000000
0.234756 0.664726 0.000000
0.274062 0.663029 0.000000
0.314382 0.661639 0.000000
0.355862 0.660602 0.000000
0.398796 0.660012 0.000000
0.443659 0.660016 0.000000
0.490809 0.660735 0.000000
0.540463 0.662252 0.000000
0.592818 0.664659 0.000000
0.647989 0.668033 0.000000
0.706034 0.672442 0.000000
0.767170 0.678035 0.000000
0.831313 0.684871 0.000000
0.897827 0.692829 0.000000
0.965858 0.701717 0.000000
0.996505 0.711191 0.000000
1.000000 0.720923 0.000000
1.000000 0.730604 0.000000
1.000000 0.739872 0.000000
1.000000 0.748256 0.000000
1.000000 0.755542 0.000000
1.000000 0.761738 0.000000
1.000000 0.766962 0.000000
1.000000 0.771457 0.000000
1.000000 0.775561 0.000000
0.000000 0.713743 0.000000
0.014188 0.711718 0.000000
0.050596 0.709720 0.000000
0.087201 0.707774 0.000000
0.124104 0.705917 0.000000
0.161415 0.704191 0.000000
0.199254 0.702646 0.000000
0.237755 0.701343 0.000000
0.277076 0.700351 0.000000
0.317379 0.699740 0.000000
0.358803 0.699568 0.000000
0.401631 0.699946 0.000000
0.446327 0.701052 0.000000
0.493269 0.703027 0.000000
0.542633 0.705937 0.000000
0.594518 0.709828 0.000000
0.649160 0.714799 0.000000
0.706619 0.720892 0.000000
0.767079 0.728208 0.000000
0.830455 0.736751 0.000000
0.896127 0.746318 0.000000
0.963261 0.756629 0.000000
0.995809 0.767291 0.000000
1.000000 0.777894 0.000000
1.000000 0.788087 0.000000
1.000000 0.797444 0.000000
1.000000 0.805373 0.000000
1.000000 0.811662 0.000000
1.000000 0.816430 0.000000
1.000000 0.819895 0.000000
1.000000 0.822395 0.000000
1.000000 0.824381 0.000000
0.000000 0.746829 0.000000
0.017493 0.745315 0.000000
0.053980 0.743833 0.000000
0.090661 0.742414 0.000000
0.127635 0.741099 0.000000
0.165009 0.739936 0.000000
0.202894 0.738983 0.000000
0.241420 0.738308 0.000000
0.280732 0.737991 0.000000
0.320984 0.738112 0.000000
0.362307 0.738738 0.000000
0.404970 0.739993 0.000000
0.449417 0.742078 0.000000
0.496014 0.745144 0.000000
0.544930 0.749249 0.000000
0.596266 0.754424 0.000000
0.650251 0.760757 0.000000
0.706947 0.768266 0.000000
0.766531 0.777017 0.000000
0.828923 0.786966 0.000000
0.893527 0.797846 0.000000
0.959536 0.809299 0.000000
0.994700 0.820888 0.000000
1.000000 0.832156 0.000000
1.000000 0.842691 0.000000
1.000000 0.852023 0.000000
1.000000 0.859462 0.000000
1.000000 0.864805 0.000000
1.000000 0.868256 0.000000
1.000000 0.870111 0.000000
1.000000 0.870796 0.000000
1.000000 0.870859 0.000000
0.000000 0.780278 0.000000
0.021493 0.779286 0.000000
0.058057 0.778330 0.000000
0.094812 0.777447 0.000000
0.131853 0.776680 0.000000
0.169281 0.776083 0.000000
0.207201 0.775717 0.000000
0.245734 0.775657 0.000000
0.285017 0.775988 0.000000
0.325189 0.776796 0.000000
0.366374 0.778155 0.000000
0.408823 0.780198 0.000000
0.452958 0.783138 0.000000
0.499126 0.787133 0.000000
0.547491 0.792237 0.000000
0.598153 0.798469 0.000000
0.651332 0.805906 0.000000
0.707092 0.814548 0.000000
0.765605 0.824435 0.000000
0.826799 0.835485 0.000000
0.890104 0.847377 0.000000
0.954749 0.859695 0.000000
0.993238 0.871962 0.000000
1.000000 0.883684 0.000000
1.000000 0.894395 0.000000
1.000000 0.903572 0.000000
1.000000 0.910452 0.000000
1.000000 0.914881 0.000000
1.000000 0.917146 0.000000
1.000000 0.917603 0.000000
1.000000 0.916731 0.000000
1.000000 0.915148 0.000000
0.000000 0.814104 0.000000
0.026162 0.813643 0.000000
0.062796 0.813222 0.000000
0.099617 0.812881 0.000000
0.136714 0.812668 0.000000
0.174184 0.812639 0.000000
0.212126 0.812857 0.000000
0.250648 0.813401 0.000000
0.289876 0.814357 0.000000
0.329941 0.815816 0.000000
0.370952 0.817851 0.000000
0.413143 0.820601 0.000000
0.456909 0.824286 0.000000
0.502574 0.829064 0.000000
0.550295 0.834985 0.000000
0.600170 0.842057 0.000000
0.652410 0.850352 0.000000
0.707078 0.859855 0.000000
0.764343 0.870583 0.000000
0.824142 0.882427 0.000000
0.885943 0.895030 0.000000
0.949022 0.907935 0.000000
0.991447 0.920641 0.000000
1.000000 0.932628 0.000000
1.000000 0.943408 0.000000
1.000000 0.952430 0.000000
1.000000 0.958859 0.000000
1.000000 0.962508 0.000000
1.000000 0.963709 0.000000
1.000000 0.962872 0.000000
1.000000 0.960547 0.000000
1.000000 0.957430 0.000000
0.000000 0.848306 0.000000
0.031455 0.848381 0.000000
0.068147 0.848499 0.000000
0.105017 0.848705 0.000000
0.142154 0.849048 0.000000
0.179646 0.849586 0.000000
0.217586 0.850385 0.000000
0.256074 0.851521 0.000000
0.295222 0.853084 0.000000
0.335148 0.855160 0.000000
0.375951 0.857823 0.000000
0.417844 0.861210 0.000000
0.461190 0.865540 0.000000
0.506287 0.870968 0.000000
0.553285 0.877538 0.000000
0.602276 0.885255 0.000000
0.653461 0.894179 0.000000
0.706903 0.904287 0.000000
0.762767 0.915583 0.000000
0.821004 0.927937 0.000000
0.881126 0.940972 0.000000
0.942463 0.954205 0.000000
0.989368 0.967123 0.000000
1.000000 0.979189 0.000000
1.000000 0.989894 0.000000
1.000000 0.993178 0.000000
1.000000 0.994440 0.000000
1.000000 0.995221 0.000000
1.000000 0.995519 0.000000
1.000000 0.995409 0.000000
1.000000 0.994991 0.000000
1.000000 0.994400 0.000000
0.001219 0.882866 0.000000
0.037309 0.883481 0.000000
0.074042 0.884143 0.000000
0.110946 0.884899 0.000000
0.148104 0.885801 0.000000
0.185599 0.886909 0.000000
0.223515 0.888286 0.000000
0.261942 0.890008 0.000000
0.300982 0.892159 0.000000
0.340737 0.894824 0.000000
0.381297 0.898071 0.000000
0.422851 0.902032 0.000000
0.465728 0.906918 0.000000
0.510200 0.912877 0.000000
0.556403 0.919948 0.000000
0.604429 0.928132 0.000000
0.654463 0.937482 0.000000
0.706571 0.947973 0.000000
0.760915 0.959597 0.000000
0.817460 0.972219 0.000000
