ecomm/src/main/assets/lut/NaturalBoost - converted with Color.cube
TITLE "NaturalBoost - converted with Color.io - Created with Color.io"
LUT_3D_SIZE 8
DOMAIN_MIN 0.000000 0.000000 0.000000
DOMAIN_MAX 0.903226 0.903226 0.903226
0.000001 0.000001 0.000001
0.078823 0.000000 0.000000
0.201977 0.000000 0.000000
0.367232 0.000000 0.000000
0.545204 0.000000 0.000000
0.704683 0.000000 0.000000
0.844627 0.000000 0.000000
0.983648 0.000000 0.000000
0.000000 0.135145 0.000000
0.080863 0.072807 0.000000
0.193066 0.018150 0.000000
0.336204 0.000000 0.000000
0.518262 0.000000 0.000000
0.736161 0.000000 0.000000
0.955333 0.000000 0.000000
1.000000 0.000000 0.000000
0.000000 0.266763 0.000000
0.088154 0.204349 0.000000
0.195926 0.150463 0.000000
0.321599 0.096126 0.000000
0.503525 0.028086 0.000000
0.762833 0.000000 0.000000
0.997531 0.000000 0.000000
1.000000 0.000000 0.000000
0.000000 0.394609 0.000000
0.106238 0.356228 0.000000
0.235480 0.317055 0.000000
0.376503 0.272303 0.000000
0.565859 0.216991 0.000000
0.827411 0.158534 0.000000
1.000000 0.129957 0.000000
1.000000 0.164994 0.000000
0.000000 0.520918 0.000000
0.114871 0.499756 0.000000
0.262823 0.477047 0.000000
0.426257 0.450880 0.000000
0.628281 0.421838 0.000000
0.883374 0.400310 0.000000
1.000000 0.405981 0.000000
1.000000 0.447037 0.000000
0.000000 0.648545 0.000000
0.119120 0.636623 0.000000
0.271644 0.625960 0.000000
0.441259 0.618886 0.000000
0.646544 0.620426 0.000000
0.898356 0.637407 0.000000
1.000000 0.670244 0.000000
1.000000 0.704106 0.000000
0.000000 0.780278 0.000000
0.131853 0.776680 0.000000
0.285017 0.775988 0.000000
0.452958 0.783138 0.000000
0.651332 0.805906 0.000000
0.890104 0.847377 0.000000
1.000000 0.894395 0.000000
1.000000 0.917146 0.000000
0.006965 0.917746 0.000000
0.154468 0.922876 0.000000
0.307055 0.931532 0.000000
0.470444 0.948412 0.000000
0.655400 0.980362 0.000000
0.869972 0.998625 0.000000
1.000000 1.000000 0.000000
1.000000 1.000000 0.000000
0.000000 0.000000 0.144962
0.065299 0.000000 0.130046
0.200260 0.000000 0.123346
0.357554 0.000000 0.116912
0.514639 0.000000 0.104678
0.662454 0.000000 0.094847
0.807073 0.000000 0.096271
0.958696 0.000000 0.112578
0.000000 0.130850 0.100782
0.055426 0.071314 0.082437
0.185973 0.015497 0.061944
0.340069 0.000000 0.038564
0.512019 0.000000 0.013017
0.701151 0.000000 0.003511
0.898722 0.000000 0.005447
1.000000 0.000000 0.040703
0.000000 0.275105 0.064522
0.044690 0.205951 0.040391
0.177976 0.145597 0.013026
0.334098 0.092174 0.000464
0.521682 0.041629 0.000000
0.746884 0.008626 0.000000
0.984116 0.006416 0.000000
1.000000 0.014021 0.007033
0.000000 0.416554 0.022721
0.041539 0.356419 0.004090
0.189234 0.305438 0.000250
0.358566 0.262789 0.000000
0.563184 0.225649 0.000000
0.807875 0.201239 0.000000
1.000000 0.204505 0.000000
1.000000 0.240553 0.005540
0.000000 0.554312 0.000260
0.043675 0.508146 0.000054
0.205180 0.471969 0.000000
0.385718 0.447354 0.000000
0.599759 0.433427 0.000000
0.851440 0.434383 0.000000
1.000000 0.455246 0.000000
1.000000 0.490829 0.005169
0.000000 0.697304 0.000000
0.053201 0.662506 0.000000
0.222578 0.638365 0.000000
0.404306 0.629254 0.000000
0.613896 0.636647 0.000000
0.860507 0.660954 0.000000
1.000000 0.694172 0.000000
1.000000 0.722612 0.004749
0.000000 0.847108 0.000000
0.074432 0.822499 0.000000
0.246525 0.807933 0.000055
0.423803 0.808360 0.000968
0.620272 0.826418 0.000048
0.848154 0.861464 0.000000
1.000000 0.898846 0.000000
1.000000 0.919207 0.003336
0.000000 0.993802 0.000000
0.107829 0.984968 0.000000
0.275545 0.981430 0.000682
0.444901 0.987923 0.002168
0.625399 0.996631 0.001949
0.827632 0.999705 0.000430
0.999948 1.000000 0.000000
1.000000 1.000000 0.001686
0.000000 0.000000 0.285485
0.040970 0.000000 0.272827
0.180654 0.000000 0.268504
0.331594 0.000000 0.267579
0.480856 0.000000 0.265518
0.628662 0.000000 0.267098
0.781351 0.000000 0.278680
0.943759 0.000000 0.301671
0.000000 0.135705 0.254974
0.015669 0.067955 0.225549
0.153979 0.011362 0.203802
0.312278 0.000000 0.191966
0.482186 0.000000 0.189721
0.661531 0.000000 0.199988
0.852559 0.000000 0.227871
1.000000 0.000000 0.270317
0.000000 0.290385 0.223608
0.001909 0.211090 0.184758
0.137755 0.146282 0.153896
0.307247 0.100259 0.134685
0.499257 0.071561 0.129985
0.709537 0.060166 0.145841
0.932472 0.067594 0.188006
1.000000 0.086970 0.247237
0.000000 0.442193 0.178502
0.000875 0.367117 0.148310
0.138725 0.307832 0.124301
0.321591 0.269008 0.106890
0.532859 0.249395 0.099842
0.767612 0.249486 0.116548
0.991964 0.268852 0.165434
1.000000 0.296367 0.231621
0.000000 0.590388 0.126150
0.001708 0.528810 0.118358
0.153974 0.482370 0.113478
0.344697 0.456906 0.108185
0.563576 0.452234 0.103429
0.808826 0.465968 0.114968
1.000000 0.492627 0.156785
1.000000 0.520799 0.222418
0.000000 0.744568 0.083910
0.004308 0.695714 0.099727
0.179710 0.660906 0.114803
0.369630 0.646438 0.124094
0.580360 0.653505 0.124827
0.817107 0.677255 0.128899
1.000000 0.707457 0.154891
1.000000 0.733477 0.214756
0.000000 0.903893 0.063563
0.029052 0.865946 0.094471
0.212607 0.840452 0.120894
0.395357 0.832473 0.138174
0.589022 0.842720 0.142927
0.803614 0.867252 0.141725
0.998623 0.895799 0.150665
1.000000 0.916358 0.190208
0.000000 1.000000 0.070518
0.073947 0.999463 0.101742
0.248453 0.997957 0.127626
0.419246 0.997566 0.144768
0.594530 0.998330 0.150602
0.783844 1.000000 0.147051
0.985996 1.000000 0.142998
1.000000 1.000000 0.154268
0.000000 0.000000 0.420918
0.003483 0.000000 0.416697
0.140556 0.000000 0.416848
0.294023 0.000000 0.419914
0.450047 0.000000 0.425255
0.607692 0.000000 0.436138
0.770564 0.000000 0.454948
0.941392 0.000000 0.480818
0.000000 0.139264 0.414930
0.000081 0.064170 0.383588
0.113340 0.008703 0.365377
0.276226 0.000363 0.363804
0.450372 0.000000 0.375604
0.632254 0.000000 0.398666
0.823987 0.000000 0.430774
0.998136 0.000000 0.466852
0.000000 0.302001 0.395819
0.000000 0.220338 0.353788
0.097281 0.157206 0.326870
0.272307 0.121035 0.321307
0.465110 0.108792 0.335274
0.670766 0.112580 0.366384
0.886484 0.122790 0.408807
1.000000 0.131473 0.451691
0.000000 0.464962 0.356256
0.000000 0.388651 0.324561
0.097451 0.328437 0.304287
0.285764 0.293653 0.300340
0.495016 0.283990 0.313465
0.720584 0.292819 0.345244
0.951919 0.309439 0.390224
1.000000 0.323855 0.435741
0.000000 0.627039 0.306676
0.000000 0.562438 0.296705
0.113658 0.511011 0.293416
0.309810 0.481948 0.298101
0.525147 0.476799 0.310637
0.758857 0.489968 0.335551
0.988611 0.510467 0.374790
1.000000 0.530742 0.430096
0.000000 0.792517 0.265231
0.000000 0.737949 0.276720
0.143481 0.694676 0.290367
0.337992 0.671081 0.304592
0.544369 0.669023 0.317070
0.768569 0.683942 0.331751
0.989026 0.706070 0.360078
1.000000 0.732530 0.431696
0.000000 0.955557 0.244050
0.004007 0.909173 0.269526
0.182007 0.873580 0.292868
0.366840 0.854556 0.311327
0.555262 0.852049 0.322401
0.757581 0.863407 0.328278
0.965796 0.882427 0.342093
1.000000 0.905803 0.402835
0.000000 1.000000 0.247297
0.046513 1.000000 0.275011
0.222728 1.000000 0.298434
0.392062 0.999372 0.314780
0.561559 0.998972 0.322574
0.740359 0.999498 0.322338
0.929762 1.000000 0.320640
1.000000 1.000000 0.339228
0.000000 0.000000 0.553852
0.000000 0.000000 0.561869
0.092750 0.000000 0.570570
0.255548 0.000000 0.580027
0.425233 0.000000 0.592201
0.596559 0.000000 0.609198
0.770393 0.000000 0.630985
0.947741 0.000000 0.655068
0.000000 0.135174 0.566361
0.000000 0.060788 0.544092
0.079386 0.008998 0.534997
0.249796 0.002130 0.541835
0.431140 0.001742 0.559686
0.617442 0.002219 0.584426
0.809757 0.002410 0.613348
0.996515 0.001997 0.641940
0.000000 0.302500 0.564439
0.000000 0.229957 0.530058
0.071365 0.174785 0.511504
0.251890 0.146247 0.514081
0.444742 0.140885 0.532787
0.644987 0.145718 0.561535
0.851894 0.149416 0.594815
1.000000 0.147892 0.624566
0.000000 0.478217 0.541756
0.000000 0.411038 0.515290
0.070807 0.356401 0.499599
0.263490 0.324709 0.500529
0.467077 0.315967 0.516185
0.679056 0.320122 0.543320
0.894770 0.326185 0.575919
1.000000 0.328445 0.604942
0.000000 0.658343 0.505482
0.000000 0.597362 0.496025
0.082214 0.545351 0.491856
0.282296 0.511712 0.495999
0.490172 0.499313 0.508314
0.706913 0.501800 0.528892
0.923236 0.510204 0.557089
1.000000 0.520742 0.596547
0.000000 0.838381 0.470061
0.000000 0.780454 0.476403
0.108717 0.730373 0.484061
0.306814 0.696427 0.493452
0.507283 0.681373 0.503530
0.716267 0.681607 0.515681
0.923081 0.692126 0.539137
1.000000 0.715014 0.604809
0.000000 0.993954 0.446922
0.000027 0.950942 0.463679
0.147850 0.904747 0.478728
0.334960 0.873317 0.490767
0.519245 0.856385 0.498365
0.710279 0.852464 0.502812
0.902461 0.860953 0.517200
1.000000 0.885354 0.586339
0.000000 1.000000 0.439093
0.012116 1.000000 0.459796
0.190862 1.000000 0.476717
0.360633 1.000000 0.487546
0.527016 0.998966 0.491453
0.698042 0.998165 0.489458
0.875937 0.998452 0.488571
1.000000 0.999805 0.514761
0.000000 0.000000 0.687543
0.000000 0.000000 0.714226
0.054906 0.000000 0.735861
0.225737 0.000000 0.753050
0.408392 0.000000 0.770188
0.592159 0.000000 0.789616
0.774773 0.000000 0.809835
0.956270 0.000000 0.828391
0.000000 0.132132 0.713668
0.000000 0.065714 0.709278
0.058948 0.019677 0.712800
0.235306 0.004714 0.725021
0.421872 0.004450 0.742580
0.610693 0.004617 0.763513
0.801751 0.004150 0.786605
0.994739 0.002966 0.808610
0.000000 0.300289 0.730044
0.000000 0.242545 0.710171
0.059281 0.197798 0.701298
0.244660 0.174160 0.705956
0.436188 0.168233 0.719539
0.629639 0.167748 0.738999
0.826387 0.163121 0.762355
0.998453 0.152946 0.783792
0.000000 0.484722 0.729317
0.000000 0.430273 0.711866
0.055915 0.384502 0.700816
0.252779 0.354985 0.698907
0.450729 0.341930 0.705084
0.648854 0.337107 0.719203
0.848209 0.332038 0.738947
0.999948 0.323927 0.756757
0.000000 0.679133 0.711826
0.000000 0.624094 0.705031
0.056428 0.574868 0.699200
0.260690 0.538297 0.695662
0.462599 0.516998 0.695850
0.663417 0.507217 0.702723
0.862064 0.502676 0.716833
1.000000 0.501110 0.737889
0.000000 0.871831 0.685740
0.000000 0.813462 0.688427
0.071851 0.760236 0.689231
0.274302 0.718300 0.687947
0.471780 0.690512 0.685747
0.668329 0.676098 0.686207
0.860801 0.672576 0.696279
0.999711 0.683127 0.736569
0.000000 1.000000 0.659873
0.000000 0.985320 0.668431
0.104951 0.931905 0.674119
0.296673 0.889462 0.675631
0.481303 0.858723 0.672958
0.665259 0.840256 0.668790
0.846995 0.835579 0.673962
0.995396 0.852844 0.727227
0.000000 1.000000 0.637006
0.000246 1.000000 0.649861
0.147790 1.000000 0.658838
0.322227 1.000000 0.661670
0.490565 0.998804 0.658040
0.658273 0.995980 0.650037
0.828282 0.988108 0.645080
0.988260 0.995952 0.668704
0.000000 0.000000 0.824942
0.000000 0.000000 0.872237
0.034695 0.000000 0.906535
0.211579 0.000000 0.928596
0.401381 0.000000 0.946169
0.590072 0.000000 0.963026
0.774253 0.000000 0.977871
0.954150 0.000000 0.989206
0.000000 0.138587 0.862939
0.000000 0.081543 0.878388
0.050304 0.043460 0.892734
0.231796 0.027916 0.905853
0.420151 0.025333 0.918476
0.606660 0.023439 0.932029
0.792170 0.016087 0.947460
0.979368 0.004936 0.963333
0.000000 0.304562 0.895675
0.000000 0.259398 0.892542
0.055474 0.224673 0.891501
0.245606 0.205234 0.893218
0.435300 0.197155 0.897183
0.620763 0.190519 0.904910
0.806149 0.179021 0.918226
0.994334 0.162528 0.933899
0.000000 0.489919 0.915324
0.000000 0.445759 0.909344
0.047791 0.407755 0.901298
0.249289 0.380751 0.892246
0.444049 0.364278 0.884980
0.630878 0.351878 0.884078
0.815239 0.338590 0.891698
0.996499 0.323016 0.902276
0.000000 0.687960 0.916136
0.000000 0.639255 0.915513
0.036944 0.593985 0.907759
0.245818 0.556844 0.893026
0.445351 0.530061 0.876791
0.634659 0.511107 0.867008
0.817913 0.496838 0.867329
0.994729 0.484743 0.873778
0.000000 0.884249 0.899501
0.000000 0.830193 0.904215
0.038267 0.777988 0.899545
0.245680 0.732094 0.884767
0.443674 0.696146 0.865348
0.632043 0.670708 0.849853
0.812558 0.655481 0.844928
0.980358 0.650363 0.856837
0.000000 1.000000 0.871583
0.000000 0.994115 0.879147
0.060247 0.949664 0.877613
0.257442 0.900665 0.865926
0.445757 0.859935 0.848089
0.626691 0.829472 0.830627
0.801183 0.812615 0.822565
0.958999 0.814274 0.844204
0.000000 1.000000 0.836447
0.000000 1.000000 0.845623
0.098643 1.000000 0.847620
0.279322 1.000000 0.840388
0.452944 0.998749 0.825950
0.621438 0.985121 0.808858
0.787650 0.965177 0.796000
0.946933 0.963699 0.804371
0.000000 0.007071 0.967744
0.000000 0.000000 0.999232
0.040865 0.000000 1.000000
0.219347 0.000000 1.000000
0.404520 0.000000 1.000000
0.584643 0.000000 1.000000
0.757962 0.000000 1.000000
0.925605 0.000000 1.000000
0.000000 0.154863 0.998184
0.000000 0.110052 1.000000
0.054835 0.083072 1.000000
0.240058 0.073149 1.000000
0.424582 0.068875 1.000000
0.602041 0.062425 1.000000
0.774476 0.051958 1.000000
0.945592 0.038427 1.000000
0.000000 0.315928 1.000000
0.000000 0.280182 1.000000
0.056534 0.253906 1.000000
0.251707 0.237876 1.000000
0.438791 0.226549 1.000000
0.615332 0.214652 1.000000
0.786586 0.200113 1.000000
0.958248 0.183014 1.000000
0.000000 0.495045 1.000000
0.000000 0.458498 1.000000
0.043496 0.426196 1.000000
0.250040 0.400654 1.000000
0.443784 0.380771 1.000000
0.621580 0.363513 1.000000
0.791864 0.346617 1.000000
0.961351 0.329233 1.000000
0.000000 0.686644 1.000000
0.000000 0.645309 1.000000
0.024061 0.603790 1.000000
0.238197 0.566249 1.000000
0.437934 0.535853 1.000000
0.618855 0.512353 0.999577
0.789206 0.493344 0.998571
0.955841 0.476808 0.998365
0.000000 0.877311 1.000000
0.000000 0.833291 1.000000
0.013416 0.784436 1.000000
0.225946 0.736031 1.000000
0.425996 0.695248 0.999974
0.608889 0.664171 0.997939
0.779509 0.642189 0.991051
0.943130 0.627233 0.984993
0.000000 1.000000 1.000000
0.000000 0.995304 1.000000
0.019964 0.958068 1.000000
0.223918 0.904597 1.000000
0.417360 0.857144 0.998983
0.596972 0.819793 0.990418
0.765922 0.794179 0.969355
0.926312 0.780778 0.964636
0.000000 1.000000 0.999543
0.000000 1.000000 1.000000
0.048771 1.000000 0.999953
0.236297 1.000000 0.998957
0.416589 0.998664 0.995368
0.587782 0.977235 0.969724
0.752620 0.948093 0.947045
0.913082 0.931425 0.936020
