ecomm/src/main/assets/lut/OrangeAndBlue - converted with Color.cube
TITLE "OrangeAndBlue - converted with Color.io - Created with Color.io"
LUT_3D_SIZE 32
DOMAIN_MIN 0.0 0.0 0.0
DOMAIN_MAX 1.0 1.0 1.0
0.000000 0.000000 0.000000
0.040583 0.000000 0.000000
0.081211 0.000000 0.000000
0.121930 0.000000 0.000000
0.162786 0.000000 0.000000
0.203826 0.000000 0.000000
0.245102 0.000000 0.000000
0.286664 0.000000 0.000000
0.328567 0.000000 0.000000
0.370858 0.000000 0.000000
0.413570 0.000000 0.000000
0.456758 0.000000 0.000000
0.500506 0.000000 0.000000
0.544840 0.000000 0.000000
0.589840 0.000000 0.000000
0.635556 0.000000 0.000000
0.681966 0.000000 0.000000
0.729043 0.000000 0.000000
0.776730 0.000000 0.000000
0.824934 0.000000 0.000000
0.873562 0.000000 0.000000
0.922494 0.000000 0.000000
0.971563 0.000000 0.000000
0.996225 0.000000 0.000000
1.000000 0.000000 0.000000
1.000000 0.000000 0.000000
1.000000 0.000000 0.000000
1.000000 0.000000 0.000000
1.000000 0.000000 0.000000
1.000000 0.000000 0.000000
1.000000 0.000000 0.000000
1.000000 0.000000 0.000000
0.000000 0.024227 0.000000
0.034461 0.011292 0.000000
0.076555 0.000591 0.000000
0.118809 0.000214 0.000000
0.161300 0.000022 0.000000
0.204100 0.000000 0.000000
0.247280 0.000000 0.000000
0.290904 0.000000 0.000000
0.335032 0.000000 0.000000
0.379713 0.000000 0.000000
0.424966 0.000000 0.000000
0.470840 0.000000 0.000000
0.517416 0.000000 0.000000
0.564687 0.000000 0.000000
0.612708 0.000000 0.000000
0.661498 0.000000 0.000000
0.711001 0.000000 0.000000
0.761158 0.000000 0.000000
0.811868 0.000000 0.000000
0.862995 0.000000 0.000000
0.914397 0.000000 0.000000
0.965218 0.000000 0.000000
0.994409 0.000000 0.000000
1.000000 0.000000 0.000000
1.000000 0.000000 0.000000
1.000000 0.000000 0.000000
1.000000 0.000000 0.000000
1.000000 0.000000 0.000000
1.000000 0.000000 0.000000
1.000000 0.000000 0.000000
1.000000 0.000000 0.000000
1.000000 0.000000 0.000000
0.000000 0.048457 0.000000
0.028314 0.036970 0.000000
0.071850 0.025448 0.000000
0.115598 0.013845 0.000000
0.159682 0.003045 0.000000
0.204199 0.000909 0.000000
0.249239 0.000233 0.000000
0.294882 0.000000 0.000000
0.341195 0.000000 0.000000
0.388225 0.000000 0.000000
0.435982 0.000000 0.000000
0.484511 0.000000 0.000000
0.533888 0.000000 0.000000
0.584080 0.000000 0.000000
0.635108 0.000000 0.000000
0.686955 0.000000 0.000000
0.739530 0.000000 0.000000
0.792742 0.000000 0.000000
0.846443 0.000000 0.000000
0.900463 0.000000 0.000000
0.954061 0.000000 0.000000
0.990676 0.000000 0.000000
1.000000 0.000000 0.000000
1.000000 0.000000 0.000000
1.000000 0.000000 0.000000
1.000000 0.000000 0.000000
1.000000 0.000000 0.000000
1.000000 0.000000 0.000000
1.000000 0.000000 0.000000
1.000000 0.000000 0.000000
1.000000 0.000000 0.000000
1.000000 0.000000 0.000000
0.000000 0.072695 0.000000
0.022162 0.062652 0.000000
0.067041 0.052570 0.000000
0.112218 0.042418 0.000000
0.157813 0.032144 0.000000
0.203964 0.021737 0.000000
0.250782 0.011223 0.000000
0.298359 0.002511 0.000000
0.346771 0.001558 0.000000
0.396067 0.000583 0.000000
0.446245 0.000081 0.000000
0.497345 0.000000 0.000000
0.549446 0.000000 0.000000
0.602491 0.000000 0.000000
0.656473 0.000000 0.000000
0.711320 0.000000 0.000000
0.766899 0.000000 0.000000
0.823103 0.000000 0.000000
0.879771 0.000000 0.000000
0.936686 0.000000 0.000000
0.984183 0.000000 0.000000
1.000000 0.000000 0.000000
1.000000 0.000000 0.000000
1.000000 0.000000 0.000000
1.000000 0.000000 0.000000
1.000000 0.000000 0.000000
1.000000 0.000000 0.000000
1.000000 0.000000 0.000000
1.000000 0.000000 0.000000
1.000000 0.000000 0.000000
1.000000 0.000000 0.000000
1.000000 0.000000 0.000000
0.000000 0.096948 0.000000
0.016011 0.088303 0.000000
0.062117 0.079616 0.000000
0.108589 0.070852 0.000000
0.155592 0.061974 0.000000
0.203259 0.052931 0.000000
0.251734 0.043708 0.000000
0.301124 0.034276 0.000000
0.351513 0.024615 0.000000
0.402950 0.014713 0.000000
0.455427 0.006178 0.000000
0.508975 0.002956 0.000000
0.563669 0.001706 0.000000
0.619418 0.000431 0.000000
0.676205 0.000032 0.000000
0.733960 0.000000 0.000000
0.792517 0.000000 0.000000
0.851712 0.000000 0.000000
0.911330 0.000000 0.000000
0.968597 0.000000 0.000000
0.996310 0.000000 0.000000
1.000000 0.000000 0.000000
1.000000 0.000000 0.000000
1.000000 0.000000 0.000000
1.000000 0.000000 0.000000
1.000000 0.000000 0.000000
1.000000 0.000000 0.000000
1.000000 0.000000 0.000000
1.000000 0.000000 0.000000
1.000000 0.000000 0.000000
1.000000 0.000000 0.000000
1.000000 0.000000 0.000000
0.000000 0.121224 0.000000
0.009873 0.113918 0.000000
0.057062 0.106569 0.000000
0.104682 0.099140 0.000000
0.152928 0.091590 0.000000
0.201974 0.083880 0.000000
0.251953 0.075959 0.000000
0.303001 0.067810 0.000000
0.355212 0.059402 0.000000
0.408638 0.050718 0.000000
0.463263 0.041760 0.000000
0.519116 0.032523 0.000000
0.576272 0.023000 0.000000
0.634618 0.013240 0.000000
0.694115 0.006061 0.000000
0.754670 0.003912 0.000000
0.816082 0.002418 0.000000
0.878155 0.000936 0.000000
0.940638 0.000092 0.000000
0.985599 0.000000 0.000000
1.000000 0.000000 0.000000
1.000000 0.000000 0.000000
1.000000 0.000000 0.000000
1.000000 0.000000 0.000000
1.000000 0.000000 0.000000
1.000000 0.000000 0.000000
1.000000 0.000000 0.000000
1.000000 0.000000 0.000000
1.000000 0.000000 0.000000
1.000000 0.000000 0.000000
1.000000 0.000000 0.000000
1.000000 0.000000 0.000000
0.000000 0.145536 0.000000
0.004199 0.139499 0.000000
0.051873 0.133421 0.000000
0.100473 0.127260 0.000000
0.149790 0.120978 0.000000
0.200020 0.114530 0.000000
0.251336 0.107878 0.000000
0.303859 0.100972 0.000000
0.357708 0.093790 0.000000
0.412938 0.086308 0.000000
0.469528 0.078523 0.000000
0.527506 0.070423 0.000000
0.586951 0.061993 0.000000
0.647729 0.053274 0.000000
0.709784 0.044312 0.000000
0.772998 0.035174 0.000000
0.837140 0.025959 0.000000
0.901983 0.016768 0.000000
0.964989 0.009498 0.000000
0.995962 0.006177 0.000000
1.000000 0.004720 0.000000
1.000000 0.003389 0.000000
1.000000 0.002190 0.000000
1.000000 0.001143 0.000000
1.000000 0.000267 0.000000
1.000000 0.000009 0.000000
1.000000 0.000000 0.000000
1.000000 0.000000 0.000000
1.000000 0.000000 0.000000
1.000000 0.000000 0.000000
1.000000 0.000000 0.000000
1.000000 0.000000 0.000000
0.000000 0.169899 0.000000
0.001325 0.165054 0.000000
0.046565 0.160168 0.000000
0.095958 0.155203 0.000000
0.146154 0.150118 0.000000
0.197375 0.144869 0.000000
0.249811 0.139417 0.000000
0.303616 0.133719 0.000000
0.358894 0.127727 0.000000
0.415716 0.121424 0.000000
0.474057 0.114802 0.000000
0.533947 0.107846 0.000000
0.595473 0.100528 0.000000
0.658481 0.092888 0.000000
0.722904 0.084959 0.000000
0.788607 0.076799 0.000000
0.855326 0.068502 0.000000
0.922807 0.060168 0.000000
0.978803 0.051918 0.000000
1.000000 0.043897 0.000000
1.000000 0.036277 0.000000
1.000000 0.029250 0.000000
1.000000 0.022900 0.000000
1.000000 0.017316 0.000000
1.000000 0.012604 0.000000
1.000000 0.010224 0.000000
1.000000 0.009483 0.000000
1.000000 0.009150 0.000000
1.000000 0.008981 0.000000
1.000000 0.008942 0.000000
1.000000 0.008994 0.000000
1.000000 0.009090 0.000000
0.000000 0.194332 0.000000
0.001151 0.190594 0.000000
0.041170 0.186818 0.000000
0.091159 0.182967 0.000000
0.142033 0.179003 0.000000
0.194038 0.174884 0.000000
0.247381 0.170567 0.000000
0.302233 0.166012 0.000000
0.358722 0.161177 0.000000
0.416906 0.156023 0.000000
0.476765 0.150548 0.000000
0.538334 0.144731 0.000000
0.601708 0.138542 0.000000
0.666721 0.132011 0.000000
0.733297 0.125163 0.000000
0.801285 0.118046 0.000000
0.870396 0.110750 0.000000
0.940351 0.103366 0.000000
0.986713 0.096014 0.000000
1.000000 0.088829 0.000000
1.000000 0.081969 0.000000
1.000000 0.075613 0.000000
1.000000 0.069849 0.000000
1.000000 0.064766 0.000000
1.000000 0.060469 0.000000
1.000000 0.057023 0.000000
1.000000 0.054554 0.000000
1.000000 0.052983 0.000000
1.000000 0.052167 0.000000
1.000000 0.051957 0.000000
1.000000 0.052169 0.000000
1.000000 0.052596 0.000000
0.000000 0.218857 0.000000
0.000976 0.216137 0.000000
0.035733 0.213384 0.000000
0.086119 0.210563 0.000000
0.137467 0.207638 0.000000
0.190043 0.204571 0.000000
0.244072 0.201321 0.000000
0.299743 0.197847 0.000000
0.357194 0.194108 0.000000
0.416504 0.190075 0.000000
0.477633 0.185721 0.000000
0.540631 0.181034 0.000000
0.605605 0.175979 0.000000
0.672374 0.170580 0.000000
0.740864 0.164853 0.000000
0.810911 0.158839 0.000000
0.882197 0.152618 0.000000
0.954425 0.146274 0.000000
0.993194 0.139923 0.000000
1.000000 0.133693 0.000000
1.000000 0.127715 0.000000
1.000000 0.122151 0.000000
1.000000 0.117102 0.000000
1.000000 0.112654 0.000000
1.000000 0.108900 0.000000
1.000000 0.105896 0.000000
1.000000 0.103753 0.000000
1.000000 0.102403 0.000000
1.000000 0.101725 0.000000
1.000000 0.101585 0.000000
1.000000 0.101820 0.000000
1.000000 0.102248 0.000000
0.000000 0.243497 0.000000
0.000804 0.241707 0.000000
0.030317 0.239887 0.000000
0.080905 0.238008 0.000000
0.132524 0.236038 0.000000
0.185459 0.233943 0.000000
0.239954 0.231685 0.000000
0.296211 0.229225 0.000000
0.354383 0.226527 0.000000
0.414556 0.223557 0.000000
0.476703 0.220301 0.000000
0.540864 0.216724 0.000000
0.607170 0.212798 0.000000
0.675433 0.208543 0.000000
0.745580 0.203967 0.000000
0.817439 0.199103 0.000000
0.890670 0.194021 0.000000
0.964072 0.188796 0.000000
0.998039 0.183528 0.000000
1.000000 0.178344 0.000000
1.000000 0.173363 0.000000
1.000000 0.168722 0.000000
1.000000 0.164512 0.000000
1.000000 0.160816 0.000000
1.000000 0.157713 0.000000
1.000000 0.155255 0.000000
1.000000 0.153539 0.000000
1.000000 0.152510 0.000000
1.000000 0.152065 0.000000
1.000000 0.152090 0.000000
1.000000 0.152440 0.000000
1.000000 0.152959 0.000000
0.000000 0.268280 0.000000
0.000636 0.267329 0.000000
0.024996 0.266353 0.000000
0.075599 0.265329 0.000000
0.127294 0.264229 0.000000
0.180384 0.263024 0.000000
0.235130 0.261681 0.000000
0.291746 0.260166 0.000000
0.350395 0.258444 0.000000
0.411176 0.256485 0.000000
0.474061 0.254275 0.000000
0.539114 0.251787 0.000000
0.606473 0.248977 0.000000
0.675954 0.245867 0.000000
0.747478 0.242460 0.000000
0.820859 0.238783 0.000000
0.895739 0.234899 0.000000
0.968508 0.230868 0.000000
1.000000 0.226777 0.000000
1.000000 0.222735 0.000000
1.000000 0.218844 0.000000
1.000000 0.215225 0.000000
1.000000 0.211958 0.000000
1.000000 0.209117 0.000000
1.000000 0.206776 0.000000
1.000000 0.204979 0.000000
1.000000 0.203808 0.000000
1.000000 0.203214 0.000000
1.000000 0.203106 0.000000
1.000000 0.203389 0.000000
1.000000 0.203944 0.000000
1.000000 0.204642 0.000000
0.000000 0.293235 0.000000
0.000476 0.293035 0.000000
0.019854 0.292816 0.000000
0.070297 0.292561 0.000000
0.121887 0.292246 0.000000
0.174941 0.291849 0.000000
0.229733 0.291342 0.000000
0.286489 0.290697 0.000000
0.345385 0.289885 0.000000
0.406526 0.288878 0.000000
0.469890 0.287662 0.000000
0.535548 0.286216 0.000000
0.603669 0.284506 0.000000
0.674061 0.282531 0.000000
0.746669 0.280300 0.000000
0.821286 0.277836 0.000000
0.897532 0.275190 0.000000
0.969916 0.272410 0.000000
1.000000 0.269566 0.000000
1.000000 0.266746 0.000000
1.000000 0.264040 0.000000
1.000000 0.261543 0.000000
1.000000 0.259324 0.000000
1.000000 0.257444 0.000000
1.000000 0.255963 0.000000
1.000000 0.254920 0.000000
1.000000 0.254384 0.000000
1.000000 0.254319 0.000000
1.000000 0.254651 0.000000
1.000000 0.255302 0.000000
1.000000 0.256175 0.000000
1.000000 0.257162 0.000000
0.000000 0.318388 0.000000
0.000325 0.318858 0.000000
0.014978 0.319314 0.000000
0.065106 0.319745 0.000000
0.116426 0.320134 0.000000
0.169267 0.320463 0.000000
0.223916 0.320714 0.000000
0.280609 0.320863 0.000000
0.339530 0.320889 0.000000
0.400792 0.320769 0.000000
0.464379 0.320491 0.000000
0.530367 0.320038 0.000000
0.598935 0.319383 0.000000
0.669897 0.318533 0.000000
0.743218 0.317477 0.000000
0.818748 0.316235 0.000000
0.896101 0.314847 0.000000
0.969856 0.313353 0.000000
1.000000 0.311809 0.000000
1.000000 0.310284 0.000000
1.000000 0.308843 0.000000
1.000000 0.307563 0.000000
1.000000 0.306492 0.000000
1.000000 0.305679 0.000000
1.000000 0.305170 0.000000
1.000000 0.304991 0.000000
1.000000 0.305197 0.000000
1.000000 0.305758 0.000000
1.000000 0.306619 0.000000
1.000000 0.307722 0.000000
1.000000 0.308993 0.000000
1.000000 0.310350 0.000000
0.000000 0.343770 0.000000
0.000187 0.344832 0.000000
0.010462 0.345887 0.000000
0.060137 0.346926 0.000000
0.111041 0.347941 0.000000
0.163514 0.348920 0.000000
0.217849 0.349851 0.000000
0.274290 0.350719 0.000000
0.333030 0.351510 0.000000
0.394190 0.352208 0.000000
0.457756 0.352804 0.000000
0.523815 0.353288 0.000000
0.592564 0.353642 0.000000
0.663825 0.353869 0.000000
0.737585 0.353970 0.000000
0.813696 0.353945 0.000000
0.891778 0.353830 0.000000
0.968392 0.353650 0.000000
1.000000 0.353447 0.000000
1.000000 0.353268 0.000000
1.000000 0.353157 0.000000
1.000000 0.353164 0.000000
1.000000 0.353322 0.000000
1.000000 0.353661 0.000000
1.000000 0.354210 0.000000
1.000000 0.354988 0.000000
1.000000 0.356026 0.000000
1.000000 0.357305 0.000000
1.000000 0.358787 0.000000
1.000000 0.360431 0.000000
1.000000 0.362188 0.000000
1.000000 0.364004 0.000000
0.000000 0.369406 0.000000
0.000065 0.370993 0.000000
0.006396 0.372577 0.000000
0.055502 0.374155 0.000000
0.105865 0.375724 0.000000
0.157833 0.377280 0.000000
0.211704 0.378816 0.000000
0.267728 0.380328 0.000000
0.326102 0.381809 0.000000
0.386953 0.383253 0.000000
0.450272 0.384656 0.000000
0.516155 0.386014 0.000000
0.584818 0.387320 0.000000
0.656087 0.388578 0.000000
0.729976 0.389792 0.000000
0.806355 0.390970 0.000000
0.884841 0.392120 0.000000
0.964410 0.393266 0.000000
0.999685 0.394429 0.000000
1.000000 0.395633 0.000000
1.000000 0.396899 0.000000
1.000000 0.398250 0.000000
1.000000 0.399699 0.000000
1.000000 0.401257 0.000000
1.000000 0.402936 0.000000
1.000000 0.404743 0.000000
1.000000 0.406691 0.000000
1.000000 0.408767 0.000000
1.000000 0.410950 0.000000
1.000000 0.413217 0.000000
1.000000 0.415544 0.000000
1.000000 0.417900 0.000000
0.000000 0.395322 0.000000
0.000006 0.397375 0.000000
0.003623 0.399427 0.000000
0.051310 0.401482 0.000000
0.101030 0.403540 0.000000
0.152379 0.405604 0.000000
0.205657 0.407676 0.000000
0.261117 0.409760 0.000000
0.318958 0.411858 0.000000
0.379311 0.413975 0.000000
0.442170 0.416112 0.000000
0.507640 0.418275 0.000000
0.575948 0.420470 0.000000
0.646934 0.422703 0.000000
0.720635 0.424985 0.000000
0.796953 0.427326 0.000000
0.875522 0.429731 0.000000
0.955988 0.432194 0.000000
0.997564 0.434728 0.000000
1.000000 0.437334 0.000000
1.000000 0.440007 0.000000
1.000000 0.442740 0.000000
1.000000 0.445525 0.000000
1.000000 0.448355 0.000000
1.000000 0.451221 0.000000
1.000000 0.454115 0.000000
1.000000 0.457034 0.000000
1.000000 0.459972 0.000000
1.000000 0.462921 0.000000
1.000000 0.465878 0.000000
1.000000 0.468840 0.000000
1.000000 0.471804 0.000000
0.000000 0.421541 0.000000
0.000000 0.424009 0.000000
0.002713 0.426480 0.000000
0.047662 0.428958 0.000000
0.096657 0.431449 0.000000
0.147294 0.433959 0.000000
0.199872 0.436501 0.000000
0.254644 0.439087 0.000000
0.311808 0.441732 0.000000
0.371495 0.444447 0.000000
0.433704 0.447245 0.000000
0.498544 0.450141 0.000000
0.566257 0.453156 0.000000
0.636699 0.456300 0.000000
0.709932 0.459595 0.000000
0.785880 0.463053 0.000000
0.864197 0.466669 0.000000
0.944553 0.470438 0.000000
0.993062 0.474334 0.000000
1.000000 0.478343 0.000000
1.000000 0.482433 0.000000
1.000000 0.486568 0.000000
1.000000 0.490716 0.000000
1.000000 0.494848 0.000000
1.000000 0.498937 0.000000
1.000000 0.502962 0.000000
1.000000 0.506898 0.000000
1.000000 0.510744 0.000000
1.000000 0.514509 0.000000
1.000000 0.518206 0.000000
1.000000 0.521855 0.000000
1.000000 0.525478 0.000000
0.000000 0.448080 0.000000
0.000000 0.450926 0.000000
0.002539 0.453775 0.000000
0.044646 0.456632 0.000000
0.092855 0.459506 0.000000
0.142708 0.462410 0.000000
0.194503 0.465363 0.000000
0.248486 0.468387 0.000000
0.304855 0.471507 0.000000
0.363739 0.474750 0.000000
0.425140 0.478134 0.000000
0.489175 0.481690 0.000000
0.556102 0.485456 0.000000
0.625811 0.489449 0.000000
0.698381 0.493704 0.000000
0.773709 0.498231 0.000000
0.851426 0.503012 0.000000
0.931294 0.508039 0.000000
0.987666 0.513272 0.000000
1.000000 0.518661 0.000000
1.000000 0.524157 0.000000
1.000000 0.529689 0.000000
1.000000 0.535203 0.000000
1.000000 0.540647 0.000000
1.000000 0.545974 0.000000
1.000000 0.551146 0.000000
1.000000 0.556122 0.000000
1.000000 0.560907 0.000000
1.000000 0.565522 0.000000
1.000000 0.569996 0.000000
1.000000 0.574369 0.000000
1.000000 0.578690 0.000000
0.000000 0.474954 0.000000
0.000000 0.478149 0.000000
0.002412 0.481346 0.000000
0.042338 0.484548 0.000000
0.089717 0.487766 0.000000
0.138733 0.491018 0.000000
0.189679 0.494329 0.000000
0.242794 0.497731 0.000000
0.298269 0.501262 0.000000
0.356229 0.504961 0.000000
0.416675 0.508857 0.000000
0.479726 0.512996 0.000000
0.545639 0.517431 0.000000
0.614296 0.522183 0.000000
0.685813 0.527305 0.000000
0.760185 0.532827 0.000000
0.837100 0.538730 0.000000
0.916284 0.544989 0.000000
0.981404 0.551532 0.000000
1.000000 0.558287 0.000000
1.000000 0.565165 0.000000
1.000000 0.572078 0.000000
1.000000 0.578945 0.000000
1.000000 0.585693 0.000000
1.000000 0.592255 0.000000
1.000000 0.598578 0.000000
1.000000 0.604601 0.000000
1.000000 0.610332 0.000000
1.000000 0.615808 0.000000
1.000000 0.621073 0.000000
1.000000 0.626189 0.000000
1.000000 0.631226 0.000000
0.000000 0.502171 0.000000
0.000000 0.505699 0.000000
0.002333 0.509222 0.000000
0.040794 0.512746 0.000000
0.087317 0.516278 0.000000
0.135462 0.519840 0.000000
0.185514 0.523463 0.000000
0.237702 0.527191 0.000000
0.292211 0.531073 0.000000
0.349162 0.535164 0.000000
0.408564 0.539507 0.000000
0.470550 0.544166 0.000000
0.535404 0.549219 0.000000
0.603019 0.554697 0.000000
0.673401 0.560643 0.000000
0.746485 0.567077 0.000000
0.822108 0.573998 0.000000
0.900126 0.581397 0.000000
0.974438 0.589178 0.000000
1.000000 0.597239 0.000000
1.000000 0.605468 0.000000
1.000000 0.613724 0.000000
1.000000 0.621913 0.000000
1.000000 0.629935 0.000000
1.000000 0.637707 0.000000
1.000000 0.645163 0.000000
1.000000 0.652221 0.000000
1.000000 0.658894 0.000000
1.000000 0.665228 0.000000
1.000000 0.671283 0.000000
1.000000 0.677140 0.000000
1.000000 0.682894 0.000000
0.000000 0.529734 0.000000
0.000000 0.533586 0.000000
0.002304 0.537428 0.000000
0.040053 0.541258 0.000000
0.085707 0.545083 0.000000
0.132960 0.548925 0.000000
0.182083 0.552822 0.000000
0.233292 0.556826 0.000000
0.286758 0.561001 0.000000
0.342589 0.565413 0.000000
0.400780 0.570120 0.000000
0.461445 0.575196 0.000000
0.524905 0.580753 0.000000
0.591220 0.586866 0.000000
0.660311 0.593569 0.000000
0.732070 0.600877 0.000000
0.806377 0.608793 0.000000
0.883060 0.617294 0.000000
0.961040 0.626261 0.000000
0.998075 0.635571 0.000000
1.000000 0.645089 0.000000
1.000000 0.654648 0.000000
1.000000 0.664101 0.000000
1.000000 0.673351 0.000000
1.000000 0.682309 0.000000
1.000000 0.690851 0.000000
1.000000 0.698916 0.000000
1.000000 0.706510 0.000000
1.000000 0.713681 0.000000
1.000000 0.720505 0.000000
1.000000 0.727084 0.000000
1.000000 0.733534 0.000000
0.000000 0.557637 0.000000
0.000000 0.561817 0.000000
0.002326 0.565977 0.000000
0.040131 0.570108 0.000000
0.084915 0.574213 0.000000
0.131267 0.578314 0.000000
0.179445 0.582455 0.000000
0.229650 0.586696 0.000000
0.282038 0.591116 0.000000
0.336704 0.595797 0.000000
0.393634 0.600809 0.000000
0.452926 0.606244 0.000000
0.514888 0.612236 0.000000
0.579638 0.618892 0.000000
0.647166 0.626266 0.000000
0.717302 0.634357 0.000000
0.790053 0.643193 0.000000
0.865222 0.652736 0.000000
0.942279 0.662835 0.000000
0.991810 0.673337 0.000000
1.000000 0.684080 0.000000
1.000000 0.694868 0.000000
1.000000 0.705538 0.000000
1.000000 0.715954 0.000000
1.000000 0.726029 0.000000
1.000000 0.735609 0.000000
1.000000 0.744630 0.000000
1.000000 0.753103 0.000000
1.000000 0.761075 0.000000
1.000000 0.768636 0.000000
1.000000 0.775906 0.000000
1.000000 0.783023 0.000000
0.000000 0.585870 0.000000
0.000000 0.590389 0.000000
0.002399 0.594875 0.000000
0.041025 0.599310 0.000000
0.084945 0.603691 0.000000
0.130397 0.608038 0.000000
0.177623 0.612400 0.000000
0.226810 0.616847 0.000000
0.278099 0.621472 0.000000
0.331575 0.626376 0.000000
0.387220 0.631643 0.000000
0.445127 0.637386 0.000000
0.505597 0.643764 0.000000
0.568759 0.650908 0.000000
0.634617 0.658886 0.000000
0.703016 0.667697 0.000000
0.773967 0.677373 0.000000
0.847296 0.687868 0.000000
0.922520 0.699008 0.000000
0.983758 0.710616 0.000000
1.000000 0.722503 0.000000
1.000000 0.734439 0.000000
1.000000 0.746237 0.000000
1.000000 0.757754 0.000000
1.000000 0.768869 0.000000
1.000000 0.779419 0.000000
1.000000 0.789333 0.000000
1.000000 0.798622 0.000000
1.000000 0.807344 0.000000
1.000000 0.815599 0.000000
1.000000 0.823526 0.000000
1.000000 0.831282 0.000000
0.000000 0.614416 0.000000
0.000000 0.619292 0.000000
0.002520 0.624119 0.000000
0.042708 0.628867 0.000000
0.085776 0.633526 0.000000
0.130333 0.638113 0.000000
0.176606 0.642680 0.000000
0.224766 0.647309 0.000000
0.274940 0.652107 0.000000
0.327199 0.657192 0.000000
0.381523 0.662669 0.000000
0.437996 0.668669 0.000000
0.496905 0.675378 0.000000
0.558381 0.682949 0.000000
0.622440 0.691462 0.000000
0.688949 0.700919 0.000000
0.757944 0.711364 0.000000
0.829275 0.722742 0.000000
0.902481 0.734854 0.000000
0.975532 0.747491 0.000000
1.000000 0.760437 0.000000
1.000000 0.773431 0.000000
1.000000 0.786264 0.000000
1.000000 0.798777 0.000000
1.000000 0.810851 0.000000
1.000000 0.822284 0.000000
1.000000 0.833012 0.000000
1.000000 0.843049 0.000000
1.000000 0.852462 0.000000
1.000000 0.861366 0.000000
1.000000 0.869913 0.000000
1.000000 0.878273 0.000000
0.000000 0.643251 0.000000
0.000068 0.648506 0.000000
0.004291 0.653697 0.000000
0.045141 0.658776 0.000000
0.087380 0.663724 0.000000
0.131062 0.668555 0.000000
0.176397 0.673324 0.000000
0.223539 0.678122 0.000000
0.272595 0.683070 0.000000
0.323624 0.688307 0.000000
0.376598 0.693955 0.000000
0.431595 0.700168 0.000000
0.488890 0.707159 0.000000
0.548621 0.715108 0.000000
0.610810 0.724110 0.000000
0.675336 0.734162 0.000000
0.742241 0.745308 0.000000
0.811392 0.757485 0.000000
0.882369 0.770473 0.000000
0.954735 0.784044 0.000000
0.995249 0.797956 0.000000
1.000000 0.811915 0.000000
1.000000 0.825688 0.000000
1.000000 0.839102 0.000000
1.000000 0.852031 0.000000
1.000000 0.864267 0.000000
1.000000 0.875726 0.000000
1.000000 0.886440 0.000000
1.000000 0.896482 0.000000
1.000000 0.905980 0.000000
1.000000 0.915096 0.000000
1.000000 0.924014 0.000000
0.000000 0.672344 0.000000
0.000194 0.678005 0.000000
0.007955 0.683583 0.000000
0.048252 0.689013 0.000000
0.089682 0.694265 0.000000
0.132505 0.699349 0.000000
0.176916 0.704320 0.000000
0.223047 0.709279 0.000000
0.270986 0.714363 0.000000
0.320776 0.719729 0.000000
0.372384 0.725520 0.000000
0.425879 0.731915 0.000000
0.481523 0.739158 0.000000
0.539466 0.747461 0.000000
0.599744 0.756934 0.000000
0.662234 0.767556 0.000000
0.726963 0.779350 0.000000
0.793799 0.792236 0.000000
0.862376 0.805989 0.000000
0.932338 0.820381 0.000000
0.986800 0.835153 0.000000
1.000000 0.849974 0.000000
1.000000 0.864583 0.000000
1.000000 0.878794 0.000000
1.000000 0.892472 0.000000
1.000000 0.905406 0.000000
1.000000 0.917519 0.000000
1.000000 0.928837 0.000000
1.000000 0.939448 0.000000
1.000000 0.949490 0.000000
1.000000 0.959132 0.000000
1.000000 0.968567 0.000000
0.000000 0.701660 0.000000
0.000338 0.707754 0.000000
0.012414 0.713743 0.000000
0.051953 0.719546 0.000000
0.092590 0.725119 0.000000
0.134571 0.730466 0.000000
0.178068 0.735643 0.000000
0.223195 0.740760 0.000000
0.270022 0.745970 0.000000
0.318575 0.751449 0.000000
0.368813 0.757362 0.000000
0.420794 0.763906 0.000000
0.474762 0.771353 0.000000
0.530865 0.779946 0.000000
0.589157 0.789813 0.000000
0.649531 0.800934 0.000000
0.711992 0.813319 0.000000
0.776421 0.826872 0.000000
0.842502 0.841356 0.000000
