ecomm/src/main/assets/lut/OrangeAndBlue - converted with Color.cube
TITLE "OrangeAndBlue - converted with Color.io - Created with Color.io"
LUT_3D_SIZE 5
DOMAIN_MIN 0.000000 0.000000 0.000000
DOMAIN_MAX 0.903226 0.903226 0.903226
0.000000 0.000000 0.000000
0.286664 0.000000 0.000000
0.589840 0.000000 0.000000
0.922494 0.000000 0.000000
1.000000 0.000000 0.000000
0.000000 0.169899 0.000000
0.303616 0.133719 0.000000
0.722904 0.084959 0.000000
1.000000 0.029250 0.000000
1.000000 0.008981 0.000000
0.000000 0.343770 0.000000
0.274290 0.350719 0.000000
0.737585 0.353970 0.000000
1.000000 0.353164 0.000000
1.000000 0.358787 0.000000
0.000000 0.529734 0.000000
0.233292 0.556826 0.000000
0.660311 0.593569 0.000000
1.000000 0.654648 0.000000
1.000000 0.713681 0.000000
0.000000 0.731160 0.000000
0.223896 0.772540 0.010774
0.578920 0.822806 0.002609
0.993259 0.925136 0.000000
1.000000 0.998249 0.000000
0.000000 0.000000 0.223244
0.188151 0.000000 0.144808
0.461477 0.000000 0.091746
0.754811 0.000000 0.068525
1.000000 0.000000 0.080688
0.000000 0.153476 0.204593
0.190266 0.134613 0.112882
0.560388 0.119244 0.015077
0.956463 0.112510 0.000000
1.000000 0.120694 0.000000
0.000000 0.371386 0.173722
0.190283 0.372782 0.115519
0.603592 0.378004 0.019014
0.999960 0.393417 0.000000
1.000000 0.410252 0.000000
0.000000 0.594131 0.169857
0.205261 0.612065 0.169449
0.589892 0.629790 0.124425
0.998403 0.665626 0.008567
1.000000 0.714524 0.000000
0.000000 0.831572 0.209731
0.242857 0.858329 0.253545
0.559824 0.886103 0.259504
0.922178 0.941800 0.160647
1.000000 0.997012 0.001056
0.000000 0.000000 0.456730
0.120513 0.000000 0.390374
0.399178 0.000000 0.371589
0.679839 0.000000 0.389187
0.964299 0.000148 0.427309
0.000000 0.132340 0.503535
0.073042 0.142290 0.437315
0.441405 0.163095 0.378565
0.795687 0.191399 0.354627
1.000000 0.221373 0.355968
0.000000 0.406730 0.497230
0.056173 0.419413 0.472151
0.467631 0.435119 0.413692
0.872738 0.454360 0.344926
1.000000 0.466564 0.282604
0.000000 0.671906 0.477444
0.117803 0.692152 0.489282
0.493919 0.702530 0.466614
0.878438 0.711549 0.387439
1.000000 0.729582 0.256269
0.000000 0.931108 0.490659
0.221753 0.949935 0.514418
0.520665 0.960829 0.513062
0.835729 0.975996 0.448879
1.000000 0.996915 0.303579
0.000000 0.000000 0.714551
0.082441 0.000000 0.650548
0.397616 0.000000 0.642244
0.685652 0.002824 0.676889
0.952970 0.071395 0.718666
0.000000 0.103786 0.864754
0.000210 0.147268 0.797718
0.373833 0.202395 0.725478
0.727584 0.251037 0.699891
0.998712 0.288144 0.701577
0.000000 0.449329 0.940846
0.000000 0.467991 0.920046
0.325816 0.487771 0.822778
0.746130 0.504843 0.726039
1.000000 0.509784 0.668983
0.000000 0.788924 0.913445
0.000000 0.792603 0.921800
0.330664 0.779313 0.856611
0.739609 0.757790 0.744320
1.000000 0.742563 0.634711
0.000000 1.000000 0.857758
0.088842 1.000000 0.851760
0.417111 0.999990 0.812453
0.736029 0.997608 0.734231
0.999916 0.990032 0.620648
0.000000 0.000000 0.996665
0.060825 0.000000 0.940568
0.422727 0.000580 0.916168
0.718957 0.071556 0.940707
0.976431 0.127486 0.975006
0.000000 0.075576 1.000000
0.000000 0.154981 1.000000
0.339966 0.236762 1.000000
0.709124 0.294990 0.994777
0.988265 0.328304 0.981900
0.000000 0.487888 1.000000
0.000000 0.504221 1.000000
0.201673 0.515476 1.000000
0.665614 0.526746 1.000000
0.984084 0.532105 0.977429
0.000000 0.920163 1.000000
0.000000 0.896305 1.000000
0.109875 0.835709 1.000000
0.595686 0.775202 1.000000
0.956284 0.742594 0.960723
0.000000 1.000000 1.000000
0.000000 1.000000 1.000000
0.194941 1.000000 1.000000
0.580482 0.999998 1.000000
0.920627 0.966368 0.932404
