ecomm/src/main/assets/lut/OrangeAndBlue - converted with Color.cube
TITLE "OrangeAndBlue - converted with Color.io - Created with Color.io"
LUT_3D_SIZE 8
DOMAIN_MIN 0.000000 0.000000 0.000000
DOMAIN_MAX 0.903226 0.903226 0.903226
0.000000 0.000000 0.000000
0.162786 0.000000 0.000000
0.328567 0.000000 0.000000
0.500506 0.000000 0.000000
0.681966 0.000000 0.000000
0.873562 0.000000 0.000000
1.000000 0.000000 0.000000
1.000000 0.000000 0.000000
0.000000 0.096948 0.000000
0.155592 0.061974 0.000000
0.351513 0.024615 0.000000
0.563669 0.001706 0.000000
0.792517 0.000000 0.000000
0.996310 0.000000 0.000000
1.000000 0.000000 0.000000
1.000000 0.000000 0.000000
0.000000 0.194332 0.000000
0.142033 0.179003 0.000000
0.358722 0.161177 0.000000
0.601708 0.138542 0.000000
0.870396 0.110750 0.000000
1.000000 0.081969 0.000000
1.000000 0.060469 0.000000
1.000000 0.052167 0.000000
0.000000 0.293235 0.000000
0.121887 0.292246 0.000000
0.345385 0.289885 0.000000
0.603669 0.284506 0.000000
0.897532 0.275190 0.000000
1.000000 0.264040 0.000000
1.000000 0.255963 0.000000
1.000000 0.254651 0.000000
0.000000 0.395322 0.000000
0.101030 0.403540 0.000000
0.318958 0.411858 0.000000
0.575948 0.420470 0.000000
0.875522 0.429731 0.000000
1.000000 0.440007 0.000000
1.000000 0.451221 0.000000
1.000000 0.462921 0.000000
0.000000 0.502171 0.000000
0.087317 0.516278 0.000000
0.292211 0.531073 0.000000
0.535404 0.549219 0.000000
0.822108 0.573998 0.000000
1.000000 0.605468 0.000000
1.000000 0.637707 0.000000
1.000000 0.665228 0.000000
0.000000 0.614416 0.000000
0.085776 0.633526 0.000000
0.274940 0.652107 0.000000
0.496905 0.675378 0.000000
0.757944 0.711364 0.000000
1.000000 0.760437 0.000000
1.000000 0.810851 0.000000
1.000000 0.852462 0.000000
0.000000 0.731160 0.000000
0.096008 0.756245 0.000079
0.269619 0.777875 0.014550
0.468533 0.803794 0.015011
0.697142 0.847236 0.000000
0.953268 0.908851 0.000000
1.000000 0.971538 0.000000
1.000000 0.998249 0.000000
0.000000 0.000000 0.127024
0.109834 0.000000 0.074794
0.267114 0.000000 0.026496
0.427748 0.000000 0.001873
0.595897 0.000000 0.000000
0.772916 0.000000 0.000000
0.956535 0.000000 0.000000
1.000000 0.000000 0.000000
0.000000 0.074583 0.108207
0.098976 0.050902 0.048211
0.283455 0.026157 0.001541
0.480136 0.004131 0.000000
0.690091 0.001430 0.000000
0.906803 0.000011 0.000000
1.000000 0.000000 0.000000
1.000000 0.000000 0.000000
0.000000 0.189129 0.087253
0.087454 0.176110 0.027104
0.291419 0.162480 0.000081
0.516641 0.148261 0.000000
0.762399 0.133839 0.000000
0.991300 0.121169 0.000000
1.000000 0.113904 0.000000
1.000000 0.114214 0.000000
0.000000 0.302253 0.068009
0.076569 0.298805 0.017521
0.288608 0.295088 0.000016
0.529295 0.291820 0.000000
0.798256 0.289655 0.000000
1.000000 0.288768 0.000000
1.000000 0.289962 0.000000
1.000000 0.293890 0.000000
0.000000 0.416829 0.057048
0.070136 0.421143 0.024029
0.279711 0.425271 0.002078
0.520939 0.430818 0.000000
0.795557 0.440146 0.000000
1.000000 0.453020 0.000000
1.000000 0.467437 0.000000
1.000000 0.481328 0.000000
0.000000 0.535880 0.059340
0.072815 0.545957 0.047532
0.272511 0.555555 0.026746
0.502104 0.567201 0.003144
0.764436 0.585297 0.000000
0.999815 0.610643 0.000000
1.000000 0.639394 0.000000
1.000000 0.667100 0.000000
0.000000 0.660611 0.076357
0.087011 0.675072 0.085055
0.272665 0.688277 0.087682
0.483111 0.704058 0.069547
0.721238 0.728918 0.015659
0.978437 0.764277 0.000000
1.000000 0.804765 0.000000
1.000000 0.844436 0.000000
0.000000 0.789950 0.105456
0.111143 0.808697 0.131310
0.280797 0.824781 0.153955
0.468258 0.843813 0.158649
0.676786 0.875171 0.125885
0.904044 0.919908 0.049068
1.000000 0.968695 0.000030
1.000000 0.997356 0.000000
0.000000 0.000000 0.255665
0.060634 0.000000 0.209412
0.214734 0.000000 0.171483
0.369181 0.000000 0.143474
0.528367 0.000000 0.125174
0.694800 0.000000 0.117137
0.867994 0.000000 0.120740
0.999962 0.000000 0.134139
0.000000 0.051425 0.252043
0.041311 0.039815 0.201733
0.220670 0.028219 0.153454
0.407629 0.017747 0.109529
0.602735 0.010245 0.073507
0.801880 0.007889 0.049664
0.990021 0.012993 0.041798
1.000000 0.025585 0.047761
0.000000 0.183585 0.239980
0.026558 0.175832 0.193296
0.224515 0.168780 0.142742
0.437923 0.163858 0.088969
0.664369 0.161951 0.037254
0.893435 0.162910 0.009434
1.000000 0.167241 0.003918
1.000000 0.174872 0.001902
0.000000 0.312123 0.222123
0.020787 0.310304 0.187229
0.227402 0.308820 0.145069
0.456084 0.309480 0.092233
0.702950 0.313650 0.031414
0.954207 0.320342 0.004563
1.000000 0.327742 0.000000
1.000000 0.334782 0.000000
0.000000 0.439689 0.208116
0.027262 0.444430 0.189916
0.233071 0.448520 0.164091
0.462906 0.453608 0.123356
0.714346 0.462531 0.064069
0.972603 0.475644 0.010069
1.000000 0.490174 0.000000
1.000000 0.503183 0.000000
0.000000 0.570234 0.206269
0.047237 0.580376 0.205883
0.244676 0.588848 0.199085
0.463413 0.596923 0.176588
0.703240 0.608675 0.128580
0.954273 0.626810 0.054755
1.000000 0.649767 0.002964
1.000000 0.673686 0.000000
0.000000 0.705656 0.219774
0.079299 0.719266 0.234590
0.262851 0.730587 0.244389
0.462576 0.741117 0.239349
0.680087 0.755846 0.206350
0.910023 0.778412 0.139189
1.000000 0.808238 0.042115
1.000000 0.841879 0.000002
0.000000 0.845026 0.246280
0.119830 0.860904 0.271693
0.285912 0.874180 0.293277
0.462584 0.887587 0.301258
0.653154 0.907684 0.281254
0.856858 0.937374 0.224464
1.000000 0.972903 0.132399
1.000000 0.996964 0.017980
0.000000 0.000000 0.388162
0.016998 0.000000 0.344500
0.175651 0.000000 0.313182
0.331392 0.000000 0.297021
0.488517 0.000000 0.292860
0.649896 0.000000 0.298861
0.815209 0.000000 0.313577
0.982183 0.000000 0.334727
0.000000 0.026825 0.406941
0.001425 0.027722 0.362430
0.165241 0.029754 0.322202
0.351905 0.034254 0.291677
0.540031 0.042045 0.273055
0.727562 0.054102 0.266409
0.911912 0.071247 0.270212
1.000000 0.093255 0.281544
0.000000 0.176500 0.411742
0.000072 0.176514 0.374569
0.155876 0.178492 0.334009
0.368616 0.184247 0.294364
0.584770 0.193616 0.262030
0.796875 0.205194 0.240461
0.990654 0.217706 0.229520
1.000000 0.230598 0.226545
0.000000 0.323357 0.401533
0.000000 0.326236 0.378519
0.153554 0.330100 0.347655
0.381553 0.336636 0.308918
0.616828 0.346408 0.267974
0.847704 0.357727 0.230486
1.000000 0.367871 0.199471
1.000000 0.375444 0.174682
0.000000 0.467124 0.386550
0.000219 0.474924 0.378984
0.166230 0.481935 0.363243
0.394850 0.488868 0.335172
0.633840 0.497530 0.294901
0.871427 0.508448 0.245509
1.000000 0.519421 0.192086
1.000000 0.527935 0.138773
0.000000 0.610240 0.378711
0.004031 0.622260 0.384333
0.195374 0.632007 0.383384
0.411516 0.639097 0.369847
0.638252 0.645985 0.338085
0.867482 0.656031 0.285129
1.000000 0.669800 0.214142
1.000000 0.684954 0.132467
0.000000 0.754538 0.384654
0.048599 0.768571 0.399389
0.234583 0.779703 0.409125
0.430063 0.787380 0.407422
0.634564 0.794317 0.385750
0.844474 0.804940 0.336455
1.000000 0.821912 0.258650
1.000000 0.844296 0.159406
0.000000 0.900066 0.403770
0.111751 0.914166 0.422993
0.277045 0.925509 0.438325
0.447622 0.934606 0.443223
0.625864 0.945136 0.428434
0.812367 0.960884 0.384990
0.994326 0.982361 0.310276
1.000000 0.996941 0.210081
0.000000 0.000000 0.527328
0.001604 0.000000 0.484939
0.149031 0.000000 0.457155
0.313222 0.000000 0.447719
0.474375 0.000000 0.453360
0.635341 0.000000 0.469050
0.795835 0.000000 0.490797
0.954121 0.018719 0.515323
0.000000 0.004318 0.574603
0.000000 0.014500 0.533179
0.117280 0.030692 0.496300
0.313232 0.049644 0.470836
0.503166 0.070560 0.460709
0.685608 0.093332 0.463378
0.860358 0.118679 0.473703
0.999396 0.146778 0.487256
0.000000 0.166519 0.605800
0.000000 0.175478 0.574287
0.084809 0.187781 0.536952
0.308888 0.204486 0.500075
0.526788 0.223879 0.473647
0.730890 0.243221 0.460292
0.920276 0.260959 0.455783
1.000000 0.276992 0.455119
0.000000 0.334903 0.614117
0.000000 0.342901 0.599382
0.062198 0.352641 0.572006
0.303545 0.365211 0.533510
0.542459 0.379879 0.494783
0.765064 0.393968 0.463717
0.968113 0.404788 0.439932
1.000000 0.411622 0.419762
0.000000 0.501311 0.604766
0.000000 0.510956 0.605058
0.068030 0.519874 0.591946
0.309455 0.527991 0.562142
0.553082 0.535824 0.521269
0.783462 0.543423 0.477052
0.989831 0.549249 0.432716
1.000000 0.551896 0.388567
0.000000 0.662176 0.590073
0.000000 0.673204 0.599078
0.108883 0.681898 0.597733
0.334837 0.686660 0.580396
0.564458 0.688402 0.546833
0.786806 0.690060 0.498946
0.991018 0.693323 0.439284
1.000000 0.697301 0.371848
0.000000 0.816635 0.581647
0.001845 0.827100 0.593601
0.172343 0.834828 0.598461
0.373367 0.837747 0.590757
0.577424 0.836780 0.566695
0.779643 0.835946 0.522663
0.977516 0.839271 0.457378
1.000000 0.847300 0.375319
0.000000 0.966751 0.584586
0.070998 0.974467 0.595087
0.241708 0.979863 0.601011
0.413742 0.981864 0.597670
0.588231 0.982134 0.579863
0.765662 0.984381 0.541546
0.945722 0.991356 0.478995
1.000000 0.996813 0.395428
0.000000 0.000000 0.675790
0.000000 0.000000 0.633899
0.132595 0.000000 0.606624
0.310035 0.000000 0.599994
0.478942 0.000000 0.610600
0.642039 0.000000 0.631372
0.799657 0.018460 0.655689
0.951185 0.062189 0.679649
0.000000 0.001306 0.757050
0.000000 0.005129 0.715978
0.076387 0.032369 0.677338
0.288835 0.065381 0.649958
0.486978 0.097378 0.639835
0.669269 0.127358 0.644281
0.837928 0.156680 0.655672
0.994824 0.186736 0.668348
0.000000 0.154029 0.823805
0.000000 0.172472 0.793219
0.016635 0.195268 0.752054
0.259017 0.222434 0.707681
0.487904 0.250115 0.674836
0.691765 0.274695 0.658857
0.872918 0.295077 0.653882
0.999946 0.312171 0.652672
0.000000 0.345386 0.863111
0.000000 0.357754 0.851452
0.000648 0.372202 0.819197
0.224486 0.389369 0.767802
0.479715 0.407439 0.715151
0.705091 0.423109 0.676064
0.899934 0.433932 0.650466
1.000000 0.439837 0.631394
0.000000 0.540402 0.869304
0.000000 0.549324 0.873967
0.000204 0.556951 0.856171
0.206657 0.562954 0.810664
0.470558 0.567820 0.750614
0.708307 0.571663 0.693998
0.913865 0.573123 0.647566
1.000000 0.571118 0.607735
0.000000 0.726349 0.849500
0.000000 0.732506 0.860794
0.004392 0.735339 0.853918
0.226229 0.732818 0.821216
0.474944 0.726067 0.768060
0.706767 0.718617 0.707241
0.913328 0.712443 0.646977
1.000000 0.706808 0.587994
0.000000 0.896512 0.820478
0.000000 0.898799 0.829676
0.062375 0.897483 0.826937
0.279598 0.889772 0.805085
0.497504 0.876706 0.764659
0.706722 0.863002 0.710906
0.901840 0.853009 0.647763
1.000000 0.847412 0.577367
0.000000 1.000000 0.798272
0.001795 1.000000 0.799703
0.163643 1.000000 0.794344
0.347140 0.999625 0.777618
0.529280 0.998606 0.747904
0.708548 0.997408 0.704700
0.884256 0.996494 0.647047
1.000000 0.993054 0.575955
0.000000 0.000000 0.834778
0.000000 0.000000 0.794700
0.122669 0.000000 0.765815
0.316259 0.000000 0.756308
0.494018 0.000000 0.766099
0.659462 0.019265 0.786798
0.814655 0.056903 0.810161
0.961629 0.096635 0.831656
0.000000 0.000000 0.954655
0.000000 0.004093 0.910811
0.043178 0.037084 0.866232
0.275212 0.083382 0.830494
0.483697 0.124727 0.813200
0.668243 0.159250 0.812553
0.833026 0.188984 0.820675
0.985057 0.216988 0.830439
0.000000 0.141037 1.000000
0.000000 0.169723 0.995071
0.000400 0.202624 0.974310
0.219916 0.238604 0.915962
0.462916 0.272487 0.868017
0.670758 0.300226 0.840822
0.847702 0.321205 0.829898
0.997461 0.337765 0.825555
0.000000 0.354377 1.000000
0.000000 0.370478 1.000000
0.000000 0.388159 1.000000
0.152476 0.407615 0.991204
0.428012 0.427039 0.929379
0.662302 0.443261 0.871736
0.854698 0.453929 0.837183
0.998984 0.459723 0.815210
0.000000 0.579818 1.000000
0.000000 0.585774 1.000000
0.000000 0.589305 1.000000
0.099188 0.589829 1.000000
0.389812 0.589146 0.980565
0.643445 0.588844 0.900219
0.851156 0.587614 0.841964
0.999575 0.583929 0.800219
0.000000 0.795501 1.000000
0.000000 0.794376 1.000000
0.000000 0.787931 1.000000
0.094118 0.773327 1.000000
0.371728 0.753861 0.992192
0.624468 0.736178 0.915675
0.838735 0.722801 0.842458
0.999241 0.711501 0.783419
0.000000 0.985987 1.000000
0.000000 0.981184 1.000000
0.000000 0.967453 1.000000
0.146314 0.943391 0.999911
0.389565 0.912433 0.984196
0.618894 0.882985 0.909599
0.824422 0.860254 0.835635
0.997946 0.843519 0.767740
0.000000 1.000000 0.999842
0.000000 1.000000 0.999045
0.032231 1.000000 0.996467
0.235418 1.000000 0.988808
0.437031 1.000000 0.942553
0.630931 0.999577 0.883608
0.814520 0.997202 0.820190
0.987892 0.980135 0.754009
0.000000 0.000000 0.996665
0.000000 0.000000 0.965620
0.116768 0.000000 0.933569
0.326722 0.000000 0.916996
0.513066 0.019494 0.919763
0.679658 0.062428 0.935759
0.832523 0.096659 0.955918
0.976431 0.127486 0.975006
0.000000 0.000000 1.000000
0.000000 0.003548 1.000000
0.018684 0.045177 1.000000
0.268025 0.103881 0.997373
0.486542 0.153560 0.982509
0.673320 0.191013 0.971883
0.836109 0.219001 0.973592
0.984314 0.242039 0.979887
0.000000 0.128354 1.000000
0.000000 0.168015 1.000000
0.000000 0.210372 1.000000
0.189685 0.253436 1.000000
0.446077 0.291912 1.000000
0.658558 0.321474 0.997656
0.834784 0.342159 0.990805
0.988962 0.357171 0.982088
0.000000 0.361530 1.000000
0.000000 0.381071 1.000000
0.000000 0.400759 1.000000
0.091382 0.420652 1.000000
0.385997 0.439865 1.000000
0.629623 0.455928 1.000000
0.824557 0.466906 0.997448
0.987631 0.473408 0.980081
0.000000 0.616151 1.000000
0.000000 0.618123 1.000000
0.000000 0.615811 1.000000
0.016344 0.608637 1.000000
0.316579 0.600913 1.000000
0.586681 0.596370 1.000000
0.802557 0.594005 0.998857
0.978446 0.591310 0.973769
0.000000 0.862646 1.000000
0.000000 0.854130 1.000000
0.000000 0.836613 1.000000
0.000431 0.806772 1.000000
0.265514 0.772370 1.000000
0.542363 0.744029 1.000000
0.772202 0.725068 0.999487
0.961429 0.711860 0.963765
0.000000 1.000000 1.000000
0.000000 1.000000 1.000000
0.000000 0.999488 1.000000
0.010519 0.991773 1.000000
0.261401 0.945254 1.000000
0.518298 0.897830 1.000000
0.744443 0.862189 0.999263
0.940164 0.836626 0.950164
0.000000 1.000000 1.000000
0.000000 1.000000 1.000000
0.000000 1.000000 1.000000
0.079428 1.000000 1.000000
0.308907 1.000000 1.000000
0.527935 1.000000 1.000000
0.731768 0.997787 0.997378
0.920627 0.966368 0.932404
