ecomm/src/main/assets/lut/SoftBlackAndWhite - converted with Color.cube
TITLE "SoftBlackAndWhite - converted with Color.io - Created with Color.io"
LUT_3D_SIZE 8
DOMAIN_MIN 0.000000 0.000000 0.000000
DOMAIN_MAX 0.903226 0.903226 0.903226
0.000001 0.000001 0.007838
0.005561 0.008694 0.012582
0.013446 0.022625 0.025854
0.023068 0.039155 0.034858
0.057122 0.078101 0.066123
0.139671 0.160564 0.146632
0.246641 0.269742 0.251295
0.370855 0.396066 0.371313
0.014076 0.021847 0.030843
0.017270 0.024859 0.030415
0.027516 0.038136 0.041466
0.049030 0.062839 0.061764
0.100460 0.115365 0.111316
0.183369 0.198321 0.192222
0.282901 0.299561 0.289715
0.397037 0.414285 0.399125
0.071680 0.079608 0.090884
0.075033 0.084583 0.094461
0.090970 0.101417 0.109451
0.125661 0.136335 0.142306
0.186124 0.197038 0.200774
0.266400 0.278166 0.279420
0.357074 0.369146 0.367452
0.459734 0.469609 0.463631
0.203339 0.204050 0.222023
0.205611 0.211098 0.228048
0.222661 0.230839 0.246035
0.257464 0.266483 0.279758
0.312075 0.321376 0.332391
0.382702 0.391730 0.400246
0.464360 0.471528 0.477395
0.557379 0.560048 0.562282
0.406413 0.402479 0.426494
0.400509 0.402504 0.426480
0.410486 0.416156 0.438427
0.435334 0.442286 0.462265
0.474341 0.481187 0.498629
0.525348 0.530921 0.545871
0.590292 0.592169 0.605547
0.665831 0.661477 0.673096
0.623796 0.616523 0.643576
0.609937 0.608385 0.635448
0.612112 0.614031 0.640495
0.624309 0.627904 0.652924
0.644461 0.648140 0.671504
0.672336 0.674072 0.696368
0.713177 0.709708 0.732324
0.768531 0.757074 0.780168
0.802624 0.791184 0.823014
0.784550 0.778821 0.809969
0.781673 0.779639 0.810782
0.785820 0.785356 0.816562
0.794710 0.793435 0.825111
0.808734 0.803880 0.836902
0.830924 0.819705 0.854721
0.866805 0.846840 0.883615
0.920777 0.910802 0.944149
0.909480 0.902203 0.935422
0.907125 0.901546 0.935502
0.907969 0.902397 0.937668
0.911967 0.904143 0.941602
0.919309 0.906929 0.947251
0.930607 0.912291 0.954993
0.946734 0.923063 0.966048
0.004135 0.005140 0.012626
0.006103 0.008611 0.012897
0.011610 0.021380 0.023878
0.024169 0.044257 0.038252
0.061599 0.086227 0.072911
0.138500 0.162656 0.146093
0.240881 0.267294 0.244860
0.362151 0.390988 0.360921
0.014320 0.024335 0.032676
0.020768 0.029394 0.034690
0.031497 0.044006 0.046444
0.053753 0.071064 0.068524
0.101409 0.119598 0.113551
0.176951 0.194920 0.185499
0.272663 0.292344 0.277673
0.386312 0.406528 0.384913
0.070587 0.081620 0.090525
0.079236 0.091883 0.099339
0.096749 0.110475 0.115872
0.130443 0.144405 0.147391
0.185189 0.199108 0.199495
0.257255 0.271619 0.268826
0.343316 0.357644 0.350449
0.446108 0.458136 0.444864
0.201272 0.205924 0.219394
0.208422 0.217541 0.229835
0.226099 0.237576 0.248240
0.259978 0.272185 0.280866
0.311928 0.324285 0.330704
0.377049 0.388544 0.392327
0.453419 0.461916 0.461886
0.544989 0.548134 0.542203
0.399638 0.398853 0.418155
0.396025 0.401345 0.419415
0.405396 0.414195 0.430714
0.428920 0.438827 0.453423
0.466708 0.476029 0.488447
0.518776 0.525412 0.535750
0.584794 0.585982 0.593703
0.659163 0.652430 0.655789
0.618145 0.612015 0.635036
0.598893 0.599688 0.621190
0.596383 0.600888 0.621566
0.607105 0.612875 0.632597
0.627613 0.632460 0.651087
0.661307 0.662272 0.680404
0.710232 0.704005 0.721624
0.767477 0.750768 0.766619
0.800863 0.789977 0.817279
0.773426 0.768638 0.795023
0.761970 0.760754 0.787073
0.764346 0.764006 0.790890
0.773776 0.771424 0.799293
0.792124 0.784894 0.814035
0.824699 0.809666 0.839805
0.868550 0.841708 0.872332
0.920963 0.910668 0.941180
0.903975 0.895913 0.926764
0.894492 0.887482 0.919449
0.893793 0.885574 0.919860
0.898431 0.886254 0.923815
0.907813 0.889838 0.930448
0.924903 0.900547 0.942616
0.949111 0.917854 0.959619
0.008409 0.012666 0.020045
0.009442 0.016689 0.021135
0.014744 0.031106 0.030666
0.029700 0.055589 0.046237
0.069883 0.098278 0.083278
0.144611 0.172701 0.153841
0.244042 0.274965 0.249770
0.361758 0.396066 0.361829
0.016875 0.027927 0.034555
0.022702 0.034999 0.039337
0.034017 0.051655 0.051857
0.058836 0.080654 0.075799
0.106035 0.127882 0.119826
0.179041 0.200978 0.188835
0.272120 0.296343 0.277900
0.383560 0.408946 0.381627
0.073508 0.087471 0.093682
0.080591 0.096865 0.101801
0.098640 0.116322 0.119125
0.133624 0.151386 0.151842
0.186021 0.203613 0.201348
0.254522 0.272614 0.266540
0.338153 0.356486 0.344507
0.439739 0.455965 0.436010
0.205133 0.214121 0.224035
0.212664 0.225981 0.234786
0.230170 0.245653 0.253023
0.263339 0.279465 0.284977
0.312488 0.328504 0.331748
0.372807 0.387601 0.387750
0.445596 0.457167 0.451833
0.535282 0.541252 0.527689
0.397091 0.400865 0.416207
0.395334 0.404963 0.418806
0.404611 0.417313 0.429891
0.426871 0.440362 0.451464
0.462728 0.475168 0.484340
0.512533 0.521689 0.528483
0.576633 0.579669 0.582155
0.649321 0.643111 0.638288
0.610113 0.607681 0.626787
0.590329 0.594520 0.612148
0.586751 0.594209 0.611426
0.596957 0.605138 0.622001
0.617065 0.623682 0.639636
0.651888 0.654018 0.668942
0.702681 0.696621 0.709501
0.759465 0.740477 0.748982
0.793524 0.785193 0.808544
0.763186 0.760440 0.783430
0.748681 0.748934 0.772424
0.750311 0.750539 0.775321
0.760101 0.757357 0.783516
0.780813 0.772601 0.799415
0.817914 0.801116 0.827402
0.863644 0.832279 0.857003
0.918980 0.908806 0.936979
0.898885 0.890328 0.919617
0.885426 0.876988 0.908335
0.883570 0.872270 0.907375
0.888959 0.871889 0.911515
0.900347 0.876387 0.918996
0.921961 0.891338 0.934009
0.949763 0.911441 0.951753
0.013651 0.026175 0.029574
0.015670 0.032653 0.033127
0.022217 0.046719 0.040971
0.038348 0.069030 0.055719
0.080732 0.112535 0.095083
0.156670 0.188969 0.167452
0.254250 0.290474 0.262155
0.368869 0.410266 0.370943
0.022570 0.037764 0.040215
0.026937 0.045579 0.045967
0.038233 0.061535 0.057702
0.065353 0.091008 0.083110
0.115078 0.140481 0.129862
0.188525 0.215045 0.199870
0.279749 0.309762 0.287108
0.388062 0.420767 0.386696
0.081977 0.098666 0.101281
0.083621 0.103388 0.104968
0.100177 0.121456 0.121256
0.137402 0.158743 0.156549
0.192130 0.213691 0.208725
0.260409 0.283239 0.273787
0.341686 0.365829 0.348614
0.440165 0.463037 0.435285
0.216043 0.228774 0.235550
0.218717 0.235767 0.241661
0.233012 0.252225 0.256939
0.265792 0.285791 0.288797
0.315211 0.335294 0.335886
0.373834 0.393092 0.389638
0.443196 0.460075 0.449009
0.528808 0.540651 0.518687
0.401497 0.409936 0.421943
0.399371 0.413209 0.423998
0.406956 0.423549 0.433462
0.427660 0.444997 0.453768
0.461908 0.478314 0.485128
0.508132 0.521702 0.525102
0.567879 0.575732 0.572692
0.637973 0.636544 0.622813
0.603555 0.605842 0.621720
0.585497 0.593565 0.608616
0.583263 0.594125 0.609493
0.592882 0.604289 0.619822
0.611809 0.621688 0.636289
0.643169 0.649105 0.661385
0.691004 0.688740 0.696902
0.747044 0.731096 0.731589
0.782575 0.777632 0.798206
0.752988 0.753010 0.773907
0.740837 0.743181 0.765637
0.742810 0.744502 0.769266
0.752431 0.750854 0.777271
0.771592 0.764932 0.790759
0.806472 0.791645 0.814750
0.851779 0.821777 0.840315
0.914689 0.904593 0.931483
0.892681 0.883511 0.912561
0.879140 0.869010 0.901714
0.877457 0.863277 0.901545
0.882853 0.862386 0.905933
0.894525 0.867289 0.912770
0.916057 0.882807 0.925804
0.944613 0.904143 0.941589
0.021510 0.042928 0.039106
0.024893 0.050617 0.043827
0.032040 0.062645 0.050694
0.049091 0.083247 0.065803
0.095222 0.129993 0.109492
0.173037 0.209845 0.184716
0.270088 0.312976 0.279528
0.381311 0.430843 0.384891
0.032174 0.052749 0.049226
0.036500 0.061038 0.055481
0.047807 0.075324 0.066726
0.076099 0.104743 0.093411
0.128735 0.157720 0.143650
0.203126 0.234977 0.215334
0.293110 0.330488 0.301312
0.397855 0.439735 0.396603
0.096729 0.115184 0.113829
0.096810 0.118954 0.116798
0.111133 0.135135 0.131621
0.147590 0.172256 0.166852
0.203733 0.229675 0.221107
0.272446 0.301071 0.286869
0.351514 0.383365 0.358738
0.446422 0.478746 0.439947
0.234474 0.249859 0.253568
0.231071 0.250834 0.253802
0.240452 0.262923 0.264799
0.271256 0.295280 0.295361
0.320983 0.345871 0.343076
0.380200 0.405307 0.397190
0.446738 0.471376 0.452745
0.527541 0.549103 0.515720
0.412709 0.424735 0.433685
0.407263 0.424319 0.432519
0.410468 0.430688 0.438293
0.428487 0.450312 0.456735
0.462081 0.483821 0.487768
0.507121 0.527149 0.526282
0.562191 0.578149 0.568185
0.627694 0.636540 0.612246
0.600783 0.606908 0.620164
0.585141 0.596473 0.609785
0.582781 0.597364 0.611396
0.590667 0.606708 0.620916
0.608713 0.624089 0.636949
0.637449 0.650006 0.659142
0.679893 0.685752 0.688218
0.733274 0.727534 0.718681
0.772153 0.769794 0.788637
0.745641 0.747964 0.767973
0.736550 0.741461 0.763881
0.737972 0.742992 0.768226
0.746599 0.749531 0.776030
0.763928 0.763097 0.787489
0.794173 0.786673 0.805717
0.837179 0.816520 0.827476
0.908606 0.897991 0.924482
0.885659 0.875695 0.905426
0.873897 0.862982 0.897955
0.872041 0.858140 0.899832
0.875917 0.857696 0.904311
0.886711 0.863540 0.910266
0.906641 0.878400 0.919640
0.935014 0.900265 0.932609
0.031672 0.057947 0.045767
0.035325 0.066296 0.052112
0.042500 0.077168 0.059237
0.063519 0.100500 0.078709
0.115372 0.153590 0.128722
0.194468 0.237467 0.206170
0.289821 0.341679 0.299515
0.397539 0.456117 0.400831
0.042924 0.066065 0.055984
0.048088 0.075533 0.064211
0.060895 0.090985 0.077656
0.092727 0.124130 0.108559
0.148195 0.181716 0.162303
0.223094 0.262061 0.235251
0.310924 0.357843 0.319062
0.412046 0.464413 0.410099
0.112987 0.131910 0.126395
0.116481 0.139712 0.133692
0.130868 0.157015 0.149555
0.166406 0.194768 0.184876
0.221558 0.253035 0.238915
0.289580 0.325518 0.304250
0.366091 0.407541 0.373304
0.456937 0.501561 0.449076
0.255173 0.272061 0.272456
0.250834 0.272604 0.272338
0.257143 0.282774 0.281088
0.284936 0.313629 0.309512
0.332231 0.363307 0.355196
0.391004 0.423538 0.408813
0.455600 0.490146 0.462436
0.532240 0.567579 0.519754
0.428931 0.443311 0.449334
0.419082 0.438668 0.444240
0.418121 0.442111 0.446917
0.433578 0.460932 0.463823
0.465610 0.494729 0.493840
0.510537 0.539530 0.532243
0.563227 0.590737 0.571898
0.623991 0.648168 0.610917
0.604597 0.612980 0.624031
0.588537 0.602572 0.614119
0.584371 0.603204 0.615245
0.590032 0.612333 0.623817
0.606884 0.630559 0.639607
0.635308 0.657890 0.661715
0.673992 0.692458 0.687368
0.722227 0.732914 0.713190
0.767421 0.766094 0.783800
0.743093 0.747396 0.766624
0.734483 0.743183 0.764743
0.733981 0.745298 0.768982
0.740962 0.752851 0.776676
0.757493 0.767557 0.787888
0.784184 0.789678 0.802728
0.822786 0.818592 0.820338
0.905534 0.893307 0.919845
0.881816 0.871490 0.901739
0.869923 0.861050 0.896877
0.865743 0.857528 0.899507
0.867116 0.858402 0.903886
0.876712 0.865846 0.909643
0.895315 0.880643 0.917091
0.922776 0.902117 0.926980
0.043491 0.071687 0.051417
0.046202 0.079577 0.058034
0.055683 0.092897 0.068702
0.085322 0.125117 0.097885
0.143207 0.186954 0.154754
0.222109 0.274411 0.232896
0.314779 0.378782 0.323021
0.416648 0.488417 0.417635
0.060417 0.083710 0.067540
0.065381 0.093747 0.076643
0.081834 0.113788 0.094983
0.117770 0.152803 0.130994
0.174871 0.215137 0.187222
0.248640 0.297330 0.259740
0.333726 0.392554 0.340517
0.429619 0.495467 0.425960
0.137469 0.156086 0.146204
0.142801 0.166898 0.156109
0.159559 0.188202 0.175474
0.193808 0.227034 0.210553
0.245977 0.285047 0.262230
0.311105 0.356953 0.324780
0.384773 0.437956 0.391145
0.470489 0.529708 0.462002
0.278869 0.296302 0.292945
0.277309 0.300731 0.296379
0.284110 0.313085 0.306597
0.307991 0.342375 0.331863
0.350313 0.389767 0.372815
0.405420 0.448486 0.422882
0.467853 0.514841 0.475122
0.539846 0.591429 0.528794
0.448254 0.463206 0.466002
0.436413 0.458021 0.460184
0.433533 0.461635 0.462151
0.445948 0.480135 0.477027
0.474585 0.513811 0.504468
0.516699 0.558417 0.540446
0.567710 0.610123 0.579286
0.624965 0.667551 0.616499
0.615154 0.623946 0.632630
0.596095 0.612415 0.621303
0.589141 0.612685 0.621273
0.592264 0.622326 0.628996
0.607119 0.641978 0.644273
0.634420 0.670909 0.665990
0.672143 0.706854 0.691303
0.716518 0.747234 0.715247
0.769384 0.767690 0.784028
0.744129 0.750434 0.767887
0.733962 0.747458 0.766489
0.730865 0.750552 0.770284
0.735789 0.759714 0.777812
0.751107 0.776071 0.789081
0.777007 0.799642 0.803745
0.811838 0.828535 0.819307
0.904833 0.890798 0.916992
0.879973 0.870722 0.900124
0.866727 0.862793 0.896962
0.859599 0.861117 0.899514
0.858371 0.864014 0.903646
0.866142 0.872952 0.909336
0.883967 0.888696 0.916718
0.910550 0.910095 0.925186
0.061779 0.090429 0.061742
0.064252 0.098998 0.069363
0.080560 0.120010 0.088336
0.119020 0.163343 0.127530
0.179033 0.231616 0.187764
0.255805 0.320691 0.264661
0.344342 0.422849 0.350313
0.439865 0.527079 0.438075
0.090253 0.112554 0.090193
0.094480 0.123181 0.099587
0.113708 0.147972 0.121846
0.152158 0.192916 0.161384
0.208619 0.258833 0.217988
0.279291 0.341673 0.287652
0.360162 0.434766 0.363827
0.450518 0.532712 0.444056
0.172316 0.190539 0.175118
0.176464 0.201741 0.184637
0.194201 0.226383 0.206019
0.227383 0.267529 0.240836
0.275702 0.325632 0.288875
0.335875 0.396542 0.345961
0.405773 0.476085 0.408605
0.486877 0.563839 0.476535
0.307771 0.325329 0.316761
0.307678 0.332804 0.322480
0.316445 0.349285 0.335426
0.337661 0.379318 0.358556
0.373891 0.424759 0.393669
0.422750 0.481679 0.437477
0.481032 0.546752 0.486178
0.549186 0.620516 0.538673
0.471284 0.485895 0.484007
0.459461 0.482612 0.479329
0.456212 0.488600 0.481935
0.465043 0.507815 0.494585
0.488273 0.540917 0.517874
0.524976 0.584506 0.548943
0.572344 0.635075 0.584913
0.627350 0.690934 0.622708
0.632615 0.640849 0.645793
0.609310 0.627444 0.631784
0.598998 0.627677 0.630266
0.598782 0.638671 0.637080
0.610190 0.659813 0.650999
0.634572 0.689504 0.670482
0.670089 0.725401 0.694001
0.713201 0.765878 0.718798
0.778545 0.776019 0.789616
0.749547 0.757658 0.771818
0.735442 0.754228 0.769019
0.728956 0.758512 0.772318
0.731183 0.769813 0.779616
0.745052 0.788465 0.790679
0.769835 0.813388 0.804875
0.803664 0.843316 0.820814
0.909644 0.894226 0.918521
0.881171 0.873970 0.900811
0.864784 0.867276 0.897519
0.854318 0.867195 0.899503
0.850449 0.872066 0.903249
0.856629 0.883108 0.908974
0.873044 0.900027 0.916536
0.899007 0.922207 0.925173
