ecomm/src/main/assets/lut/SoftBlackAndWhite - converted with Color.cube
TITLE "SoftBlackAndWhite - converted with Color.io - Created with Color.io"
LUT_3D_SIZE 32
DOMAIN_MIN 0.0 0.0 0.0
DOMAIN_MAX 1.0 1.0 1.0
0.000001 0.000001 0.007838
0.001191 0.001624 0.007713
0.002472 0.003506 0.008259
0.003906 0.005827 0.009866
0.005561 0.008694 0.012582
0.007420 0.012014 0.016045
0.009413 0.015573 0.019700
0.011448 0.019149 0.023058
0.013446 0.022625 0.025854
0.015406 0.026080 0.028112
0.017461 0.029767 0.030090
0.019873 0.034008 0.032172
0.023068 0.039155 0.034858
0.027664 0.045617 0.038806
0.034421 0.053901 0.044825
0.044073 0.064569 0.053735
0.057122 0.078101 0.066123
0.073678 0.094730 0.082133
0.093418 0.114350 0.101400
0.115677 0.136508 0.123176
0.139671 0.160564 0.146632
0.164941 0.186148 0.171320
0.191188 0.212916 0.196984
0.218383 0.240765 0.223618
0.246641 0.269742 0.251295
0.276005 0.299818 0.279965
0.306474 0.330917 0.309527
0.338077 0.363000 0.339954
0.370855 0.396066 0.371313
0.404772 0.430078 0.403660
0.439860 0.465074 0.437120
0.475643 0.500661 0.471278
0.001883 0.003770 0.012164
0.002810 0.004804 0.011510
0.003865 0.006158 0.011530
0.005131 0.008050 0.012631
0.006671 0.010578 0.014867
0.008483 0.013668 0.017932
0.010492 0.017098 0.021305
0.012620 0.020652 0.024530
0.014800 0.024212 0.027359
0.017065 0.027860 0.029832
0.019562 0.031836 0.032208
0.022593 0.036483 0.034902
0.026617 0.042186 0.038443
0.032262 0.049390 0.043500
0.040220 0.058577 0.050809
0.051077 0.070200 0.061020
0.065139 0.084569 0.074495
0.082357 0.101766 0.091202
0.102361 0.121619 0.110729
0.124548 0.143716 0.132414
0.148267 0.167520 0.155584
0.173173 0.192748 0.179918
0.199025 0.219109 0.205212
0.225801 0.246502 0.231448
0.253597 0.274958 0.258671
0.282450 0.304445 0.286819
0.312362 0.334900 0.315796
0.343363 0.366298 0.345589
0.375493 0.398657 0.376275
0.408711 0.431945 0.407912
0.443037 0.466200 0.440619
0.478018 0.501035 0.473996
0.004387 0.008249 0.017043
0.005079 0.008781 0.016000
0.005926 0.009666 0.015601
0.007045 0.011167 0.016266
0.008496 0.013381 0.018064
0.010272 0.016231 0.020729
0.012333 0.019537 0.023827
0.014593 0.023074 0.026929
0.017017 0.026744 0.029827
0.019663 0.030633 0.032580
0.022705 0.034976 0.035454
0.026464 0.040115 0.038867
0.031421 0.046461 0.043368
0.038184 0.054466 0.049601
0.047364 0.064577 0.058213
0.059398 0.077137 0.069683
0.074409 0.092296 0.084169
0.092214 0.110005 0.101486
0.112411 0.130041 0.121200
0.134474 0.152037 0.142748
0.157881 0.175558 0.165603
0.182393 0.200405 0.189560
0.207825 0.226332 0.214462
0.234154 0.253238 0.240274
0.261462 0.281141 0.267012
0.289775 0.310005 0.294602
0.319102 0.339781 0.322962
0.349481 0.370468 0.352097
0.380947 0.402093 0.382099
0.413457 0.434638 0.413027
0.447021 0.468138 0.444996
0.481199 0.502205 0.477611
0.008194 0.014088 0.023060
0.008690 0.014253 0.021840
0.009367 0.014792 0.021210
0.010365 0.015970 0.021561
0.011761 0.017910 0.022996
0.013557 0.020551 0.025312
0.015721 0.023737 0.028153
0.018194 0.027284 0.031176
0.020968 0.031120 0.034222
0.024129 0.035335 0.037371
0.027876 0.040162 0.040896
0.032539 0.045935 0.045204
0.038587 0.053058 0.050819
0.046565 0.061954 0.058314
0.056977 0.073008 0.068220
0.070110 0.086455 0.080849
0.085940 0.102313 0.096192
0.104195 0.120432 0.113968
0.124473 0.140566 0.133754
0.146333 0.162403 0.155093
0.169373 0.185599 0.177593
0.193451 0.210026 0.201146
0.218422 0.235473 0.225619
0.244257 0.261838 0.250956
0.271024 0.289126 0.277148
0.298746 0.317303 0.304116
0.327441 0.346339 0.331799
0.357156 0.376258 0.360232
0.387935 0.407109 0.389524
0.419728 0.438876 0.419741
0.452534 0.471592 0.450989
0.485927 0.504868 0.482873
0.014076 0.021847 0.030843
0.014413 0.021811 0.029670
0.014959 0.022143 0.029010
0.015883 0.023119 0.029222
0.017270 0.024859 0.030415
0.019148 0.027346 0.032475
0.021490 0.030456 0.035140
0.024271 0.034063 0.038165
0.027516 0.038136 0.041466
0.031338 0.042777 0.045148
0.035964 0.048223 0.049493
0.041724 0.054790 0.054882
0.049030 0.062839 0.061764
0.058324 0.072730 0.070603
0.069946 0.084735 0.081754
0.084030 0.098968 0.095361
0.100460 0.115365 0.111316
0.118952 0.133739 0.129326
0.139161 0.153865 0.149038
0.160736 0.175484 0.170101
0.183369 0.198321 0.192222
0.206981 0.222291 0.215349
0.231448 0.247208 0.239352
0.256738 0.272966 0.264152
0.282901 0.299561 0.289715
0.309963 0.326966 0.315974
0.337961 0.355180 0.342901
0.366967 0.384262 0.370574
0.397037 0.414285 0.399125
0.428116 0.445236 0.428621
0.460196 0.477143 0.459162
0.492848 0.509607 0.490340
0.022784 0.031932 0.040988
0.023010 0.031868 0.040053
0.023476 0.032157 0.039553
0.024372 0.033066 0.039800
0.025804 0.034723 0.040917
0.027816 0.037142 0.042858
0.030402 0.040249 0.045467
0.033568 0.043987 0.048611
0.037370 0.048365 0.052273
0.041932 0.053496 0.056577
0.047474 0.059594 0.061774
0.054281 0.066929 0.068186
0.062704 0.075815 0.076181
0.073108 0.086563 0.086132
0.085756 0.099403 0.098314
0.100689 0.114374 0.112767
0.117694 0.131318 0.129288
0.136438 0.149982 0.147540
0.156603 0.170134 0.167211
0.177921 0.191565 0.188042
0.200173 0.214062 0.209825
0.223326 0.237570 0.232535
0.247270 0.261918 0.256037
0.271967 0.287004 0.280232
0.297462 0.312822 0.305081
0.323796 0.339367 0.330540
0.351039 0.366680 0.356633
0.379300 0.394864 0.383489
0.408656 0.424019 0.411268
0.439054 0.454134 0.440035
0.470473 0.485222 0.469872
0.502470 0.516876 0.500353
0.034964 0.044647 0.054024
0.035128 0.044711 0.053457
0.035558 0.045105 0.053253
0.036470 0.046087 0.053688
0.037986 0.047787 0.054893
0.040173 0.050251 0.056880
0.043055 0.053468 0.059594
0.046658 0.057428 0.062988
0.051059 0.062183 0.067106
0.056396 0.067861 0.072091
0.062865 0.074648 0.078160
0.070710 0.082777 0.085575
0.080206 0.092502 0.094619
0.091618 0.104067 0.105560
0.105110 0.117629 0.118566
0.120640 0.133162 0.133602
0.137969 0.150467 0.150437
0.156786 0.169284 0.168765
0.176825 0.189400 0.188332
0.197885 0.210638 0.208943
0.219789 0.232815 0.230426
0.242508 0.255870 0.252734
0.265933 0.279635 0.275714
0.290013 0.304008 0.299251
0.314800 0.328990 0.323314
0.340364 0.354614 0.347906
0.366824 0.380976 0.373114
0.394336 0.408232 0.399122
0.423004 0.436510 0.426115
0.452775 0.465796 0.454144
0.483618 0.496092 0.483269
0.515063 0.526963 0.513042
0.051123 0.060358 0.070469
0.051266 0.060655 0.070321
0.051700 0.061266 0.070489
0.052655 0.062429 0.071214
0.054283 0.064293 0.072642
0.056668 0.066926 0.074826
0.059855 0.070354 0.077777
0.063899 0.074624 0.081527
0.068873 0.079802 0.086145
0.074913 0.086020 0.091781
0.082188 0.093445 0.098617
0.090891 0.102264 0.106858
0.101231 0.112684 0.116715
0.113391 0.124892 0.128377
0.127460 0.138988 0.141941
0.143358 0.154908 0.157334
0.160845 0.172439 0.174328
0.179647 0.191331 0.192659
0.199546 0.211385 0.212116
0.220378 0.232443 0.232540
0.241983 0.254325 0.253758
0.264307 0.276939 0.275677
0.287229 0.300116 0.298123
0.310695 0.323757 0.320974
0.334770 0.347883 0.344223
0.359566 0.372573 0.367931
0.385259 0.397988 0.392251
0.412056 0.424334 0.417419
0.440084 0.451763 0.443630
0.469286 0.480253 0.470915
0.499617 0.509789 0.499301
0.530576 0.539912 0.528325
0.071680 0.079608 0.090884
0.071821 0.080183 0.091137
0.072272 0.081060 0.091677
0.073286 0.082476 0.092736
0.075033 0.084583 0.094461
0.077613 0.087471 0.096934
0.081086 0.091194 0.100210
0.085513 0.095815 0.104351
0.090970 0.101417 0.109451
0.097569 0.108120 0.115638
0.105449 0.116067 0.123069
0.114763 0.125418 0.131907
0.125661 0.136335 0.142306
0.138269 0.148962 0.154403
0.152633 0.163363 0.168256
0.168656 0.179458 0.183782
0.186124 0.197038 0.200774
0.204800 0.215874 0.219004
0.224501 0.235780 0.238294
0.245078 0.256596 0.258485
0.266400 0.278166 0.279420
0.288350 0.300334 0.300931
0.310789 0.322922 0.322825
0.333670 0.345845 0.344991
0.357074 0.369146 0.367452
0.381160 0.392954 0.390321
0.406154 0.417483 0.413811
0.432299 0.442981 0.438185
0.459734 0.469609 0.463631
0.488387 0.497335 0.490155
0.518201 0.526124 0.517750
0.548623 0.555475 0.545924
0.096989 0.103090 0.115855
0.097120 0.103925 0.116435
0.097579 0.105059 0.117293
0.098638 0.106732 0.118658
0.100480 0.109106 0.120684
0.103220 0.112280 0.123468
0.106923 0.116319 0.127079
0.111643 0.121286 0.131587
0.117445 0.127257 0.137083
0.124418 0.134341 0.143683
0.132674 0.142660 0.151513
0.142335 0.152352 0.160706
0.153508 0.163548 0.171383
0.166276 0.176355 0.183648
0.180663 0.190813 0.197539
0.196579 0.206843 0.212983
0.213840 0.224260 0.229798
0.232247 0.242857 0.247783
0.251634 0.262452 0.266765
0.271841 0.282869 0.286570
0.292781 0.303993 0.307077
0.314318 0.325648 0.328094
0.336263 0.347621 0.349391
0.358588 0.369847 0.370883
0.381394 0.392392 0.392619
0.404864 0.415414 0.414745
0.429250 0.439156 0.437498
0.454801 0.463875 0.461135
0.481640 0.489726 0.485818
0.509688 0.516669 0.511529
0.538881 0.544665 0.538244
0.568580 0.573133 0.565413
0.127319 0.131458 0.145892
0.127403 0.132482 0.146691
0.127830 0.133809 0.147771
0.128885 0.135687 0.149363
0.130769 0.138286 0.151627
0.133601 0.141710 0.154670
0.137445 0.146021 0.158557
0.142335 0.151262 0.163345
0.148318 0.157496 0.169113
0.155462 0.164811 0.175954
0.163862 0.173320 0.183982
0.173613 0.183141 0.193305
0.184795 0.194381 0.204018
0.197467 0.207124 0.216204
0.211633 0.221389 0.229892
0.227218 0.237104 0.245021
0.244074 0.254117 0.261442
0.262040 0.272249 0.278977
0.280959 0.291329 0.297455
0.300662 0.311169 0.316691
0.321060 0.331652 0.336562
0.342034 0.352628 0.356905
0.363422 0.373911 0.377520
0.385204 0.395451 0.398344
0.407482 0.417315 0.419432
0.430437 0.439660 0.440926
0.454299 0.462714 0.463038
0.479273 0.486697 0.485975
0.505429 0.511721 0.509842
0.532733 0.537795 0.534648
0.561037 0.564808 0.560294
0.589777 0.592236 0.586314
0.162796 0.165105 0.181290
0.162759 0.166208 0.182180
0.163079 0.167621 0.183357
0.164050 0.169602 0.185059
0.165884 0.172327 0.187453
0.168707 0.175901 0.190644
0.172568 0.180373 0.194688
0.177485 0.185765 0.199625
0.183478 0.192113 0.205506
0.190600 0.199488 0.212410
0.198923 0.207985 0.220434
0.208524 0.217706 0.229671
0.219466 0.228741 0.240202
0.231787 0.241153 0.252081
0.245494 0.254961 0.265328
0.260520 0.270100 0.279881
0.276740 0.286436 0.295615
0.294018 0.303817 0.312385
0.312226 0.322099 0.330056
0.331223 0.341128 0.348471
0.350945 0.360812 0.367536
0.371292 0.381027 0.387116
0.392105 0.401596 0.407027
0.413366 0.422475 0.427211
0.435174 0.443724 0.447718
0.457682 0.465475 0.468663
0.481069 0.487910 0.490203
0.505456 0.511177 0.512464
0.530825 0.535306 0.535464
0.557201 0.560371 0.559250
0.584293 0.586129 0.583606
0.611667 0.612169 0.608190
0.203339 0.204050 0.222023
0.203074 0.205088 0.222865
0.203174 0.206447 0.223999
0.203947 0.208388 0.225669
0.205611 0.211098 0.228048
0.208291 0.214676 0.231241
0.212029 0.219159 0.235289
0.216819 0.224542 0.240211
0.222661 0.230839 0.246035
0.229587 0.238098 0.252821
0.237659 0.246403 0.260653
0.246935 0.255841 0.269611
0.257464 0.266483 0.279758
0.269276 0.278385 0.291137
0.282363 0.291550 0.303750
0.296666 0.305919 0.317538
0.312075 0.321376 0.332391
0.328476 0.337794 0.348190
0.345772 0.355058 0.364829
0.363854 0.373051 0.382194
0.382702 0.391730 0.400246
0.402261 0.411022 0.418903
0.422386 0.430768 0.438003
0.443060 0.450923 0.457491
0.464360 0.471528 0.477395
0.486382 0.492663 0.497773
0.509224 0.514433 0.518701
0.532919 0.536905 0.540219
0.557379 0.560048 0.562282
0.582543 0.583848 0.584851
0.608148 0.608083 0.607729
0.633907 0.632480 0.630714
0.248654 0.247975 0.267733
0.248023 0.248781 0.268378
0.247767 0.249916 0.269319
0.248203 0.251651 0.270804
0.249557 0.254176 0.273011
0.251952 0.257590 0.276041
0.255418 0.261912 0.279925
0.259932 0.267119 0.284660
0.265472 0.273198 0.290253
0.272052 0.280177 0.296745
0.279716 0.288121 0.304206
0.288513 0.297106 0.312704
0.298477 0.307188 0.322289
0.309625 0.318408 0.332986
0.321953 0.330774 0.344797
0.335397 0.344228 0.357659
0.349856 0.358663 0.371472
0.365237 0.373973 0.386141
0.381467 0.390073 0.401594
0.398474 0.406882 0.417761
0.416292 0.424412 0.434661
0.434921 0.442648 0.452275
0.454228 0.461447 0.470456
0.474190 0.480763 0.489146
0.494853 0.500605 0.508340
0.516246 0.520993 0.528030
0.538377 0.541945 0.548209
0.561195 0.563450 0.568836
0.584563 0.585424 0.589818
0.608349 0.607780 0.611050
0.632326 0.630328 0.632364
0.656344 0.652926 0.653681
0.298206 0.296296 0.317739
0.297065 0.296689 0.318042
0.296313 0.297424 0.318644
0.296276 0.298780 0.319797
0.297184 0.300953 0.321682
0.299160 0.304036 0.324395
0.302223 0.308036 0.327957
0.306332 0.312912 0.332349
0.311444 0.318625 0.337554
0.317549 0.325181 0.343594
0.324676 0.332625 0.350526
0.332861 0.341014 0.358406
0.342129 0.350400 0.367277
0.352491 0.360813 0.377153
0.363933 0.372257 0.388023
0.376403 0.384690 0.399841
0.389802 0.398009 0.412508
0.404045 0.412120 0.425950
0.419087 0.426960 0.440123
0.434893 0.442485 0.454998
0.451546 0.458757 0.470651
0.469100 0.475810 0.487115
0.487431 0.493516 0.504252
0.506503 0.511820 0.521991
0.526325 0.530703 0.540297
0.546865 0.550125 0.559103
0.568060 0.570038 0.578336
0.589799 0.590369 0.597899
0.611917 0.611001 0.617670
0.634247 0.631809 0.637507
0.656604 0.652637 0.657276
0.678931 0.673438 0.676982
0.351172 0.348174 0.371068
0.349406 0.347996 0.370899
0.348048 0.348177 0.371038
0.347434 0.349010 0.371740
0.347800 0.350691 0.373188
0.349262 0.353310 0.375469
0.351825 0.356859 0.378593
0.355432 0.361279 0.382521
0.360017 0.366511 0.387218
0.365548 0.372531 0.392687
0.372032 0.379362 0.398967
0.379492 0.387045 0.406108
0.387950 0.395624 0.414145
0.397413 0.405130 0.423092
0.407866 0.415569 0.432934
0.419252 0.426895 0.443616
0.431487 0.439026 0.455066
0.444489 0.451868 0.467215
0.458235 0.465375 0.480047
0.472722 0.479532 0.493564
0.488080 0.494439 0.507886
0.504406 0.510172 0.523087
0.521581 0.526615 0.539034
0.539556 0.543704 0.555645
0.558307 0.561397 0.572858
0.577760 0.579616 0.590570
0.597804 0.598267 0.608666
0.618301 0.617247 0.627022
0.639081 0.636430 0.645504
0.659977 0.655685 0.663968
0.680835 0.674886 0.682302
0.701636 0.694030 0.700546
0.406413 0.402479 0.426494
0.403967 0.401633 0.425760
0.401953 0.401169 0.425351
0.400722 0.401393 0.425532
0.400509 0.402504 0.426480
0.401418 0.404580 0.428273
0.403437 0.407601 0.430901
0.406489 0.411487 0.434303
0.410486 0.416156 0.438427
0.415372 0.421561 0.443254
0.421133 0.427698 0.448810
0.427781 0.434594 0.455136
0.435334 0.442286 0.462265
0.443801 0.450806 0.470211
0.453168 0.460167 0.478959
0.463377 0.470322 0.488457
0.474341 0.481187 0.498629
0.486006 0.492689 0.509437
0.498355 0.504788 0.520873
0.511413 0.517489 0.532968
0.525348 0.530921 0.545871
0.540290 0.545189 0.559686
0.556131 0.560194 0.574293
0.572812 0.575872 0.589605
0.590292 0.592169 0.605547
0.608470 0.608991 0.622000
0.627219 0.626226 0.638831
0.646393 0.643761 0.655907
0.665831 0.661477 0.673096
0.685386 0.679262 0.690268
0.704917 0.697007 0.707321
0.724404 0.714708 0.724295
0.462559 0.457821 0.482650
0.459445 0.456295 0.481302
0.456795 0.455178 0.480310
0.454974 0.454789 0.479951
0.454210 0.455323 0.480398
0.454588 0.456847 0.481708
0.456072 0.459319 0.483844
0.458563 0.462642 0.486724
0.461950 0.466712 0.490271
0.466155 0.471459 0.494448
0.471148 0.476857 0.499265
0.476929 0.482918 0.504753
0.483514 0.489672 0.510944
0.490914 0.497154 0.517853
0.499119 0.505376 0.525470
0.508075 0.514300 0.533747
0.517701 0.523844 0.542615
0.527944 0.533932 0.552038
0.538820 0.544555 0.562042
0.550368 0.555720 0.572661
0.562775 0.567574 0.584066
0.576203 0.580249 0.596388
0.590562 0.593670 0.609527
0.605800 0.607788 0.623408
0.621873 0.622555 0.637961
0.638675 0.637876 0.653066
0.656075 0.653638 0.668585
0.673930 0.669730 0.684385
0.692087 0.686040 0.700337
0.710422 0.702482 0.716326
0.728796 0.718956 0.732257
0.747161 0.735424 0.748139
0.518215 0.512724 0.538208
0.514501 0.510583 0.536245
0.511285 0.508877 0.534678
0.508945 0.507939 0.533806
0.507703 0.507956 0.533793
0.507613 0.508975 0.534670
0.508612 0.510932 0.536369
0.510572 0.513709 0.538776
0.513364 0.517185 0.541792
0.516892 0.521270 0.545360
0.521112 0.525922 0.549473
0.526016 0.531139 0.554152
0.531616 0.536943 0.559425
0.537925 0.543369 0.565309
0.544938 0.550429 0.571800
0.552609 0.558091 0.578857
0.560871 0.566280 0.586426
0.569682 0.574934 0.594478
0.579058 0.584036 0.603036
0.589068 0.593627 0.612166
0.599901 0.603850 0.622035
0.611743 0.614857 0.632799
0.624534 0.626611 0.644392
0.638245 0.639093 0.656769
0.652849 0.652278 0.669881
0.668251 0.666083 0.683618
0.684321 0.680399 0.697844
0.700917 0.695115 0.712422
0.717886 0.710120 0.727219
0.735121 0.725351 0.742138
0.752481 0.740707 0.757080
0.769872 0.756103 0.772013
0.572216 0.565905 0.592084
0.567988 0.563254 0.589541
0.564294 0.561063 0.587441
0.561524 0.559674 0.586107
0.559883 0.559264 0.585696
0.559400 0.559857 0.586209
0.559976 0.561364 0.587539
0.561456 0.563646 0.589543
0.563693 0.566565 0.592096
0.566580 0.570021 0.595121
0.570061 0.573957 0.598597
0.574124 0.578361 0.602533
0.578775 0.583250 0.606954
0.584031 0.588650 0.611875
0.589890 0.594576 0.617298
0.596318 0.601000 0.623194
0.603263 0.607864 0.629523
0.610699 0.615114 0.636269
0.618646 0.622743 0.643457
0.627161 0.630783 0.651141
0.636456 0.639397 0.659507
0.646719 0.648744 0.668722
0.657931 0.658829 0.678762
0.670100 0.669675 0.689623
0.683234 0.681291 0.701293
0.697256 0.693616 0.713680
0.712046 0.706550 0.726656
0.727458 0.719976 0.740077
0.743331 0.733776 0.753802
0.759570 0.747902 0.767747
0.776020 0.762246 0.781799
0.792543 0.776674 0.795883
0.623796 0.616523 0.643576
0.619138 0.613462 0.640513
0.615042 0.610883 0.637940
0.611911 0.609135 0.636202
0.609937 0.608385 0.635448
0.609119 0.608632 0.635652
0.609325 0.609760 0.636674
0.610377 0.611610 0.638337
0.612112 0.614031 0.640495
0.614414 0.616914 0.643053
0.617223 0.620197 0.645975
0.620520 0.623857 0.649260
0.624309 0.627904 0.652924
0.628605 0.632359 0.656984
0.633412 0.637233 0.661445
0.638709 0.642508 0.666292
0.644461 0.648140 0.671504
0.650653 0.654091 0.677072
0.657307 0.660359 0.683021
0.664474 0.666972 0.689399
0.672336 0.674072 0.696368
0.681113 0.681851 0.704125
0.690810 0.690341 0.712677
0.701482 0.699610 0.722067
0.713177 0.709708 0.732324
0.725853 0.720604 0.743389
0.739407 0.732211 0.755149
0.753691 0.744410 0.767459
0.768531 0.757074 0.780168
0.783842 0.770165 0.793200
0.799448 0.783557 0.806428
0.815165 0.797073 0.819728
0.672637 0.664266 0.692400
0.667608 0.660861 0.688884
0.663163 0.657958 0.685896
0.659713 0.655911 0.683799
0.657441 0.654879 0.682740
0.656322 0.654836 0.682670
0.656195 0.655643 0.683418
0.656862 0.657120 0.684783
0.658148 0.659105 0.686597
0.659935 0.661486 0.688755
0.662163 0.664199 0.691210
0.664809 0.667220 0.693952
0.667871 0.670544 0.696986
0.671351 0.674177 0.700320
0.675250 0.678122 0.703960
0.679561 0.682372 0.707905
0.684274 0.686904 0.712151
0.689388 0.691700 0.716705
0.694926 0.696762 0.721591
0.700926 0.702114 0.726845
0.707545 0.707880 0.732606
0.714980 0.714234 0.739051
0.723290 0.721260 0.746242
0.732553 0.729052 0.754250
0.742865 0.737699 0.763147
0.754224 0.747206 0.772916
0.766555 0.757511 0.783468
0.779721 0.768504 0.794674
0.793544 0.780054 0.806380
0.807941 0.792130 0.818519
0.822717 0.804592 0.830947
0.837638 0.817214 0.843486
0.718731 0.709216 0.738570
0.713380 0.705502 0.734667
0.708624 0.702305 0.731314
0.704881 0.699986 0.728893
0.702329 0.698697 0.727550
0.700924 0.698396 0.727221
0.700487 0.698919 0.727711
0.700801 0.700066 0.728799
0.701681 0.701663 0.730300
0.703011 0.703598 0.732100
0.704729 0.705807 0.734146
0.706811 0.708261 0.736420
0.709252 0.710952 0.738925
0.712050 0.713880 0.741664
0.715206 0.717042 0.744643
0.718719 0.720434 0.747868
0.722592 0.724048 0.751347
0.726833 0.727876 0.755089
0.731461 0.731923 0.759114
0.736499 0.736207 0.763447
0.742079 0.740834 0.768202
0.748376 0.745963 0.773539
0.755451 0.751679 0.779525
0.763430 0.758119 0.786276
0.772429 0.765392 0.793887
0.782493 0.773542 0.802381
0.793586 0.782543 0.811714
0.805595 0.792309 0.821782
0.818349 0.802718 0.832447
0.831780 0.813754 0.843660
0.845670 0.825255 0.855254
0.859741 0.836953 0.867003
0.762129 0.751547 0.782164
0.756520 0.747556 0.777942
0.751505 0.744091 0.774282
0.747505 0.741517 0.771574
0.744696 0.739987 0.769968
0.743029 0.739446 0.769394
0.742308 0.739710 0.769641
0.742304 0.740560 0.770469
0.742825 0.741812 0.771682
0.743752 0.743348 0.773159
0.745026 0.745107 0.774843
0.746625 0.747063 0.776716
0.748541 0.749204 0.778779
0.750774 0.751527 0.781034
0.753328 0.754031 0.783490
0.756208 0.756717 0.786156
0.759421 0.759578 0.789041
0.762974 0.762611 0.792154
0.766876 0.765820 0.795506
0.771144 0.769221 0.799113
0.775880 0.772899 0.803062
0.781233 0.776991 0.807490
0.787262 0.781582 0.812465
0.794087 0.786799 0.818095
0.801860 0.792791 0.824512
0.810654 0.799623 0.831766
0.820477 0.807312 0.839861
0.831257 0.815812 0.848737
0.842845 0.825022 0.858283
0.855195 0.834947 0.868481
0.868079 0.845411 0.879153
0.881178 0.856105 0.890021
0.802624 0.791184 0.823014
0.796881 0.786998 0.818585
0.791719 0.783333 0.814713
0.787549 0.780556 0.811789
0.784550 0.778821 0.809969
0.782674 0.778069 0.809185
0.781722 0.778105 0.809221
0.781454 0.778693 0.809822
0.781673 0.779639 0.810782
0.782258 0.780821 0.811974
0.783155 0.782180 0.813341
0.784343 0.783695 0.814870
0.785820 0.785356 0.816562
0.787589 0.787161 0.818424
0.789655 0.789110 0.820463
0.792027 0.791202 0.822690
0.794710 0.793435 0.825111
0.797710 0.795807 0.827731
0.801031 0.798320 0.830555
0.804679 0.800988 0.833589
0.808734 0.803880 0.836902
0.813312 0.807106 0.840598
0.818461 0.810738 0.844731
0.824286 0.814893 0.849400
0.830924 0.819705 0.854721
0.838490 0.825284 0.860790
0.847025 0.831679 0.867645
0.856499 0.838887 0.875276
0.866805 0.846840 0.883615
0.877926 0.855567 0.892678
0.889642 0.864892 0.902294
0.901603 0.874472 0.912142
0.839584 0.827641 0.860528
0.833931 0.823428 0.856081
0.828824 0.819714 0.852166
0.824656 0.816853 0.849162
0.821610 0.815004 0.847236
0.819644 0.814114 0.846328
0.818566 0.813986 0.846229
0.818135 0.814376 0.846676
0.818143 0.815075 0.847447
0.818462 0.815951 0.848403
0.819038 0.816944 0.849486
0.819864 0.818045 0.850695
0.820953 0.819259 0.852047
0.822320 0.820594 0.853560
0.823975 0.822053 0.855246
0.825925 0.823634 0.857110
0.828173 0.825332 0.859153
0.830718 0.827143 0.861373
0.833560 0.829072 0.863768
0.836697 0.831128 0.866342
0.840192 0.833366 0.869141
0.844130 0.835870 0.872238
0.848537 0.838697 0.875671
0.853493 0.841940 0.879512
0.859118 0.845718 0.883864
0.865516 0.850142 0.888816
0.872775 0.855310 0.894458
0.880900 0.861248 0.900816
0.889822 0.867919 0.907861
0.899557 0.875378 0.915652
0.909891 0.883450 0.924033
0.920475 0.891787 0.932672
0.872067 0.860129 0.893757
0.866821 0.856142 0.889563
0.862060 0.852604 0.885850
0.858146 0.849847 0.882973
0.855255 0.848025 0.881098
0.853368 0.847102 0.880190
0.852311 0.846897 0.880057
0.851847 0.847168 0.880441
0.851764 0.847691 0.881105
0.851916 0.848320 0.881890
0.852246 0.848991 0.882732
0.852763 0.849705 0.883641
0.853507 0.850495 0.884664
0.854516 0.851391 0.885844
0.855815 0.852406 0.887204
0.857407 0.853536 0.888746
0.859284 0.854770 0.890458
0.861440 0.856099 0.892329
0.863869 0.857527 0.894354
0.866567 0.859064 0.896531
0.869581 0.860754 0.898891
0.872970 0.862658 0.901481
0.876741 0.864816 0.904316
0.880944 0.867297 0.907447
0.885670 0.870203 0.910948
0.891003 0.873635 0.914902
0.897021 0.877690 0.919395
0.903777 0.882437 0.924501
0.911229 0.887862 0.930218
0.919427 0.894036 0.936632
0.928209 0.900812 0.943621
0.937240 0.907850 0.950863
0.899225 0.887926 0.921773
0.894726 0.884441 0.918130
0.890627 0.881330 0.914889
0.887236 0.878878 0.912358
0.884714 0.877228 0.910694
0.883059 0.876360 0.909882
0.882130 0.876123 0.909763
0.881719 0.876299 0.910110
0.881623 0.876675 0.910693
0.881700 0.877103 0.911350
0.881890 0.877516 0.912010
0.882208 0.877923 0.912690
0.882715 0.878372 0.913456
0.883468 0.878912 0.914370
0.884499 0.879562 0.915464
0.885810 0.880321 0.916738
0.887386 0.881168 0.918167
0.889209 0.882092 0.919728
0.891272 0.883094 0.921413
