ecomm/src/main/assets/lut/SoftBlackAndWhite - converted with Color.cube
TITLE "SoftBlackAndWhite - converted with Color.io - Created with Color.io"
LUT_3D_SIZE 5
DOMAIN_MIN 0.000000 0.000000 0.000000
DOMAIN_MAX 0.903226 0.903226 0.903226
0.000001 0.000001 0.007838
0.011448 0.019149 0.023058
0.034421 0.053901 0.044825
0.164941 0.186148 0.171320
0.370855 0.396066 0.371313
0.051123 0.060358 0.070469
0.063899 0.074624 0.081527
0.127460 0.138988 0.141941
0.264307 0.276939 0.275677
0.440084 0.451763 0.443630
0.298206 0.296296 0.317739
0.306332 0.312912 0.332349
0.363933 0.372257 0.388023
0.469100 0.475810 0.487115
0.611917 0.611001 0.617670
0.672637 0.664266 0.692400
0.656862 0.657120 0.684783
0.675250 0.678122 0.703960
0.714980 0.714234 0.739051
0.793544 0.780054 0.806380
0.920777 0.910802 0.944149
0.907180 0.901317 0.935012
0.909480 0.903096 0.939326
0.921727 0.907927 0.948948
0.946734 0.923063 0.966048
0.007315 0.010389 0.018198
0.011577 0.023054 0.025095
0.043431 0.070349 0.058153
0.165738 0.193183 0.173513
0.361019 0.393814 0.360611
0.051325 0.065176 0.071825
0.070570 0.087282 0.090516
0.132200 0.149707 0.148170
0.251008 0.269053 0.261021
0.422383 0.439601 0.419512
0.294322 0.299734 0.313251
0.308632 0.321624 0.332766
0.362349 0.376519 0.384507
0.458554 0.468946 0.472279
0.594479 0.593778 0.586009
0.662256 0.657224 0.678167
0.631623 0.636254 0.655433
0.646692 0.652105 0.670902
0.698108 0.695916 0.713904
0.788541 0.766708 0.780768
0.919770 0.909538 0.938211
0.889547 0.881618 0.912355
0.887725 0.874832 0.911612
0.906234 0.882030 0.924335
0.950111 0.913246 0.954020
0.017245 0.034651 0.034761
0.024627 0.050867 0.043705
0.060712 0.094007 0.076546
0.187101 0.222474 0.197797
0.374509 0.419965 0.377481
0.065908 0.084398 0.084274
0.076595 0.099942 0.097344
0.143846 0.167657 0.161377
0.263436 0.290477 0.275728
0.426592 0.456380 0.422178
0.311656 0.324335 0.332244
0.316156 0.335835 0.342117
0.365241 0.386518 0.390028
0.455051 0.473852 0.469909
0.578569 0.588446 0.564832
0.647879 0.650511 0.666101
0.623429 0.633789 0.649919
0.637186 0.648105 0.665202
0.681182 0.685909 0.698834
0.766578 0.751162 0.751604
0.911259 0.901076 0.927669
0.878165 0.867996 0.900533
0.876543 0.859237 0.902388
0.895150 0.867419 0.913310
0.940266 0.901577 0.936763
0.034472 0.061421 0.047212
0.042848 0.077431 0.058980
0.090875 0.129163 0.104739
0.223309 0.270453 0.234557
0.401993 0.463465 0.404795
0.093182 0.113125 0.105052
0.108468 0.135213 0.125546
0.174960 0.206228 0.191585
0.293238 0.333655 0.305965
0.445870 0.495935 0.439219
0.346055 0.362450 0.364942
0.337918 0.363045 0.364008
0.378068 0.409398 0.405357
0.465716 0.499049 0.483184
0.577796 0.611998 0.564976
0.648052 0.654600 0.666646
0.624692 0.641429 0.654780
0.632778 0.656041 0.668373
0.673395 0.695923 0.699824
0.744964 0.756926 0.739462
0.904690 0.892058 0.918588
0.871043 0.862582 0.896759
0.863595 0.858087 0.901489
0.877781 0.870323 0.911240
0.919661 0.903593 0.926230
0.061779 0.090429 0.061742
0.074605 0.112978 0.081945
0.146622 0.194517 0.155208
0.277037 0.345369 0.285585
0.439865 0.527079 0.438075
0.146068 0.164883 0.147757
0.163046 0.193667 0.172840
0.227987 0.272624 0.240132
0.335485 0.399422 0.343665
0.475057 0.553393 0.465478
0.387998 0.404577 0.399388
0.383824 0.414479 0.405268
0.412794 0.459988 0.437886
0.484789 0.545451 0.501317
0.586915 0.654849 0.578607
0.670297 0.676264 0.683181
0.635808 0.659827 0.665652
0.634652 0.677750 0.676957
0.669339 0.722377 0.705671
0.735385 0.785056 0.743869
0.909644 0.894226 0.918521
0.868088 0.868036 0.897443
0.851286 0.868907 0.901132
0.859788 0.886796 0.910701
0.899007 0.922207 0.925173
