ecomm/src/main/assets/lut/Waves - converted with Color.cube
TITLE "Waves - converted with Color.io - Created with Color.io"
LUT_3D_SIZE 8
DOMAIN_MIN 0.000000 0.000000 0.000000
DOMAIN_MAX 0.903226 0.903226 0.903226
0.000001 0.000001 0.000001
0.172764 0.000000 0.000000
0.440247 0.000000 0.000000
0.659636 0.000000 0.000000
0.885538 0.000000 0.000000
1.000000 0.000000 0.000000
1.000000 0.000000 0.000000
1.000000 0.000000 0.000000
0.000000 0.174775 0.000000
0.000641 0.000595 0.000000
0.155496 0.042860 0.000000
0.604364 0.027427 0.000000
0.827713 0.000052 0.000000
1.000000 0.000000 0.000000
1.000000 0.000000 0.000000
1.000000 0.000000 0.000000
0.000000 0.423255 0.000000
0.047400 0.154159 0.000000
0.216227 0.209634 0.000000
0.551653 0.261663 0.000000
0.772079 0.182748 0.000000
0.989617 0.100637 0.000000
1.000000 0.027202 0.000000
1.000000 0.005693 0.000000
0.000000 0.628116 0.000000
0.048130 0.583801 0.000000
0.278336 0.535403 0.000000
0.495759 0.478394 0.000000
0.718610 0.412433 0.000000
0.954856 0.343994 0.000000
1.000000 0.282977 0.000000
1.000000 0.239630 0.000000
0.000000 0.836838 0.000000
0.001663 0.791315 0.000000
0.206233 0.746271 0.000000
0.433589 0.696427 0.000000
0.664783 0.642234 0.000000
0.905227 0.587029 0.000000
1.000000 0.538449 0.000000
1.000000 0.504872 0.000000
0.000000 1.000000 0.000000
0.000000 0.990129 0.000000
0.131789 0.966063 0.000000
0.370091 0.924335 0.000000
0.611237 0.878573 0.000000
0.856602 0.831528 0.000000
1.000000 0.790320 0.000000
1.000000 0.757788 0.000000
0.000000 1.000000 0.000000
0.000000 1.000000 0.000000
0.065375 1.000000 0.000000
0.313767 1.000000 0.000000
0.564390 1.000000 0.000000
0.814835 1.000000 0.000000
1.000000 0.997270 0.000000
1.000000 0.981000 0.000000
0.000000 1.000000 0.000000
0.000000 1.000000 0.000000
0.018603 1.000000 0.000000
0.274428 1.000000 0.000000
0.532959 1.000000 0.000000
0.782811 1.000000 0.000000
0.992984 1.000000 0.000000
1.000000 1.000000 0.000000
0.000000 0.000000 0.172591
0.001301 0.000693 0.001600
0.116938 0.000000 0.028005
0.583211 0.000000 0.015536
0.798196 0.000000 0.000000
0.993689 0.000000 0.000000
1.000000 0.000000 0.000000
1.000000 0.000000 0.000000
0.000000 0.081300 0.078694
0.106941 0.080181 0.068284
0.315402 0.019229 0.013682
0.534090 0.000000 0.000000
0.760124 0.000000 0.000000
0.986224 0.000000 0.000000
1.000000 0.000000 0.000000
1.000000 0.000000 0.000000
0.000000 0.299787 0.089997
0.042117 0.284064 0.017752
0.256501 0.230764 0.000004
0.476603 0.170887 0.000000
0.703988 0.099247 0.000000
0.943214 0.029421 0.000000
1.000000 0.004805 0.000000
1.000000 0.000000 0.000000
0.000000 0.571555 0.040818
0.001159 0.491259 0.000315
0.199624 0.446036 0.000000
0.425735 0.401355 0.000000
0.657388 0.344171 0.000000
0.899590 0.286485 0.000000
1.000000 0.242403 0.000000
1.000000 0.218226 0.000000
0.000000 0.770585 0.002471
0.000000 0.698124 0.000000
0.135897 0.658977 0.000000
0.371099 0.628137 0.000000
0.611124 0.586242 0.000000
0.856513 0.541854 0.000000
1.000000 0.508606 0.000000
1.000000 0.490581 0.000000
0.000000 0.975570 0.000000
0.000000 0.912258 0.000000
0.073636 0.878682 0.000000
0.318147 0.858672 0.000000
0.567213 0.827107 0.000000
0.814941 0.789388 0.000000
1.000000 0.759214 0.000000
1.000000 0.739309 0.000000
0.000000 1.000000 0.000000
0.000000 1.000000 0.000000
0.021853 1.000000 0.000000
0.277537 1.000000 0.000000
0.536021 1.000000 0.000000
0.784514 0.997270 0.000000
0.994842 0.988233 0.000000
1.000000 0.961084 0.000000
0.000000 1.000000 0.000000
0.000000 1.000000 0.000000
0.005620 1.000000 0.000000
0.250392 1.000000 0.000000
0.519267 1.000000 0.000000
0.767566 1.000000 0.000000
0.989157 1.000000 0.000000
1.000000 1.000000 0.000000
0.000000 0.000000 0.342890
0.047895 0.000000 0.160250
0.016688 0.008081 0.017912
0.243367 0.001052 0.124363
0.708534 0.000000 0.148929
0.889474 0.000000 0.065390
1.000000 0.000000 0.009439
1.000000 0.000000 0.001044
0.000000 0.089430 0.227643
0.060986 0.015100 0.223119
0.252936 0.000000 0.215897
0.474489 0.000000 0.158789
0.704552 0.000000 0.085497
0.934042 0.000000 0.016003
1.000000 0.000000 0.001061
1.000000 0.000000 0.000000
0.000000 0.284604 0.265895
0.002587 0.189258 0.171043
0.181824 0.138484 0.125263
0.410038 0.094692 0.085512
0.647217 0.033511 0.023813
0.894352 0.004331 0.001287
1.000000 0.000000 0.000000
1.000000 0.000000 0.000000
0.000000 0.504229 0.274030
0.000000 0.413450 0.184201
0.125103 0.356361 0.098086
0.361364 0.327007 0.043972
0.603103 0.284212 0.006214
0.855740 0.242027 0.000000
1.000000 0.216736 0.000000
1.000000 0.210762 0.000000
0.000000 0.702776 0.227861
0.000000 0.624183 0.146614
0.073627 0.580303 0.064419
0.318945 0.562764 0.012042
0.565810 0.538322 0.001241
0.820280 0.508222 0.000000
1.000000 0.490054 0.000000
1.000000 0.478668 0.000000
0.000000 0.899620 0.173433
0.000000 0.832758 0.097080
0.028725 0.803904 0.023249
0.281895 0.799014 0.004617
0.535394 0.786346 0.000018
0.787024 0.759815 0.000000
0.998090 0.737297 0.000000
1.000000 0.714956 0.001213
0.000000 1.000000 0.125199
0.000000 0.999948 0.055150
0.007013 0.999923 0.007883
0.250850 1.000000 0.000030
0.518456 0.999049 0.000000
0.767701 0.992053 0.000000
0.991230 0.970219 0.000000
1.000000 0.928459 0.002698
0.000000 1.000000 0.087964
0.000000 1.000000 0.018873
0.000759 1.000000 0.004791
0.237113 1.000000 0.000069
0.504354 1.000000 0.000000
0.743907 1.000000 0.000000
0.964572 1.000000 0.000000
1.000000 1.000000 0.002643
0.000000 0.000000 0.513916
0.046462 0.000000 0.577555
0.264861 0.000000 0.520174
0.056303 0.031526 0.060750
0.068382 0.051997 0.064031
0.769894 0.000000 0.259687
0.933991 0.000000 0.202241
1.000000 0.000000 0.174246
0.000000 0.060105 0.352410
0.033025 0.000560 0.394865
0.195867 0.000000 0.426473
0.417486 0.000000 0.390591
0.649709 0.000000 0.329612
0.857087 0.000000 0.258952
0.999359 0.000000 0.209770
1.000000 0.000000 0.175095
0.000000 0.204228 0.340578
0.021315 0.126038 0.264519
0.108890 0.071414 0.254334
0.354782 0.041067 0.304920
0.601724 0.007169 0.270764
0.858562 0.000005 0.228192
1.000000 0.000000 0.204917
1.000000 0.000000 0.183541
0.000000 0.387291 0.413411
0.000000 0.314166 0.340054
0.080839 0.253032 0.238179
0.308820 0.256773 0.240938
0.564150 0.241417 0.232101
0.827897 0.219059 0.209030
1.000000 0.210627 0.201364
1.000000 0.213891 0.205679
0.000000 0.607466 0.446922
0.000000 0.544508 0.393188
0.044499 0.501773 0.306531
0.285613 0.501490 0.248168
0.537408 0.502803 0.222739
0.795053 0.489164 0.209545
0.999160 0.477706 0.206859
1.000000 0.466894 0.211611
0.000000 0.820417 0.427698
0.000000 0.745966 0.369944
0.029686 0.724184 0.301186
0.268721 0.751321 0.247140
0.519864 0.759336 0.219961
0.768415 0.740737 0.207527
0.983142 0.712704 0.207949
1.000000 0.687049 0.214053
0.000000 0.998645 0.393833
0.000000 0.959195 0.340316
0.014893 0.970534 0.283440
0.249836 0.991519 0.240884
0.504140 0.990949 0.216540
0.745275 0.970858 0.201432
0.955642 0.931121 0.199783
1.000000 0.887744 0.210594
0.000000 1.000000 0.364630
0.000000 1.000000 0.315873
0.004913 1.000000 0.274326
0.237874 1.000000 0.244201
0.488090 1.000000 0.224608
0.710938 1.000000 0.212529
0.918699 1.000000 0.203720
1.000000 1.000000 0.207313
0.000000 0.000000 0.688442
0.000410 0.000000 0.786066
0.190762 0.000000 0.752077
0.407567 0.000000 0.672494
0.107143 0.099453 0.119651
0.149441 0.155990 0.164033
0.789131 0.004021 0.370735
0.954860 0.000000 0.355677
0.000000 0.031073 0.505472
0.001798 0.000000 0.584063
0.131277 0.000000 0.642456
0.354598 0.000000 0.626086
0.593078 0.000000 0.569603
0.794635 0.000000 0.493554
0.947988 0.000000 0.436013
1.000000 0.000000 0.391674
0.016744 0.185026 0.434063
0.063766 0.126653 0.415595
0.109628 0.060699 0.430677
0.309657 0.010985 0.530722
0.554435 0.002225 0.527515
0.812687 0.000000 0.494674
1.000000 0.000000 0.476739
1.000000 0.007156 0.412440
0.000000 0.309130 0.476269
0.074972 0.266150 0.417564
0.093869 0.210817 0.286466
0.246366 0.217876 0.371967
0.530920 0.223885 0.482571
0.791919 0.217271 0.478291
0.998491 0.216130 0.468913
1.000000 0.229448 0.447958
0.000000 0.478690 0.564576
0.006047 0.440836 0.514217
0.166198 0.412874 0.432030
0.314569 0.435219 0.408238
0.528514 0.479246 0.461244
0.760593 0.476778 0.467415
0.973589 0.465345 0.458037
1.000000 0.456219 0.450046
0.000000 0.699158 0.623228
0.000000 0.632843 0.557476
0.167347 0.612502 0.504734
0.353501 0.667095 0.492367
0.529867 0.717114 0.479129
0.737937 0.709920 0.456162
0.931243 0.684325 0.444282
1.000000 0.659759 0.440282
0.000000 0.931909 0.631271
0.000000 0.834875 0.562224
0.149229 0.822922 0.525793
0.335694 0.878008 0.510948
0.511633 0.919626 0.480995
0.715083 0.915425 0.448186
0.907367 0.885900 0.432152
1.000000 0.846991 0.429044
0.000000 1.000000 0.618232
0.000000 1.000000 0.575677
0.044215 1.000000 0.541779
0.275476 1.000000 0.507932
0.483806 1.000000 0.473142
0.680525 1.000000 0.446117
0.872091 1.000000 0.428330
1.000000 0.999443 0.420183
0.000000 0.000000 0.866111
0.000000 0.000000 0.987080
0.103322 0.000000 0.984533
0.344190 0.000000 0.923516
0.551200 0.000000 0.814905
0.202005 0.189967 0.230881
0.259430 0.241858 0.282255
0.880925 0.000000 0.522541
0.000000 0.005541 0.670715
0.000000 0.000000 0.781392
0.066065 0.000000 0.872143
0.287021 0.000000 0.875604
0.538236 0.000000 0.816732
0.752231 0.000000 0.729754
0.930668 0.000000 0.665933
0.981681 0.000000 0.579683
0.029035 0.184923 0.557250
0.071480 0.137089 0.593176
0.120621 0.069287 0.645433
0.271926 0.008519 0.767728
0.511303 0.002080 0.785147
0.767278 0.002958 0.744091
0.993217 0.001203 0.715405
1.000000 0.010691 0.618924
0.074126 0.305761 0.547156
0.184211 0.306103 0.530289
0.239526 0.300581 0.481935
0.301534 0.270725 0.592003
0.509193 0.233067 0.732259
0.750948 0.221074 0.725034
0.972414 0.216815 0.697704
1.000000 0.234621 0.644510
0.015980 0.422933 0.610465
0.212740 0.430224 0.564183
0.362807 0.445512 0.513503
0.368528 0.458704 0.486169
0.516022 0.493919 0.632015
0.730366 0.465126 0.693679
0.925213 0.451492 0.674098
1.000000 0.445952 0.649253
0.000000 0.588701 0.705125
0.165855 0.558324 0.625395
0.409832 0.566694 0.582634
0.535831 0.626655 0.616052
0.601090 0.678785 0.652860
0.726400 0.682791 0.667463
0.890719 0.659145 0.651655
1.000000 0.637916 0.632842
0.000000 0.813677 0.784259
0.092381 0.726569 0.683946
0.377048 0.702511 0.637658
0.526002 0.752387 0.661150
0.616209 0.822197 0.681239
0.718466 0.860210 0.662754
0.871311 0.847753 0.636164
0.999202 0.814543 0.616518
0.000000 0.999824 0.819365
0.000782 0.994712 0.759004
0.199469 0.980162 0.715941
0.397061 0.980467 0.697536
0.543715 0.994202 0.678055
0.676432 0.998571 0.646629
0.837441 0.998217 0.620956
0.993759 0.981865 0.602945
0.000000 0.000000 1.000000
0.000000 0.000000 1.000000
0.020008 0.000000 1.000000
0.271828 0.000000 1.000000
0.520014 0.000000 1.000000
0.696645 0.000000 0.925830
0.780397 0.000000 0.767175
0.859324 0.000000 0.683841
0.000000 0.002860 0.837873
0.000000 0.000000 0.980103
0.012405 0.000000 1.000000
0.228897 0.000000 1.000000
0.495699 0.000000 1.000000
0.731752 0.000000 0.979622
0.923085 0.000000 0.899632
0.999168 0.000000 0.784838
0.032171 0.190177 0.692572
0.063963 0.142239 0.779253
0.099685 0.054413 0.908310
0.233015 0.005936 0.998347
0.477606 0.001133 0.999945
0.735047 0.001736 0.989068
0.963975 0.004264 0.938842
1.000000 0.006997 0.840383
0.147045 0.337329 0.639600
0.244749 0.357765 0.665229
0.300028 0.353123 0.722040
0.344704 0.303204 0.871187
0.484374 0.243407 0.980378
0.716342 0.218828 0.962875
0.936219 0.209568 0.913894
1.000000 0.219422 0.845867
0.181360 0.448473 0.664465
0.358591 0.490361 0.643728
0.479796 0.535805 0.658082
0.526420 0.563248 0.739615
0.560582 0.529574 0.850764
0.701449 0.464570 0.902365
0.892721 0.439198 0.872798
1.000000 0.433093 0.831971
0.118211 0.572733 0.750702
0.380564 0.584044 0.681494
0.568129 0.630593 0.678082
0.659214 0.693497 0.731102
0.653934 0.723482 0.766312
0.716054 0.695921 0.827066
0.864865 0.642645 0.837203
0.998707 0.620063 0.806881
0.001881 0.749735 0.866071
0.335255 0.690063 0.739902
0.566954 0.694611 0.704509
0.687421 0.743639 0.739290
0.751703 0.792045 0.780354
0.777758 0.825789 0.806855
0.859578 0.821591 0.810688
0.984190 0.790422 0.785919
0.000000 0.963753 0.951543
0.159590 0.903915 0.851036
0.392704 0.877884 0.800881
0.553683 0.887367 0.797356
0.670447 0.908539 0.804250
0.744687 0.941816 0.805367
0.831471 0.963840 0.789673
0.961950 0.948964 0.766880
0.000000 0.000000 1.000000
0.000000 0.000000 1.000000
0.000601 0.000000 1.000000
0.215172 0.000000 1.000000
0.480051 0.000000 1.000000
0.707020 0.000000 1.000000
0.822991 0.000000 0.997144
0.875750 0.000000 0.853084
0.000000 0.001703 0.992908
0.000000 0.000000 1.000000
0.000699 0.000000 1.000000
0.190510 0.000000 1.000000
0.462866 0.000000 1.000000
0.711655 0.000000 1.000000
0.887099 0.000000 1.000000
0.999884 0.000000 0.997641
0.035746 0.203037 0.835341
0.042898 0.143448 0.984686
0.088708 0.066155 1.000000
0.219903 0.011964 1.000000
0.450604 0.005010 1.000000
0.697939 0.005978 1.000000
0.914692 0.003292 1.000000
1.000000 0.003753 1.000000
0.194840 0.379376 0.752430
0.273598 0.403062 0.812045
0.308300 0.393140 0.929738
0.340062 0.330664 1.000000
0.462922 0.259006 1.000000
0.672056 0.233436 1.000000
0.887407 0.217021 1.000000
1.000000 0.210868 0.999981
0.293679 0.505620 0.744808
0.424381 0.554128 0.756584
0.492570 0.592268 0.829994
0.519920 0.592513 0.937697
0.548797 0.534511 0.999775
0.663401 0.467709 1.000000
0.851421 0.437522 1.000000
0.999625 0.423027 0.997984
0.305704 0.612197 0.800983
0.485063 0.647962 0.778970
0.604321 0.704139 0.820059
0.683976 0.751408 0.879122
0.712178 0.753608 0.934821
0.725486 0.693860 0.984523
0.831276 0.631992 0.997181
0.985134 0.604252 0.971567
0.235126 0.733163 0.891771
0.476152 0.720882 0.814678
0.627421 0.759445 0.823401
0.738269 0.808770 0.856377
0.808240 0.843516 0.887167
0.825234 0.852205 0.918888
0.853012 0.818018 0.950843
0.959239 0.769811 0.942341
0.104738 0.886549 0.986449
0.365419 0.844511 0.894853
0.529185 0.855190 0.878582
0.658676 0.877229 0.882900
0.758848 0.896028 0.889805
0.825120 0.916325 0.902629
0.870359 0.934877 0.917817
0.946151 0.924516 0.917009
