ecomm/src/main/assets/lut/Waves - converted with Color.cube
TITLE "Waves - converted with Color.io - Created with Color.io"
LUT_3D_SIZE 32
DOMAIN_MIN 0.0 0.0 0.0
DOMAIN_MAX 1.0 1.0 1.0
0.000001 0.000001 0.000001
0.027160 0.000000 0.000000
0.064087 0.000000 0.000000
0.112707 0.000000 0.000000
0.172764 0.000000 0.000000
0.243006 0.000000 0.000000
0.318687 0.000000 0.000000
0.383704 0.000000 0.000000
0.440247 0.000000 0.000000
0.495025 0.000000 0.000000
0.549587 0.000000 0.000000
0.604404 0.000000 0.000000
0.659636 0.000000 0.000000
0.715348 0.000000 0.000000
0.771570 0.000000 0.000000
0.828306 0.000000 0.000000
0.885538 0.000000 0.000000
0.943227 0.000000 0.000000
0.986813 0.000000 0.000000
1.000000 0.000000 0.000000
1.000000 0.000000 0.000000
1.000000 0.000000 0.000000
1.000000 0.000000 0.000000
1.000000 0.000000 0.000000
1.000000 0.000000 0.000000
1.000000 0.000000 0.000000
1.000000 0.000000 0.000000
1.000000 0.000000 0.000000
1.000000 0.000000 0.000000
1.000000 0.000000 0.000000
1.000000 0.000000 0.000000
1.000000 0.000000 0.000000
0.000000 0.027064 0.000000
0.001289 0.001249 0.000000
0.007425 0.000015 0.000000
0.029515 0.000000 0.000000
0.051810 0.000000 0.000000
0.089327 0.000000 0.000000
0.161067 0.000000 0.000000
0.265957 0.000000 0.000000
0.376737 0.000000 0.000000
0.464606 0.000000 0.000000
0.531580 0.000000 0.000000
0.590367 0.000000 0.000000
0.646405 0.000000 0.000000
0.702026 0.000000 0.000000
0.758013 0.000000 0.000000
0.814586 0.000000 0.000000
0.871777 0.000000 0.000000
0.929555 0.000000 0.000000
0.981183 0.000000 0.000000
0.999993 0.000000 0.000000
1.000000 0.000000 0.000000
1.000000 0.000000 0.000000
1.000000 0.000000 0.000000
1.000000 0.000000 0.000000
1.000000 0.000000 0.000000
1.000000 0.000000 0.000000
1.000000 0.000000 0.000000
1.000000 0.000000 0.000000
1.000000 0.000000 0.000000
1.000000 0.000000 0.000000
1.000000 0.000000 0.000000
1.000000 0.000000 0.000000
0.000000 0.064231 0.000000
0.000016 0.007166 0.000000
0.001118 0.001081 0.000000
0.004750 0.000017 0.000000
0.011450 0.000000 0.000000
0.024013 0.000027 0.000000
0.063687 0.000347 0.000000
0.154243 0.001018 0.000000
0.281532 0.001346 0.000000
0.410199 0.000735 0.000000
0.509138 0.000124 0.000000
0.575066 0.000000 0.000000
0.632551 0.000000 0.000000
0.688115 0.000000 0.000000
0.743755 0.000000 0.000000
0.799990 0.000000 0.000000
0.856920 0.000000 0.000000
0.914526 0.000000 0.000000
0.972744 0.000000 0.000000
0.998920 0.000000 0.000000
1.000000 0.000000 0.000000
1.000000 0.000000 0.000000
1.000000 0.000000 0.000000
1.000000 0.000000 0.000000
1.000000 0.000000 0.000000
1.000000 0.000000 0.000000
1.000000 0.000000 0.000000
1.000000 0.000000 0.000000
1.000000 0.000000 0.000000
1.000000 0.000000 0.000000
1.000000 0.000000 0.000000
1.000000 0.000000 0.000000
0.000000 0.113404 0.000000
0.000000 0.029115 0.000000
0.000018 0.004610 0.000000
0.000648 0.000652 0.000000
0.001922 0.000043 0.000000
0.005910 0.000160 0.000000
0.020940 0.002276 0.000000
0.083783 0.011632 0.000000
0.203247 0.022844 0.000000
0.345468 0.021930 0.000000
0.473467 0.009727 0.000000
0.558376 0.003136 0.000000
0.618469 0.001119 0.000000
0.674220 0.000135 0.000000
0.729584 0.000000 0.000000
0.785517 0.000000 0.000000
0.842210 0.000000 0.000000
0.899657 0.000000 0.000000
0.957793 0.000000 0.000000
0.993247 0.000000 0.000000
1.000000 0.000000 0.000000
1.000000 0.000000 0.000000
1.000000 0.000000 0.000000
1.000000 0.000000 0.000000
1.000000 0.000000 0.000000
1.000000 0.000000 0.000000
1.000000 0.000000 0.000000
1.000000 0.000000 0.000000
1.000000 0.000000 0.000000
1.000000 0.000000 0.000000
1.000000 0.000000 0.000000
1.000000 0.000000 0.000000
0.000000 0.174775 0.000000
0.000000 0.051644 0.000000
0.000000 0.010921 0.000000
0.000043 0.002395 0.000000
0.000641 0.000595 0.000000
0.002148 0.000612 0.000000
0.010389 0.003358 0.000000
0.053083 0.017076 0.000000
0.155496 0.042860 0.000000
0.295581 0.062331 0.000000
0.435773 0.062595 0.000000
0.541258 0.047521 0.000000
0.604364 0.027427 0.000000
0.660391 0.010340 0.000000
0.715545 0.003693 0.000000
0.771224 0.000824 0.000000
0.827713 0.000052 0.000000
0.885026 0.000000 0.000000
0.943098 0.000000 0.000000
0.987664 0.000000 0.000000
1.000000 0.000000 0.000000
1.000000 0.000000 0.000000
1.000000 0.000000 0.000000
1.000000 0.000000 0.000000
1.000000 0.000000 0.000000
1.000000 0.000000 0.000000
1.000000 0.000000 0.000000
1.000000 0.000000 0.000000
1.000000 0.000000 0.000000
1.000000 0.000000 0.000000
1.000000 0.000000 0.000000
1.000000 0.000000 0.000000
0.000000 0.245963 0.000000
0.000000 0.090720 0.000000
0.000023 0.022444 0.000000
0.000139 0.005063 0.000000
0.000581 0.001789 0.000000
0.001593 0.001524 0.000000
0.008895 0.005563 0.000000
0.046775 0.024750 0.000000
0.138318 0.061328 0.000000
0.268776 0.096168 0.000000
0.408189 0.111979 0.000000
0.523122 0.106558 0.000000
0.590580 0.088706 0.000000
0.646687 0.067797 0.000000
0.701654 0.045909 0.000000
0.757131 0.023582 0.000000
0.813463 0.008406 0.000000
0.870678 0.003672 0.000000
0.928710 0.000402 0.000000
0.981924 0.000000 0.000000
0.999971 0.000000 0.000000
1.000000 0.000000 0.000000
1.000000 0.000000 0.000000
1.000000 0.000000 0.000000
1.000000 0.000000 0.000000
1.000000 0.000000 0.000000
1.000000 0.000000 0.000000
1.000000 0.000000 0.000000
1.000000 0.000000 0.000000
1.000000 0.000000 0.000000
1.000000 0.000000 0.000000
1.000000 0.000000 0.000000
0.000000 0.315473 0.000000
0.000000 0.166321 0.000000
0.000397 0.062612 0.000000
0.002333 0.017876 0.000000
0.003122 0.009029 0.000000
0.005540 0.008287 0.000000
0.016016 0.015526 0.000000
0.060280 0.045340 0.000000
0.147654 0.090923 0.000000
0.265398 0.133919 0.000000
0.395376 0.160102 0.000000
0.507627 0.163036 0.000000
0.577306 0.147911 0.000000
0.633131 0.127915 0.000000
0.687906 0.106718 0.000000
0.743233 0.085003 0.000000
0.799458 0.063023 0.000000
0.856614 0.040942 0.000000
0.914637 0.019621 0.000000
0.973416 0.007814 0.000000
0.999078 0.003836 0.000000
1.000000 0.000299 0.000000
1.000000 0.000000 0.000000
1.000000 0.000000 0.000000
1.000000 0.000000 0.000000
1.000000 0.000000 0.000000
1.000000 0.000000 0.000000
1.000000 0.000000 0.000000
1.000000 0.000000 0.000000
1.000000 0.000000 0.000000
1.000000 0.000000 0.000000
1.000000 0.000000 0.000000
0.000000 0.371103 0.000000
0.000000 0.274725 0.000000
0.001297 0.158533 0.000000
0.013707 0.081588 0.000000
0.017332 0.049405 0.000000
0.024700 0.043704 0.000000
0.046198 0.057842 0.000000
0.096475 0.093690 0.000000
0.176782 0.139722 0.000000
0.280724 0.183171 0.000000
0.397260 0.212880 0.000000
0.499584 0.219559 0.000000
0.564446 0.205443 0.000000
0.619678 0.186254 0.000000
0.674262 0.165813 0.000000
0.729498 0.144818 0.000000
0.785676 0.123519 0.000000
0.842820 0.102084 0.000000
0.900867 0.080672 0.000000
0.959705 0.059447 0.000000
0.994297 0.038584 0.000000
1.000000 0.019137 0.000000
1.000000 0.009582 0.000000
1.000000 0.005604 0.000000
1.000000 0.001885 0.000000
1.000000 0.000073 0.000000
1.000000 0.000000 0.000000
1.000000 0.000000 0.000000
1.000000 0.000000 0.000000
1.000000 0.000000 0.000000
1.000000 0.000000 0.000000
1.000000 0.000000 0.000000
0.000000 0.423255 0.000000
0.000000 0.382709 0.000000
0.001930 0.293257 0.000000
0.029714 0.208074 0.000000
0.047400 0.154159 0.000000
0.064568 0.134792 0.000000
0.094444 0.143619 0.000000
0.144583 0.172012 0.000000
0.216227 0.209634 0.000000
0.307277 0.247210 0.000000
0.406668 0.272710 0.000000
0.493448 0.276861 0.000000
0.551653 0.261663 0.000000
0.606208 0.243123 0.000000
0.660662 0.223470 0.000000
0.715884 0.203273 0.000000
0.772079 0.182748 0.000000
0.829262 0.162058 0.000000
0.887368 0.141362 0.000000
0.946286 0.120828 0.000000
0.989617 0.100637 0.000000
1.000000 0.080973 0.000000
1.000000 0.062060 0.000000
1.000000 0.044072 0.000000
1.000000 0.027202 0.000000
1.000000 0.015826 0.000000
1.000000 0.011094 0.000000
1.000000 0.008163 0.000000
1.000000 0.005693 0.000000
1.000000 0.003641 0.000000
1.000000 0.001903 0.000000
1.000000 0.000307 0.000000
0.000000 0.474487 0.000000
0.000000 0.454018 0.000000
0.001574 0.419069 0.000000
0.033408 0.355802 0.000000
0.072811 0.298834 0.000000
0.105138 0.266941 0.000000
0.142219 0.260926 0.000000
0.191831 0.274464 0.000000
0.256914 0.298918 0.000000
0.334924 0.323869 0.000000
0.416384 0.338286 0.000000
0.483250 0.332756 0.000000
0.538528 0.316820 0.000000
0.592597 0.298846 0.000000
0.647043 0.280007 0.000000
0.702340 0.260658 0.000000
0.758623 0.240976 0.000000
0.815898 0.221106 0.000000
0.874101 0.201206 0.000000
0.933121 0.181445 0.000000
0.985021 0.162008 0.000000
1.000000 0.143076 0.000000
1.000000 0.124868 0.000000
1.000000 0.107557 0.000000
1.000000 0.091323 0.000000
1.000000 0.076377 0.000000
1.000000 0.062939 0.000000
1.000000 0.051207 0.000000
1.000000 0.041272 0.000000
1.000000 0.033005 0.000000
1.000000 0.026028 0.000000
1.000000 0.019668 0.000000
0.000000 0.525561 0.000000
0.000000 0.512503 0.000000
0.000641 0.496679 0.000000
0.021960 0.474784 0.000000
0.077688 0.435498 0.000000
0.126122 0.405336 0.000000
0.173465 0.389881 0.000000
0.225816 0.388987 0.000000
0.285755 0.395978 0.000000
0.351983 0.403678 0.000000
0.415420 0.401019 0.000000
0.470816 0.387300 0.000000
0.524796 0.371097 0.000000
0.578764 0.353758 0.000000
0.633349 0.335753 0.000000
0.688814 0.317282 0.000000
0.745257 0.298481 0.000000
0.802682 0.279485 0.000000
0.861026 0.260442 0.000000
0.920180 0.241519 0.000000
0.978341 0.222902 0.000000
0.999734 0.204771 0.000000
1.000000 0.187342 0.000000
1.000000 0.170785 0.000000
1.000000 0.155271 0.000000
1.000000 0.140985 0.000000
1.000000 0.128102 0.000000
1.000000 0.116769 0.000000
1.000000 0.107054 0.000000
1.000000 0.098894 0.000000
1.000000 0.091973 0.000000
1.000000 0.085699 0.000000
0.000000 0.576732 0.000000
0.000000 0.565750 0.000000
0.000090 0.554080 0.000000
0.008701 0.540979 0.000000
0.065868 0.526304 0.000000
0.123778 0.511861 0.000000
0.179616 0.497200 0.000000
0.235523 0.487681 0.000000
0.292025 0.479279 0.000000
0.347914 0.468569 0.000000
0.402713 0.455540 0.000000
0.456686 0.440729 0.000000
0.510502 0.424827 0.000000
0.564677 0.408203 0.000000
0.619535 0.391037 0.000000
0.675260 0.373449 0.000000
0.731935 0.355546 0.000000
0.789566 0.337449 0.000000
0.848093 0.319300 0.000000
0.907408 0.301259 0.000000
0.967368 0.283507 0.000000
0.997046 0.266225 0.000000
1.000000 0.249624 0.000000
1.000000 0.233872 0.000000
1.000000 0.219133 0.000000
1.000000 0.205574 0.000000
1.000000 0.193338 0.000000
1.000000 0.182528 0.000000
1.000000 0.173198 0.000000
1.000000 0.165358 0.000000
1.000000 0.158698 0.000000
1.000000 0.152684 0.000000
0.000000 0.628116 0.000000
0.000000 0.617360 0.000000
0.000000 0.606532 0.000000
0.003226 0.595405 0.000000
0.048130 0.583801 0.000000
0.107912 0.571905 0.000000
0.165958 0.559922 0.000000
0.222652 0.547830 0.000000
0.278336 0.535403 0.000000
0.333250 0.522342 0.000000
0.387565 0.508428 0.000000
0.441611 0.493733 0.000000
0.495759 0.478394 0.000000
0.550329 0.462510 0.000000
0.605568 0.446168 0.000000
0.661635 0.429446 0.000000
0.718610 0.412433 0.000000
0.776502 0.395240 0.000000
0.835254 0.377997 0.000000
0.894754 0.360856 0.000000
0.954856 0.343994 0.000000
0.993074 0.327585 0.000000
1.000000 0.311837 0.000000
1.000000 0.296916 0.000000
1.000000 0.282977 0.000000
1.000000 0.270180 0.000000
1.000000 0.258647 0.000000
1.000000 0.248451 0.000000
1.000000 0.239630 0.000000
1.000000 0.232223 0.000000
1.000000 0.225923 0.000000
1.000000 0.220233 0.000000
0.000000 0.679784 0.000000
0.000000 0.668700 0.000000
0.000000 0.657813 0.000000
0.001323 0.646987 0.000000
0.028623 0.635954 0.000000
0.089083 0.624560 0.000000
0.147869 0.612775 0.000000
0.205204 0.600581 0.000000
0.261360 0.587931 0.000000
0.316650 0.574769 0.000000
0.371403 0.561066 0.000000
0.425959 0.546837 0.000000
0.480639 0.532124 0.000000
0.535723 0.516969 0.000000
0.591428 0.501415 0.000000
0.647909 0.485526 0.000000
0.705246 0.469379 0.000000
0.763450 0.453072 0.000000
0.822463 0.436725 0.000000
0.882171 0.420482 0.000000
0.942420 0.404508 0.000000
0.989127 0.388972 0.000000
1.000000 0.374076 0.000000
1.000000 0.359983 0.000000
1.000000 0.346844 0.000000
1.000000 0.334812 0.000000
1.000000 0.323996 0.000000
1.000000 0.314455 0.000000
1.000000 0.306209 0.000000
1.000000 0.299285 0.000000
1.000000 0.293382 0.000000
1.000000 0.288040 0.000000
0.000000 0.731780 0.000000
0.000000 0.720246 0.000000
0.000000 0.709110 0.000000
0.000172 0.698266 0.000000
0.011945 0.687362 0.000000
0.069333 0.676153 0.000000
0.128654 0.664560 0.000000
0.186590 0.652566 0.000000
0.243372 0.640160 0.000000
0.299298 0.627326 0.000000
0.354696 0.614059 0.000000
0.409896 0.600369 0.000000
0.465200 0.586274 0.000000
0.520868 0.571805 0.000000
0.577110 0.556999 0.000000
0.634066 0.541899 0.000000
0.691820 0.526577 0.000000
0.750381 0.511121 0.000000
0.809688 0.495639 0.000000
0.869622 0.480265 0.000000
0.930019 0.465153 0.000000
0.985188 0.450465 0.000000
1.000000 0.436397 0.000000
1.000000 0.423105 0.000000
1.000000 0.410739 0.000000
1.000000 0.399446 0.000000
1.000000 0.389327 0.000000
1.000000 0.380425 0.000000
1.000000 0.372744 0.000000
1.000000 0.366285 0.000000
1.000000 0.360753 0.000000
1.000000 0.355722 0.000000
0.000000 0.784129 0.000000
0.000000 0.772141 0.000000
0.000000 0.760755 0.000000
0.000000 0.749880 0.000000
0.004261 0.739077 0.000000
0.049198 0.728038 0.000000
0.108993 0.716664 0.000000
0.167506 0.704945 0.000000
0.224929 0.692878 0.000000
0.281534 0.680454 0.000000
0.337628 0.667664 0.000000
0.393520 0.654512 0.000000
0.449494 0.641012 0.000000
0.505796 0.627188 0.000000
0.562623 0.613075 0.000000
0.620110 0.598717 0.000000
0.678328 0.584168 0.000000
0.737282 0.569512 0.000000
0.796908 0.554845 0.000000
0.857079 0.540290 0.000000
0.917624 0.525991 0.000000
0.977525 0.512102 0.000000
0.999505 0.498811 0.000000
1.000000 0.486272 0.000000
1.000000 0.474630 0.000000
1.000000 0.464027 0.000000
1.000000 0.454552 0.000000
1.000000 0.446230 0.000000
1.000000 0.439040 0.000000
1.000000 0.432952 0.000000
1.000000 0.427676 0.000000
1.000000 0.422827 0.000000
0.000000 0.836838 0.000000
0.000000 0.824416 0.000000
0.000000 0.812819 0.000000
0.000000 0.801966 0.000000
0.001663 0.791315 0.000000
0.028886 0.780487 0.000000
0.089119 0.769370 0.000000
0.148181 0.757964 0.000000
0.206233 0.746271 0.000000
0.263517 0.734280 0.000000
0.320315 0.721977 0.000000
0.376917 0.709356 0.000000
0.433589 0.696427 0.000000
0.490559 0.683212 0.000000
0.548009 0.669744 0.000000
0.606063 0.656066 0.000000
0.664783 0.642234 0.000000
0.724159 0.628311 0.000000
0.784121 0.614391 0.000000
0.844537 0.600584 0.000000
0.905227 0.587029 0.000000
0.965972 0.573867 0.000000
0.996683 0.561285 0.000000
1.000000 0.549432 0.000000
1.000000 0.538449 0.000000
1.000000 0.528464 0.000000
1.000000 0.519550 0.000000
1.000000 0.511705 0.000000
1.000000 0.504872 0.000000
1.000000 0.498984 0.000000
1.000000 0.493768 0.000000
1.000000 0.488892 0.000000
0.000000 0.889903 0.000000
0.000000 0.877062 0.000000
0.000000 0.865296 0.000000
0.000000 0.854527 0.000000
0.000173 0.844092 0.000000
0.012601 0.833528 0.000000
0.069178 0.822710 0.000000
0.128766 0.811647 0.000000
0.187427 0.800354 0.000000
0.245376 0.788815 0.000000
0.302875 0.777006 0.000000
0.360192 0.764913 0.000000
0.417575 0.752539 0.000000
0.475234 0.739902 0.000000
0.533332 0.727034 0.000000
0.591979 0.713977 0.000000
0.651222 0.700785 0.000000
0.711041 0.687522 0.000000
0.771351 0.674264 0.000000
0.832015 0.661119 0.000000
0.892852 0.648217 0.000000
0.953649 0.635698 0.000000
0.993139 0.623742 0.000000
1.000000 0.612495 0.000000
1.000000 0.602088 0.000000
1.000000 0.592629 0.000000
1.000000 0.584158 0.000000
1.000000 0.576638 0.000000
1.000000 0.569972 0.000000
1.000000 0.564058 0.000000
1.000000 0.558654 0.000000
1.000000 0.553491 0.000000
0.000000 0.943302 0.000000
0.000000 0.930051 0.000000
0.000000 0.918152 0.000000
0.000000 0.907527 0.000000
0.000000 0.897370 0.000000
0.005216 0.887121 0.000000
0.049310 0.876639 0.000000
0.109400 0.865949 0.000000
0.168651 0.855077 0.000000
0.227249 0.844004 0.000000
0.285439 0.832699 0.000000
0.343467 0.821135 0.000000
0.401564 0.809303 0.000000
0.459920 0.797216 0.000000
0.518680 0.784903 0.000000
0.577934 0.772406 0.000000
0.637713 0.759777 0.000000
0.697982 0.747079 0.000000
0.758648 0.734390 0.000000
0.819564 0.721806 0.000000
0.880554 0.709458 0.000000
0.941421 0.697487 0.000000
0.989612 0.686067 0.000000
1.000000 0.675336 0.000000
1.000000 0.665406 0.000000
1.000000 0.656349 0.000000
1.000000 0.648165 0.000000
1.000000 0.640770 0.000000
1.000000 0.634036 0.000000
1.000000 0.627841 0.000000
1.000000 0.621978 0.000000
1.000000 0.616265 0.000000
0.000000 0.986471 0.000000
0.000000 0.981155 0.000000
0.000000 0.971339 0.000000
0.000000 0.960910 0.000000
0.000000 0.951085 0.000000
0.002095 0.941197 0.000000
0.029657 0.931082 0.000000
0.090231 0.920788 0.000000
0.150053 0.910351 0.000000
0.209285 0.899756 0.000000
0.268151 0.888959 0.000000
0.326881 0.877921 0.000000
0.385687 0.866618 0.000000
0.444740 0.855052 0.000000
0.504164 0.843248 0.000000
0.564029 0.831244 0.000000
0.624346 0.819095 0.000000
0.685067 0.806866 0.000000
0.746090 0.794637 0.000000
0.807270 0.782511 0.000000
0.868429 0.770616 0.000000
0.929389 0.759095 0.000000
0.986129 0.748117 0.000000
1.000000 0.737801 0.000000
1.000000 0.728223 0.000000
1.000000 0.719410 0.000000
1.000000 0.711309 0.000000
1.000000 0.703806 0.000000
1.000000 0.696730 0.000000
1.000000 0.690008 0.000000
1.000000 0.683446 0.000000
1.000000 0.676941 0.000000
0.000000 1.000000 0.000000
0.000000 0.999981 0.000000
0.000000 0.997102 0.000000
0.000000 0.993494 0.000000
0.000000 0.990129 0.000000
0.000168 0.986750 0.000000
0.014011 0.982808 0.000000
0.071413 0.976058 0.000000
0.131789 0.966063 0.000000
0.191640 0.955946 0.000000
0.251168 0.945654 0.000000
0.310587 0.935130 0.000000
0.370091 0.924335 0.000000
0.429833 0.913256 0.000000
0.489914 0.901909 0.000000
0.550385 0.890328 0.000000
0.611237 0.878573 0.000000
0.672411 0.866713 0.000000
0.733796 0.854839 0.000000
0.795249 0.843065 0.000000
0.856602 0.831528 0.000000
0.917681 0.820364 0.000000
0.977910 0.809727 0.000000
0.999336 0.799704 0.000000
1.000000 0.790320 0.000000
1.000000 0.781552 0.000000
1.000000 0.773299 0.000000
1.000000 0.765418 0.000000
1.000000 0.757788 0.000000
1.000000 0.750283 0.000000
1.000000 0.742816 0.000000
1.000000 0.735335 0.000000
0.000000 1.000000 0.000000
0.000000 1.000000 0.000000
0.000000 1.000000 0.000000
0.000000 1.000000 0.000000
0.000000 1.000000 0.000000
0.000000 1.000000 0.000000
0.006883 0.999953 0.000000
0.053102 0.998909 0.000000
0.114022 0.995796 0.000000
0.174477 0.992648 0.000000
0.234653 0.989450 0.000000
0.294748 0.986180 0.000000
0.354937 0.980842 0.000000
0.415353 0.971631 0.000000
0.476079 0.960681 0.000000
0.537144 0.949451 0.000000
0.598526 0.938002 0.000000
0.660150 0.926419 0.000000
0.721907 0.914807 0.000000
0.783650 0.903293 0.000000
0.845213 0.892023 0.000000
0.906424 0.881123 0.000000
0.967073 0.870713 0.000000
0.996872 0.860830 0.000000
1.000000 0.851448 0.000000
1.000000 0.842490 0.000000
1.000000 0.833820 0.000000
1.000000 0.825343 0.000000
1.000000 0.816923 0.000000
1.000000 0.808460 0.000000
1.000000 0.799941 0.000000
1.000000 0.791365 0.000000
0.000000 1.000000 0.000000
0.000000 1.000000 0.000000
0.000000 1.000000 0.000000
0.000000 1.000000 0.000000
0.000000 1.000000 0.000000
0.000000 1.000000 0.000000
0.003541 1.000000 0.000000
0.035463 1.000000 0.000000
0.096915 1.000000 0.000000
0.157963 1.000000 0.000000
0.218774 1.000000 0.000000
0.279530 1.000000 0.000000
0.340388 0.999772 0.000000
0.401462 0.997855 0.000000
0.462818 0.994775 0.000000
0.524466 0.991605 0.000000
0.586370 0.988359 0.000000
0.648447 0.983828 0.000000
0.710580 0.974345 0.000000
0.772623 0.963017 0.000000
0.834399 0.951932 0.000000
0.895721 0.941193 0.000000
0.956341 0.930865 0.000000
0.994074 0.920933 0.000000
1.000000 0.911319 0.000000
1.000000 0.901894 0.000000
1.000000 0.892618 0.000000
1.000000 0.883305 0.000000
1.000000 0.873921 0.000000
1.000000 0.864393 0.000000
1.000000 0.854747 0.000000
1.000000 0.845021 0.000000
0.000000 1.000000 0.000000
0.000000 1.000000 0.000000
0.000000 1.000000 0.000000
0.000000 1.000000 0.000000
0.000000 1.000000 0.000000
0.000000 1.000000 0.000000
0.000369 1.000000 0.000000
0.018672 1.000000 0.000000
0.080638 1.000000 0.000000
0.142264 1.000000 0.000000
0.203696 1.000000 0.000000
0.265098 1.000000 0.000000
0.326609 1.000000 0.000000
0.388327 1.000000 0.000000
0.450299 1.000000 0.000000
0.512519 1.000000 0.000000
0.574938 1.000000 0.000000
0.637463 0.999850 0.000000
0.699974 0.998630 0.000000
0.762306 0.995730 0.000000
0.824259 0.992878 0.000000
0.885616 0.990104 0.000000
0.946086 0.987424 0.000000
0.991391 0.979574 0.000000
1.000000 0.969592 0.000000
1.000000 0.959578 0.000000
1.000000 0.949444 0.000000
1.000000 0.939134 0.000000
1.000000 0.928662 0.000000
1.000000 0.918010 0.000000
1.000000 0.907218 0.000000
1.000000 0.896348 0.000000
0.000000 1.000000 0.000000
0.000000 1.000000 0.000000
0.000000 1.000000 0.000000
0.000000 1.000000 0.000000
0.000000 1.000000 0.000000
0.000000 1.000000 0.000000
0.000009 1.000000 0.000000
0.010871 1.000000 0.000000
0.065375 1.000000 0.000000
0.127550 1.000000 0.000000
0.189583 1.000000 0.000000
0.251615 1.000000 0.000000
0.313767 1.000000 0.000000
0.376115 1.000000 0.000000
0.438688 1.000000 0.000000
0.501469 1.000000 0.000000
0.564390 1.000000 0.000000
0.627351 1.000000 0.000000
0.690213 1.000000 0.000000
0.752788 1.000000 0.000000
0.814835 1.000000 0.000000
0.876096 1.000000 0.000000
0.936239 1.000000 0.000000
0.988707 0.999327 0.000000
1.000000 0.997270 0.000000
1.000000 0.994860 0.000000
1.000000 0.992434 0.000000
1.000000 0.989941 0.000000
1.000000 0.981000 0.000000
1.000000 0.969316 0.000000
1.000000 0.957414 0.000000
1.000000 0.945450 0.000000
0.000000 1.000000 0.000000
0.000000 1.000000 0.000000
0.000000 1.000000 0.000000
0.000000 1.000000 0.000000
0.000000 1.000000 0.000000
0.000000 1.000000 0.000000
0.000000 1.000000 0.000000
0.007594 1.000000 0.000000
0.051342 1.000000 0.000000
0.114009 1.000000 0.000000
0.176605 1.000000 0.000000
0.239241 1.000000 0.000000
0.302014 1.000000 0.000000
0.364978 1.000000 0.000000
0.428141 1.000000 0.000000
0.491464 1.000000 0.000000
0.554866 1.000000 0.000000
0.618224 1.000000 0.000000
0.681377 1.000000 0.000000
0.744097 1.000000 0.000000
0.806094 1.000000 0.000000
0.867080 1.000000 0.000000
0.926637 1.000000 0.000000
0.984164 1.000000 0.000000
0.999698 1.000000 0.000000
1.000000 1.000000 0.000000
1.000000 1.000000 0.000000
1.000000 1.000000 0.000000
1.000000 0.998855 0.000000
1.000000 0.996553 0.000000
1.000000 0.994038 0.000000
1.000000 0.991498 0.000000
0.000000 1.000000 0.000000
0.000000 1.000000 0.000000
0.000000 1.000000 0.000000
0.000000 1.000000 0.000000
0.000000 1.000000 0.000000
0.000000 1.000000 0.000000
0.000000 1.000000 0.000000
0.004848 1.000000 0.000000
0.038778 1.000000 0.000000
0.101837 1.000000 0.000000
0.164926 1.000000 0.000000
0.228123 1.000000 0.000000
0.291489 1.000000 0.000000
0.355047 1.000000 0.000000
0.418779 1.000000 0.000000
0.482618 1.000000 0.000000
0.546453 1.000000 0.000000
0.610134 1.000000 0.000000
0.673466 1.000000 0.000000
0.736180 1.000000 0.000000
0.797936 1.000000 0.000000
0.858447 1.000000 0.000000
0.917301 1.000000 0.000000
0.974327 1.000000 0.000000
0.998083 1.000000 0.000000
1.000000 1.000000 0.000000
1.000000 1.000000 0.000000
1.000000 1.000000 0.000000
1.000000 1.000000 0.000000
1.000000 1.000000 0.000000
1.000000 1.000000 0.000000
1.000000 1.000000 0.000000
0.000000 1.000000 0.000000
0.000000 1.000000 0.000000
0.000000 1.000000 0.000000
0.000000 1.000000 0.000000
0.000000 1.000000 0.000000
0.000000 1.000000 0.000000
0.000000 1.000000 0.000000
0.002478 1.000000 0.000000
0.027879 1.000000 0.000000
0.091203 1.000000 0.000000
0.154688 1.000000 0.000000
0.218376 1.000000 0.000000
0.282286 1.000000 0.000000
0.346403 1.000000 0.000000
0.410669 1.000000 0.000000
0.474978 1.000000 0.000000
0.539175 1.000000 0.000000
0.603067 1.000000 0.000000
0.666422 1.000000 0.000000
0.728930 1.000000 0.000000
