ecomm/src/main/assets/lut/Waves - converted with Color.cube
TITLE "Waves - converted with Color.io - Created with Color.io"
LUT_3D_SIZE 5
DOMAIN_MIN 0.000000 0.000000 0.000000
DOMAIN_MAX 0.903226 0.903226 0.903226
0.000001 0.000001 0.000001
0.383704 0.000000 0.000000
0.771570 0.000000 0.000000
1.000000 0.000000 0.000000
1.000000 0.000000 0.000000
0.000000 0.371103 0.000000
0.096475 0.093690 0.000000
0.674262 0.165813 0.000000
1.000000 0.019137 0.000000
1.000000 0.000000 0.000000
0.000000 0.731780 0.000000
0.186590 0.652566 0.000000
0.577110 0.556999 0.000000
0.985188 0.450465 0.000000
1.000000 0.372744 0.000000
0.000000 1.000000 0.000000
0.053102 0.998909 0.000000
0.476079 0.960681 0.000000
0.906424 0.881123 0.000000
1.000000 0.816923 0.000000
0.000000 1.000000 0.000000
0.000459 1.000000 0.000000
0.403795 1.000000 0.000000
0.841695 1.000000 0.000000
1.000000 1.000000 0.000000
0.000000 0.000000 0.300406
0.008448 0.005940 0.008846
0.627319 0.000000 0.139259
0.962922 0.000000 0.006587
1.000000 0.000000 0.000000
0.000000 0.253937 0.229089
0.160471 0.120288 0.107601
0.555004 0.022739 0.015035
0.977741 0.000000 0.000000
1.000000 0.000000 0.000000
0.000000 0.622871 0.195431
0.056291 0.497691 0.044393
0.473241 0.444780 0.000000
0.910634 0.376369 0.000000
1.000000 0.349821 0.000000
0.000000 0.968819 0.092819
0.001125 0.883181 0.001169
0.407703 0.867490 0.000000
0.846650 0.819369 0.000000
1.000000 0.776950 0.000000
0.000000 1.000000 0.016657
0.000000 1.000000 0.000000
0.376946 1.000000 0.000000
0.808084 1.000000 0.000000
1.000000 1.000000 0.000000
0.000000 0.000000 0.600677
0.175084 0.000000 0.653423
0.072793 0.061373 0.079511
0.380460 0.020764 0.201182
0.994920 0.000000 0.267459
0.002168 0.158152 0.380360
0.084147 0.033110 0.369513
0.463803 0.000000 0.432120
0.907984 0.000000 0.363041
1.000000 0.000000 0.288294
0.000000 0.433055 0.489270
0.057249 0.337738 0.355904
0.408653 0.356034 0.339193
0.856789 0.351041 0.341971
1.000000 0.343889 0.336789
0.000000 0.820850 0.535614
0.023156 0.716839 0.433156
0.398811 0.792768 0.368612
0.801724 0.776120 0.330020
1.000000 0.722404 0.330289
0.000000 1.000000 0.495547
0.000018 1.000000 0.425712
0.368328 1.000000 0.367025
0.745406 1.000000 0.330119
1.000000 1.000000 0.318028
0.000000 0.000000 0.910307
0.021888 0.000000 1.000000
0.443916 0.000000 0.945099
0.260564 0.185515 0.292903
0.869547 0.000000 0.563069
0.005220 0.144917 0.611164
0.075087 0.020497 0.734473
0.376875 0.000000 0.876568
0.823077 0.000000 0.799659
1.000000 0.000000 0.665583
0.090775 0.365905 0.587746
0.327221 0.397467 0.536098
0.431601 0.396890 0.676858
0.787360 0.339730 0.762133
1.000000 0.339512 0.698001
0.000000 0.623719 0.740784
0.412755 0.591145 0.614104
0.620175 0.693266 0.678504
0.764363 0.721849 0.707707
0.999791 0.677792 0.672879
0.000000 0.998639 0.857998
0.190036 0.955797 0.750883
0.511276 0.960902 0.725267
0.718494 0.994946 0.684508
0.985573 0.972900 0.645271
0.000000 0.000000 1.000000
0.000000 0.000000 1.000000
0.348321 0.000000 1.000000
0.747157 0.000000 1.000000
0.875750 0.000000 0.853084
0.005536 0.148323 0.869608
0.021558 0.012940 1.000000
0.323373 0.000000 1.000000
0.761214 0.000000 1.000000
1.000000 0.000000 1.000000
0.253897 0.447195 0.739891
0.402289 0.505971 0.831156
0.447498 0.438722 0.999953
0.714252 0.346854 1.000000
1.000000 0.321624 0.999506
0.295240 0.640058 0.821759
0.590320 0.706298 0.807938
0.736407 0.787465 0.895749
0.762003 0.727716 0.975217
0.977117 0.646538 0.963728
0.104738 0.886549 0.986449
0.493128 0.849799 0.878656
0.713082 0.886910 0.885940
0.837260 0.921739 0.906621
0.946151 0.924516 0.917009
